(G-CODE GENERATED BY FLATCAM v8.994 - www.flatcam.org - Version Date: 2020/11/7)

(Name: Gerber_TopLayer.GTL_iso_combined_1_cnc)
(Type: G-code from Geometry)
(Units: MM)

(Created on Sunday, 13 April 2025 at 13:31)

(This preprocessor is the default preprocessor used by FlatCAM.)
(It is made to work with MACH3 compatible motion controllers.)

(TOOL DIAMETER: 2.0 mm)
(Feedrate_XY: 350.0 mm/min)
(Feedrate_Z: 60.0 mm/min)
(Feedrate rapids 1500.0 mm/min)

(Z_Cut: -0.5 mm)
(Z_Move: 2.0 mm)
(Z Start: None mm)
(Z End: 15.0 mm)
(X,Y End: None mm)
(Steps per circle: 64)
(Preprocessor Geometry: default)

(X range:    1.5217 ...  152.9103  mm)
(Y range:  -44.3795 ...   70.4859  mm)

(Spindle Speed: 24000.0 RPM)
G21
G90
G94

G01 F350.00

M5
G00 Z15.0000
G00 X0.0000 Y0.0000
T1
M6    
(MSG, Change to Tool Dia = 2.0000)
M0
G00 Z15.0000

M03 S24000.0
G01 F350.00
G00 X39.1815 Y70.4859
G01 F60.00
G01 Z-0.5000
G01 F350.00
G01 X39.1572 Y70.4856
G01 X39.1328 Y70.4847
G01 X39.1085 Y70.4832
G01 X39.0843 Y70.4812
G01 X39.0600 Y70.4785
G01 X39.0359 Y70.4753
G01 X39.0119 Y70.4714
G01 X38.9879 Y70.4670
G01 X38.9255 Y70.4544
G01 X38.9018 Y70.4488
G01 X38.8782 Y70.4426
G01 X38.8548 Y70.4359
G01 X38.8316 Y70.4286
G01 X38.8086 Y70.4207
G01 X38.7857 Y70.4123
G01 X38.7631 Y70.4033
G01 X38.7407 Y70.3938
G01 X38.7185 Y70.3838
G01 X38.6966 Y70.3732
G01 X38.6750 Y70.3620
G01 X38.6536 Y70.3504
G01 X38.6325 Y70.3382
G01 X38.6117 Y70.3255
G01 X38.5582 Y70.2905
G01 X38.5375 Y70.2764
G01 X38.5170 Y70.2617
G01 X38.4970 Y70.2466
G01 X38.4773 Y70.2309
G01 X38.4581 Y70.2148
G01 X38.4392 Y70.1982
G01 X38.4208 Y70.1811
G01 X38.4028 Y70.1636
G01 X1.8446 Y33.6053
G01 X1.8270 Y33.5873
G01 X1.8099 Y33.5689
G01 X1.7933 Y33.5501
G01 X1.7772 Y33.5308
G01 X1.7615 Y33.5111
G01 X1.7464 Y33.4911
G01 X1.7317 Y33.4707
G01 X1.6958 Y33.4169
G01 X1.6821 Y33.3956
G01 X1.6689 Y33.3740
G01 X1.6563 Y33.3521
G01 X1.6443 Y33.3298
G01 X1.6328 Y33.3073
G01 X1.6220 Y33.2844
G01 X1.6116 Y33.2613
G01 X1.6019 Y33.2380
G01 X1.5928 Y33.2144
G01 X1.5842 Y33.1906
G01 X1.5763 Y33.1665
G01 X1.5690 Y33.1423
G01 X1.5623 Y33.1179
G01 X1.5562 Y33.0934
G01 X1.5426 Y33.0296
G01 X1.5377 Y33.0044
G01 X1.5335 Y32.9792
G01 X1.5299 Y32.9538
G01 X1.5270 Y32.9284
G01 X1.5247 Y32.9029
G01 X1.5230 Y32.8773
G01 X1.5220 Y32.8517
G01 X1.5217 Y32.8261
G01 X1.5217 Y-43.2423
G01 X1.5220 Y-43.2683
G01 X1.5231 Y-43.2942
G01 X1.5247 Y-43.3201
G01 X1.5271 Y-43.3459
G01 X1.5301 Y-43.3717
G01 X1.5338 Y-43.3974
G01 X1.5382 Y-43.4230
G01 X1.5513 Y-43.4870
G01 X1.5568 Y-43.5116
G01 X1.5629 Y-43.5359
G01 X1.5696 Y-43.5601
G01 X1.5769 Y-43.5842
G01 X1.5848 Y-43.6080
G01 X1.5933 Y-43.6316
G01 X1.6024 Y-43.6550
G01 X1.6121 Y-43.6782
G01 X1.6224 Y-43.7011
G01 X1.6332 Y-43.7238
G01 X1.6446 Y-43.7462
G01 X1.6566 Y-43.7682
G01 X1.6691 Y-43.7900
G01 X1.6822 Y-43.8115
G01 X1.7176 Y-43.8656
G01 X1.7317 Y-43.8864
G01 X1.7464 Y-43.9068
G01 X1.7615 Y-43.9269
G01 X1.7772 Y-43.9465
G01 X1.7933 Y-43.9658
G01 X1.8099 Y-43.9846
G01 X1.8270 Y-44.0031
G01 X1.8446 Y-44.0211
G01 X1.8971 Y-44.0732
G01 X1.9145 Y-44.0894
G01 X1.9323 Y-44.1052
G01 X1.9505 Y-44.1206
G01 X1.9690 Y-44.1355
G01 X1.9878 Y-44.1500
G01 X2.0070 Y-44.1640
G01 X2.0596 Y-44.1999
G01 X2.0804 Y-44.2137
G01 X2.1017 Y-44.2269
G01 X2.1232 Y-44.2396
G01 X2.1451 Y-44.2518
G01 X2.1673 Y-44.2634
G01 X2.1897 Y-44.2745
G01 X2.2124 Y-44.2849
G01 X2.2354 Y-44.2949
G01 X2.2586 Y-44.3042
G01 X2.2821 Y-44.3130
G01 X2.3057 Y-44.3211
G01 X2.3296 Y-44.3287
G01 X2.3536 Y-44.3357
G01 X2.3778 Y-44.3420
G01 X2.4021 Y-44.3478
G01 X2.4266 Y-44.3530
G01 X2.4892 Y-44.3650
G01 X2.5132 Y-44.3688
G01 X2.5374 Y-44.3721
G01 X2.5616 Y-44.3748
G01 X2.5859 Y-44.3768
G01 X2.6102 Y-44.3783
G01 X2.6345 Y-44.3792
G01 X2.6589 Y-44.3795
G01 X151.7731 Y-44.3795
G01 X151.7975 Y-44.3792
G01 X151.8218 Y-44.3783
G01 X151.8461 Y-44.3768
G01 X151.8704 Y-44.3748
G01 X151.8946 Y-44.3721
G01 X151.9187 Y-44.3688
G01 X151.9428 Y-44.3650
G01 X152.0054 Y-44.3530
G01 X152.0298 Y-44.3478
G01 X152.0542 Y-44.3420
G01 X152.0784 Y-44.3357
G01 X152.1024 Y-44.3287
G01 X152.1263 Y-44.3211
G01 X152.1499 Y-44.3130
G01 X152.1734 Y-44.3042
G01 X152.1966 Y-44.2949
G01 X152.2196 Y-44.2849
G01 X152.2423 Y-44.2745
G01 X152.2647 Y-44.2634
G01 X152.2869 Y-44.2518
G01 X152.3088 Y-44.2396
G01 X152.3303 Y-44.2269
G01 X152.3515 Y-44.2137
G01 X152.3724 Y-44.1999
G01 X152.4250 Y-44.1640
G01 X152.4442 Y-44.1500
G01 X152.4630 Y-44.1355
G01 X152.4815 Y-44.1206
G01 X152.4997 Y-44.1052
G01 X152.5175 Y-44.0894
G01 X152.5349 Y-44.0732
G01 X152.5519 Y-44.0566
G01 X152.6049 Y-44.0031
G01 X152.6220 Y-43.9847
G01 X152.6386 Y-43.9659
G01 X152.6547 Y-43.9466
G01 X152.6704 Y-43.9270
G01 X152.6855 Y-43.9070
G01 X152.7001 Y-43.8866
G01 X152.7361 Y-43.8328
G01 X152.7497 Y-43.8116
G01 X152.7628 Y-43.7902
G01 X152.7753 Y-43.7684
G01 X152.7873 Y-43.7462
G01 X152.7987 Y-43.7238
G01 X152.8096 Y-43.7012
G01 X152.8199 Y-43.6782
G01 X152.8296 Y-43.6550
G01 X152.8387 Y-43.6316
G01 X152.8472 Y-43.6079
G01 X152.8551 Y-43.5840
G01 X152.8624 Y-43.5600
G01 X152.8692 Y-43.5357
G01 X152.8753 Y-43.5113
G01 X152.8889 Y-43.4482
G01 X152.8939 Y-43.4228
G01 X152.8982 Y-43.3972
G01 X152.9019 Y-43.3716
G01 X152.9049 Y-43.3458
G01 X152.9073 Y-43.3200
G01 X152.9089 Y-43.2942
G01 X152.9099 Y-43.2683
G01 X152.9103 Y-43.2423
G01 X152.9103 Y32.8261
G01 X152.9100 Y32.8517
G01 X152.9090 Y32.8772
G01 X152.9073 Y32.9028
G01 X152.9050 Y32.9282
G01 X152.9021 Y32.9537
G01 X152.8985 Y32.9790
G01 X152.8943 Y33.0042
G01 X152.8894 Y33.0293
G01 X152.8758 Y33.0932
G01 X152.8697 Y33.1178
G01 X152.8630 Y33.1422
G01 X152.8557 Y33.1664
G01 X152.8478 Y33.1905
G01 X152.8392 Y33.2143
G01 X152.8301 Y33.2379
G01 X152.8204 Y33.2613
G01 X152.8100 Y33.2844
G01 X152.7991 Y33.3073
G01 X152.7876 Y33.3299
G01 X152.7756 Y33.3522
G01 X152.7630 Y33.3741
G01 X152.7498 Y33.3958
G01 X152.7361 Y33.4171
G01 X152.7001 Y33.4708
G01 X152.6855 Y33.4912
G01 X152.6704 Y33.5113
G01 X152.6547 Y33.5309
G01 X152.6386 Y33.5501
G01 X152.6220 Y33.5690
G01 X152.6049 Y33.5874
G01 X152.5874 Y33.6053
G01 X116.0292 Y70.1636
G01 X116.0112 Y70.1811
G01 X115.9928 Y70.1982
G01 X115.9739 Y70.2148
G01 X115.9547 Y70.2309
G01 X115.9350 Y70.2466
G01 X115.9150 Y70.2617
G01 X115.8945 Y70.2764
G01 X115.8738 Y70.2905
G01 X115.8203 Y70.3255
G01 X115.7995 Y70.3382
G01 X115.7784 Y70.3504
G01 X115.7570 Y70.3620
G01 X115.7354 Y70.3732
G01 X115.7135 Y70.3838
G01 X115.6913 Y70.3938
G01 X115.6689 Y70.4033
G01 X115.6463 Y70.4123
G01 X115.6234 Y70.4207
G01 X115.6004 Y70.4286
G01 X115.5772 Y70.4359
G01 X115.5538 Y70.4426
G01 X115.5302 Y70.4488
G01 X115.5065 Y70.4544
G01 X115.4827 Y70.4594
G01 X115.4201 Y70.4714
G01 X115.3961 Y70.4753
G01 X115.3719 Y70.4785
G01 X115.3477 Y70.4812
G01 X115.3235 Y70.4832
G01 X115.2992 Y70.4847
G01 X115.2748 Y70.4856
G01 X115.2505 Y70.4859
G01 X39.1815 Y70.4859
G00 Z2.0000
M05
G00 Z2.0000
G00 Z15.00


