(G-CODE GENERATED BY FLATCAM v8.994 - www.flatcam.org - Version Date: 2020/11/7)

(Name: Drill_PTH_Through.DRL_edit_cnc)
(Type: G-code from Geometry)
(Units: MM)

(Created on Sunday, 13 April 2025 at 13:29)

(This preprocessor is used with a motion controller loaded with GRBL firmware.)
(It is configured to be compatible with almost any version of GRBL firmware.)


(TOOLS DIAMETER: )
(Tool: 1 -> Dia: 0.712)
(Tool: 2 -> Dia: 0.889)
(Tool: 3 -> Dia: 0.914)
(Tool: 4 -> Dia: 0.915)
(Tool: 5 -> Dia: 1.067)
(Tool: 6 -> Dia: 1.101)
(Tool: 7 -> Dia: 1.118)
(Tool: 8 -> Dia: 1.2)
(Tool: 9 -> Dia: 1.901)
(Tool: 10 -> Dia: 2.54)

(FEEDRATE Z: )
(Tool: 1 -> Feedrate: 300)
(Tool: 2 -> Feedrate: 300)
(Tool: 3 -> Feedrate: 300)
(Tool: 4 -> Feedrate: 300)
(Tool: 5 -> Feedrate: 300)
(Tool: 6 -> Feedrate: 300)
(Tool: 7 -> Feedrate: 300)
(Tool: 8 -> Feedrate: 300)
(Tool: 9 -> Feedrate: 300)
(Tool: 10 -> Feedrate: 300)

(FEEDRATE RAPIDS: )
(Tool: 1 -> Feedrate Rapids: 1500)
(Tool: 2 -> Feedrate Rapids: 1500)
(Tool: 3 -> Feedrate Rapids: 1500)
(Tool: 4 -> Feedrate Rapids: 1500)
(Tool: 5 -> Feedrate Rapids: 1500)
(Tool: 6 -> Feedrate Rapids: 1500)
(Tool: 7 -> Feedrate Rapids: 1500)
(Tool: 8 -> Feedrate Rapids: 1500)
(Tool: 9 -> Feedrate Rapids: 1500)
(Tool: 10 -> Feedrate Rapids: 1500)

(Z_CUT: )
(Tool: 1 -> Z_Cut: -2.0)
(Tool: 2 -> Z_Cut: -2.0)
(Tool: 3 -> Z_Cut: -2.0)
(Tool: 4 -> Z_Cut: -2.0)
(Tool: 5 -> Z_Cut: -2.0)
(Tool: 6 -> Z_Cut: -2.0)
(Tool: 7 -> Z_Cut: -2.0)
(Tool: 8 -> Z_Cut: -2.0)
(Tool: 9 -> Z_Cut: -2.0)
(Tool: 10 -> Z_Cut: -2.0)

(Tools Offset: )
(Tool: 9 -> Offset Z: 0.0)
(Tool: 4 -> Offset Z: 0.0)
(Tool: 2 -> Offset Z: 0.0)
(Tool: 10 -> Offset Z: 0.0)
(Tool: 1 -> Offset Z: 0.0)
(Tool: 3 -> Offset Z: 0.0)
(Tool: 6 -> Offset Z: 0.0)
(Tool: 8 -> Offset Z: 0.0)
(Tool: 5 -> Offset Z: 0.0)
(Tool: 7 -> Offset Z: 0.0)

(Z_MOVE: )
(Tool: 1 -> Z_Move: 2)
(Tool: 2 -> Z_Move: 2)
(Tool: 3 -> Z_Move: 2)
(Tool: 4 -> Z_Move: 2)
(Tool: 5 -> Z_Move: 2)
(Tool: 6 -> Z_Move: 2)
(Tool: 7 -> Z_Move: 2)
(Tool: 8 -> Z_Move: 2)
(Tool: 9 -> Z_Move: 2)
(Tool: 10 -> Z_Move: 2)

(Z Toolchange: 15 mm)
(X,Y Toolchange: 0.0000, 0.0000 mm)
(Z Start: None mm)
(Z End: 0.5 mm)
(X,Y End: None mm)
(Steps per circle: 64)
(Steps per circle: 64)
(Preprocessor Excellon: grbl_11)

(X range:   22.7680 ...  140.1625  mm)
(Y range:  -33.3850 ...   52.6455  mm)

(Spindle Speed: 24000 RPM)
G21
G90
G17
G94


G01 F300.00

M5             
G00 Z15.0000
G00 X0.0000 Y0.0000                
T1
M6
(MSG, Change to Tool Dia = 0.7120 ||| Total drills for tool T1 = 122)
M0
G00 Z15.0000

G01 F300.00
M03 S24000
G00 X36.4490 Y-17.5350
G01 Z-2.0000
G01 Z0
G00 Z2.0000
G00 X36.4490 Y-17.5350
G01 Z-2.0000
G01 Z0
G00 Z2.0000
G00 X33.9090 Y-17.5350
G01 Z-2.0000
G01 Z0
G00 Z2.0000
G00 X33.7820 Y-23.7580
G01 Z-2.0000
G01 Z0
G00 Z2.0000
G00 X36.8300 Y-26.2980
G01 Z-2.0000
G01 Z0
G00 Z2.0000
G00 X33.7820 Y-28.8380
G01 Z-2.0000
G01 Z0
G00 Z2.0000
G00 X33.7820 Y-33.0290
G01 Z-2.0000
G01 Z0
G00 Z2.0000
G00 X36.3220 Y-33.0290
G01 Z-2.0000
G01 Z0
G00 Z2.0000
G00 X53.2910 Y-26.4460
G01 Z-2.0000
G01 Z0
G00 Z2.0000
G00 X56.8960 Y-32.0130
G01 Z-2.0000
G01 Z0
G00 Z2.0000
G00 X59.4360 Y-32.0130
G01 Z-2.0000
G01 Z0
G00 Z2.0000
G00 X61.9760 Y-32.0130
G01 Z-2.0000
G01 Z0
G00 Z2.0000
G00 X69.5960 Y-32.0130
G01 Z-2.0000
G01 Z0
G00 Z2.0000
G00 X72.1360 Y-32.0130
G01 Z-2.0000
G01 Z0
G00 Z2.0000
G00 X74.6760 Y-32.0130
G01 Z-2.0000
G01 Z0
G00 Z2.0000
G00 X82.2960 Y-32.0130
G01 Z-2.0000
G01 Z0
G00 Z2.0000
G00 X84.8360 Y-32.0130
G01 Z-2.0000
G01 Z0
G00 Z2.0000
G00 X87.3760 Y-32.0130
G01 Z-2.0000
G01 Z0
G00 Z2.0000
G00 X94.9960 Y-32.0130
G01 Z-2.0000
G01 Z0
G00 Z2.0000
G00 X97.5360 Y-32.0130
G01 Z-2.0000
G01 Z0
G00 Z2.0000
G00 X100.0760 Y-32.0130
G01 Z-2.0000
G01 Z0
G00 Z2.0000
G00 X104.2910 Y-26.4460
G01 Z-2.0000
G01 Z0
G00 Z2.0000
G00 X114.8210 Y-28.2030
G01 Z-2.0000
G01 Z0
G00 Z2.0000
G00 X119.6210 Y-28.2030
G01 Z-2.0000
G01 Z0
G00 Z2.0000
G00 X126.4970 Y-27.3670
G01 Z-2.0000
G01 Z0
G00 Z2.0000
G00 X126.4970 Y-22.6680
G01 Z-2.0000
G01 Z0
G00 Z2.0000
G00 X126.4970 Y-17.9690
G01 Z-2.0000
G01 Z0
G00 Z2.0000
G00 X126.7460 Y-5.0890
G01 Z-2.0000
G01 Z0
G00 Z2.0000
G00 X131.8260 Y-5.0890
G01 Z-2.0000
G01 Z0
G00 Z2.0000
G00 X139.2120 Y-20.3820
G01 Z-2.0000
G01 Z0
G00 Z2.0000
G00 X139.2120 Y-25.1650
G01 Z-2.0000
G01 Z0
G00 Z2.0000
G00 X104.2910 Y-5.4460
G01 Z-2.0000
G01 Z0
G00 Z2.0000
G00 X98.3030 Y6.2480
G01 Z-2.0000
G01 Z0
G00 Z2.0000
G00 X98.3030 Y8.7880
G01 Z-2.0000
G01 Z0
G00 Z2.0000
G00 X98.3030 Y11.3280
G01 Z-2.0000
G01 Z0
G00 Z2.0000
G00 X98.3030 Y13.8680
G01 Z-2.0000
G01 Z0
G00 Z2.0000
G00 X98.3030 Y16.4080
G01 Z-2.0000
G01 Z0
G00 Z2.0000
G00 X98.3030 Y18.9480
G01 Z-2.0000
G01 Z0
G00 Z2.0000
G00 X98.3030 Y21.4880
G01 Z-2.0000
G01 Z0
G00 Z2.0000
G00 X98.3030 Y24.0280
G01 Z-2.0000
G01 Z0
G00 Z2.0000
G00 X98.3030 Y26.5680
G01 Z-2.0000
G01 Z0
G00 Z2.0000
G00 X98.3030 Y29.1080
G01 Z-2.0000
G01 Z0
G00 Z2.0000
G00 X98.3030 Y31.6480
G01 Z-2.0000
G01 Z0
G00 Z2.0000
G00 X98.3030 Y34.1880
G01 Z-2.0000
G01 Z0
G00 Z2.0000
G00 X98.3030 Y36.7280
G01 Z-2.0000
G01 Z0
G00 Z2.0000
G00 X98.3030 Y39.2680
G01 Z-2.0000
G01 Z0
G00 Z2.0000
G00 X98.3030 Y41.8080
G01 Z-2.0000
G01 Z0
G00 Z2.0000
G00 X98.3030 Y44.3480
G01 Z-2.0000
G01 Z0
G00 Z2.0000
G00 X98.3030 Y46.8880
G01 Z-2.0000
G01 Z0
G00 Z2.0000
G00 X98.3030 Y49.4280
G01 Z-2.0000
G01 Z0
G00 Z2.0000
G00 X98.3030 Y51.9680
G01 Z-2.0000
G01 Z0
G00 Z2.0000
G00 X116.2495 Y39.1870
G01 Z-2.0000
G01 Z0
G00 Z2.0000
G00 X116.2495 Y36.6470
G01 Z-2.0000
G01 Z0
G00 Z2.0000
G00 X116.2495 Y34.1070
G01 Z-2.0000
G01 Z0
G00 Z2.0000
G00 X116.2495 Y31.5670
G01 Z-2.0000
G01 Z0
G00 Z2.0000
G00 X116.2495 Y29.0270
G01 Z-2.0000
G01 Z0
G00 Z2.0000
G00 X116.2495 Y26.4870
G01 Z-2.0000
G01 Z0
G00 Z2.0000
G00 X116.2495 Y23.9470
G01 Z-2.0000
G01 Z0
G00 Z2.0000
G00 X116.2495 Y21.4070
G01 Z-2.0000
G01 Z0
G00 Z2.0000
G00 X111.1250 Y16.8820
G01 Z-2.0000
G01 Z0
G00 Z2.0000
G00 X111.1250 Y14.3420
G01 Z-2.0000
G01 Z0
G00 Z2.0000
G00 X106.0450 Y14.2150
G01 Z-2.0000
G01 Z0
G00 Z2.0000
G00 X106.0450 Y16.7550
G01 Z-2.0000
G01 Z0
G00 Z2.0000
G00 X106.0450 Y19.2950
G01 Z-2.0000
G01 Z0
G00 Z2.0000
G00 X106.0450 Y11.6750
G01 Z-2.0000
G01 Z0
G00 Z2.0000
G00 X124.4600 Y14.7230
G01 Z-2.0000
G01 Z0
G00 Z2.0000
G00 X131.4450 Y14.7230
G01 Z-2.0000
G01 Z0
G00 Z2.0000
G00 X131.4895 Y21.4070
G01 Z-2.0000
G01 Z0
G00 Z2.0000
G00 X131.4895 Y23.9470
G01 Z-2.0000
G01 Z0
G00 Z2.0000
G00 X131.4895 Y26.4870
G01 Z-2.0000
G01 Z0
G00 Z2.0000
G00 X131.4895 Y29.0270
G01 Z-2.0000
G01 Z0
G00 Z2.0000
G00 X131.4895 Y31.5670
G01 Z-2.0000
G01 Z0
G00 Z2.0000
G00 X131.4895 Y34.1070
G01 Z-2.0000
G01 Z0
G00 Z2.0000
G00 X131.4895 Y36.6470
G01 Z-2.0000
G01 Z0
G00 Z2.0000
G00 X131.4895 Y39.1880
G01 Z-2.0000
G01 Z0
G00 Z2.0000
G00 X138.0490 Y31.7410
G01 Z-2.0000
G01 Z0
G00 Z2.0000
G00 X138.0490 Y29.2010
G01 Z-2.0000
G01 Z0
G00 Z2.0000
G00 X138.0490 Y26.5340
G01 Z-2.0000
G01 Z0
G00 Z2.0000
G00 X138.0490 Y23.9940
G01 Z-2.0000
G01 Z0
G00 Z2.0000
G00 X74.8030 Y24.2480
G01 Z-2.0000
G01 Z0
G00 Z2.0000
G00 X74.8030 Y21.7080
G01 Z-2.0000
G01 Z0
G00 Z2.0000
G00 X74.8030 Y19.1680
G01 Z-2.0000
G01 Z0
G00 Z2.0000
G00 X74.8030 Y16.6280
G01 Z-2.0000
G01 Z0
G00 Z2.0000
G00 X74.8030 Y14.0880
G01 Z-2.0000
G01 Z0
G00 Z2.0000
G00 X74.8030 Y11.5480
G01 Z-2.0000
G01 Z0
G00 Z2.0000
G00 X74.8030 Y9.0080
G01 Z-2.0000
G01 Z0
G00 Z2.0000
G00 X74.8030 Y6.4680
G01 Z-2.0000
G01 Z0
G00 Z2.0000
G00 X68.1990 Y12.4370
G01 Z-2.0000
G01 Z0
G00 Z2.0000
G00 X68.1990 Y16.6280
G01 Z-2.0000
G01 Z0
G00 Z2.0000
G00 X74.8030 Y26.7880
G01 Z-2.0000
G01 Z0
G00 Z2.0000
G00 X74.8030 Y29.3280
G01 Z-2.0000
G01 Z0
G00 Z2.0000
G00 X74.8030 Y31.8680
G01 Z-2.0000
G01 Z0
G00 Z2.0000
G00 X74.8030 Y34.4080
G01 Z-2.0000
G01 Z0
G00 Z2.0000
G00 X74.8030 Y36.9480
G01 Z-2.0000
G01 Z0
G00 Z2.0000
G00 X74.8030 Y39.4880
G01 Z-2.0000
G01 Z0
G00 Z2.0000
G00 X74.8030 Y42.0280
G01 Z-2.0000
G01 Z0
G00 Z2.0000
G00 X74.8030 Y44.5680
G01 Z-2.0000
G01 Z0
G00 Z2.0000
G00 X74.8030 Y47.1080
G01 Z-2.0000
G01 Z0
G00 Z2.0000
G00 X74.8030 Y49.6480
G01 Z-2.0000
G01 Z0
G00 Z2.0000
G00 X74.8030 Y52.1880
G01 Z-2.0000
G01 Z0
G00 Z2.0000
G00 X50.8825 Y39.4080
G01 Z-2.0000
G01 Z0
G00 Z2.0000
G00 X50.8825 Y36.8680
G01 Z-2.0000
G01 Z0
G00 Z2.0000
G00 X50.8825 Y34.3280
G01 Z-2.0000
G01 Z0
G00 Z2.0000
G00 X50.8825 Y31.7880
G01 Z-2.0000
G01 Z0
G00 Z2.0000
G00 X50.8825 Y29.2480
G01 Z-2.0000
G01 Z0
G00 Z2.0000
G00 X50.8825 Y26.7080
G01 Z-2.0000
G01 Z0
G00 Z2.0000
G00 X50.8825 Y24.1680
G01 Z-2.0000
G01 Z0
G00 Z2.0000
G00 X50.8825 Y21.6280
G01 Z-2.0000
G01 Z0
G00 Z2.0000
G00 X35.6425 Y21.6270
G01 Z-2.0000
G01 Z0
G00 Z2.0000
G00 X35.6425 Y24.1680
G01 Z-2.0000
G01 Z0
G00 Z2.0000
G00 X35.6425 Y26.7080
G01 Z-2.0000
G01 Z0
G00 Z2.0000
G00 X35.6425 Y29.2480
G01 Z-2.0000
G01 Z0
G00 Z2.0000
G00 X35.6425 Y31.7880
G01 Z-2.0000
G01 Z0
G00 Z2.0000
G00 X35.6425 Y34.3280
G01 Z-2.0000
G01 Z0
G00 Z2.0000
G00 X35.6425 Y36.8680
G01 Z-2.0000
G01 Z0
G00 Z2.0000
G00 X35.6425 Y39.4080
G01 Z-2.0000
G01 Z0
G00 Z2.0000
G00 X24.2570 Y36.9480
G01 Z-2.0000
G01 Z0
G00 Z2.0000
G00 X24.2570 Y34.4080
G01 Z-2.0000
G01 Z0
G00 Z2.0000
G00 X24.2570 Y31.7410
G01 Z-2.0000
G01 Z0
G00 Z2.0000
G00 X24.2570 Y29.2010
G01 Z-2.0000
G01 Z0
G00 Z2.0000
G00 X23.3680 Y-5.2160
G01 Z-2.0000
G01 Z0
G00 Z2.0000
G00 X28.4480 Y-5.2160
G01 Z-2.0000
G01 Z0
G00 Z2.0000
G00 X53.2910 Y-5.4460
G01 Z-2.0000
G01 Z0
G00 Z2.0000
M05
G00 Z0.50


