(G-CODE GENERATED BY FLATCAM v8.994 - www.flatcam.org - Version Date: 2020/11/7)

(Name: Gerber_TopLayer.GTL_iso_combined_cnc)
(Type: G-code from Geometry)
(Units: MM)

(Created on Sunday, 13 April 2025 at 13:25)

(This preprocessor is the default preprocessor used by FlatCAM.)
(It is made to work with MACH3 compatible motion controllers.)

(TOOL DIAMETER: 0.2 mm)
(Feedrate_XY: 300.0 mm/min)
(Feedrate_Z: 60.0 mm/min)
(Feedrate rapids 1500.0 mm/min)

(Z_Cut: 0.0 mm)
(Z_Move: 2.0 mm)
(Z Start: None mm)
(Z End: 15.0 mm)
(X,Y End: None mm)
(Steps per circle: 64)
(Preprocessor Geometry: default)

(X range:    2.4217 ...  152.0103  mm)
(Y range:  -43.4795 ...   69.5859  mm)

(Spindle Speed: 24000.0 RPM)
G21
G90
G94

G01 F300.00

M5
G00 Z15.0000
G00 X0.0000 Y0.0000
T1
M6    
(MSG, Change to Tool Dia = 0.2000)
M0
G00 Z15.0000

M03 S24000.0
G01 F300.00
G00 X10.0838 Y-3.5498
G01 F60.00
G01 Z0.0000
G01 F300.00
G01 X9.9132 Y-3.5541
G01 X9.7435 Y-3.5761
G01 X9.5774 Y-3.6149
G01 X9.4165 Y-3.6714
G01 X9.2616 Y-3.7439
G01 X9.1150 Y-3.8315
G01 X8.9785 Y-3.9340
G01 X8.8530 Y-4.0499
G01 X8.7404 Y-4.1783
G01 X8.6413 Y-4.3177
G01 X8.5574 Y-4.4662
G01 X8.4889 Y-4.6229
G01 X8.4372 Y-4.7853
G01 X8.4022 Y-4.9526
G01 X8.3845 Y-5.1226
G01 X8.3845 Y-5.2931
G01 X8.4022 Y-5.4632
G01 X8.4372 Y-5.6304
G01 X8.4889 Y-5.7928
G01 X8.5574 Y-5.9495
G01 X8.6413 Y-6.0980
G01 X8.7404 Y-6.2375
G01 X8.8530 Y-6.3658
G01 X8.9785 Y-6.4817
G01 X9.1150 Y-6.5842
G01 X9.2616 Y-6.6719
G01 X9.4165 Y-6.7443
G01 X9.5774 Y-6.8008
G01 X9.7435 Y-6.8396
G01 X9.9132 Y-6.8616
G01 X10.0838 Y-6.8660
G01 X10.2544 Y-6.8530
G01 X10.4219 Y-6.8224
G01 X10.5863 Y-6.7745
G01 X10.7444 Y-6.7103
G01 X10.8948 Y-6.6298
G01 X11.0367 Y-6.5344
G01 X11.1680 Y-6.4251
G01 X11.2872 Y-6.3031
G01 X11.3930 Y-6.1690
G01 X11.4846 Y-6.0246
G01 X11.5612 Y-5.8723
G01 X11.6211 Y-5.7124
G01 X11.6647 Y-5.5470
G01 X11.6911 Y-5.3784
G01 X11.6997 Y-5.2079
G01 X11.6911 Y-5.0373
G01 X11.6647 Y-4.8687
G01 X11.6211 Y-4.7033
G01 X11.5612 Y-4.5434
G01 X11.4846 Y-4.3911
G01 X11.3930 Y-4.2467
G01 X11.2872 Y-4.1127
G01 X11.1680 Y-3.9906
G01 X11.0367 Y-3.8814
G01 X10.8948 Y-3.7859
G01 X10.7444 Y-3.7054
G01 X10.5863 Y-3.6413
G01 X10.4219 Y-3.5934
G01 X10.2544 Y-3.5627
G01 X10.0838 Y-3.5498
G00 Z2.0000
G00 X27.4702 Y-11.8833
G01 F60.00
G01 Z0.0000
G01 F300.00
G01 X27.4693 Y-11.8931
G01 X27.4667 Y-11.9470
G01 X27.4667 Y-33.1560
G01 X27.4693 Y-33.2099
G01 X27.4699 Y-33.2173
G01 X27.4783 Y-33.2731
G01 X27.4926 Y-33.3302
G01 X27.5124 Y-33.3857
G01 X27.5354 Y-33.4346
G01 X27.5400 Y-33.4432
G01 X27.5653 Y-33.4853
G01 X27.5707 Y-33.4935
G01 X27.6030 Y-33.5368
G01 X27.6408 Y-33.5787
G01 X30.3096 Y-36.2474
G01 X30.3513 Y-36.2854
G01 X30.3571 Y-36.2900
G01 X30.4005 Y-36.3221
G01 X30.4468 Y-36.3500
G01 X30.4554 Y-36.3546
G01 X30.4998 Y-36.3756
G01 X30.5089 Y-36.3793
G01 X30.5598 Y-36.3974
G01 X30.6169 Y-36.4117
G01 X30.6752 Y-36.4204
G01 X30.7340 Y-36.4233
G01 X55.4990 Y-36.4233
G01 X55.5529 Y-36.4207
G01 X55.5627 Y-36.4198
G01 X55.6161 Y-36.4117
G01 X55.6732 Y-36.3974
G01 X55.7241 Y-36.3793
G01 X55.7332 Y-36.3756
G01 X55.7820 Y-36.3524
G01 X55.8325 Y-36.3221
G01 X55.8798 Y-36.2870
G01 X55.9234 Y-36.2474
G01 X57.3222 Y-34.8487
G01 X57.3600 Y-34.8068
G01 X57.3951 Y-34.7595
G01 X57.4254 Y-34.7090
G01 X57.4486 Y-34.6602
G01 X57.4523 Y-34.6511
G01 X57.4704 Y-34.6002
G01 X57.4847 Y-34.5431
G01 X57.4934 Y-34.4848
G01 X57.4962 Y-34.4285
G01 X57.4963 Y-32.9004
G01 X57.6859 Y-32.9004
G01 X57.6932 Y-32.8999
G01 X57.7005 Y-32.8989
G01 X57.7077 Y-32.8974
G01 X57.7148 Y-32.8954
G01 X57.7217 Y-32.8928
G01 X57.7284 Y-32.8897
G01 X57.7348 Y-32.8862
G01 X57.7410 Y-32.8822
G01 X57.7468 Y-32.8777
G01 X57.7524 Y-32.8728
G01 X57.7575 Y-32.8676
G01 X57.7622 Y-32.8619
G01 X57.7665 Y-32.8560
G01 X57.7704 Y-32.8497
G01 X57.7738 Y-32.8432
G01 X57.7767 Y-32.8364
G01 X57.7791 Y-32.8294
G01 X57.7810 Y-32.8223
G01 X57.7823 Y-32.8151
G01 X57.7831 Y-32.8078
G01 X57.7834 Y-32.8004
G01 X57.7833 Y-31.2207
G01 X57.7826 Y-31.2134
G01 X57.7815 Y-31.2061
G01 X57.7798 Y-31.1989
G01 X57.7776 Y-31.1919
G01 X57.7748 Y-31.1851
G01 X57.7716 Y-31.1785
G01 X57.7679 Y-31.1721
G01 X57.7637 Y-31.1660
G01 X57.7591 Y-31.1603
G01 X57.7541 Y-31.1549
G01 X57.7487 Y-31.1499
G01 X57.7430 Y-31.1453
G01 X57.7369 Y-31.1411
G01 X57.7305 Y-31.1374
G01 X57.7239 Y-31.1342
G01 X57.7171 Y-31.1314
G01 X57.7101 Y-31.1292
G01 X57.7005 Y-31.1271
G01 X57.6932 Y-31.1261
G01 X57.6834 Y-31.1256
G01 X56.1061 Y-31.1256
G01 X56.0939 Y-31.1267
G01 X56.0819 Y-31.1292
G01 X56.0703 Y-31.1332
G01 X56.0593 Y-31.1386
G01 X56.0490 Y-31.1453
G01 X56.0396 Y-31.1532
G01 X56.0313 Y-31.1622
G01 X56.0268 Y-31.1680
G01 X56.0228 Y-31.1742
G01 X56.0193 Y-31.1806
G01 X56.0162 Y-31.1873
G01 X56.0122 Y-31.1989
G01 X56.0105 Y-31.2061
G01 X56.0094 Y-31.2134
G01 X56.0086 Y-31.2256
G01 X56.0086 Y-32.8004
G01 X56.0091 Y-32.8102
G01 X56.0101 Y-32.8175
G01 X56.0116 Y-32.8247
G01 X56.0136 Y-32.8318
G01 X56.0162 Y-32.8387
G01 X56.0193 Y-32.8454
G01 X56.0228 Y-32.8518
G01 X56.0268 Y-32.8580
G01 X56.0313 Y-32.8638
G01 X56.0362 Y-32.8694
G01 X56.0414 Y-32.8745
G01 X56.0471 Y-32.8792
G01 X56.0530 Y-32.8835
G01 X56.0593 Y-32.8874
G01 X56.0658 Y-32.8908
G01 X56.0726 Y-32.8937
G01 X56.0796 Y-32.8961
G01 X56.0867 Y-32.8980
G01 X56.0939 Y-32.8993
G01 X56.1061 Y-32.9004
G01 X56.2957 Y-32.9004
G01 X56.2957 Y-34.1774
G01 X55.2504 Y-35.2227
G01 X30.9826 Y-35.2227
G01 X28.6673 Y-32.9074
G01 X28.6673 Y-12.1956
G01 X59.4306 Y18.5677
G01 X74.1849 Y18.5677
G01 X74.1970 Y18.5551
G01 X74.2562 Y18.5017
G01 X74.3241 Y18.4513
G01 X74.3967 Y18.4078
G01 X74.4686 Y18.3736
G01 X74.4777 Y18.3698
G01 X74.5481 Y18.3447
G01 X74.5575 Y18.3418
G01 X74.6348 Y18.3226
G01 X74.7136 Y18.3108
G01 X74.7234 Y18.3098
G01 X74.8030 Y18.3060
G01 X74.8850 Y18.3099
G01 X74.8924 Y18.3108
G01 X74.9712 Y18.3226
G01 X75.0485 Y18.3418
G01 X75.0579 Y18.3447
G01 X75.1329 Y18.3716
G01 X75.2050 Y18.4056
G01 X75.2136 Y18.4102
G01 X75.2819 Y18.4513
G01 X75.3460 Y18.4986
G01 X75.3536 Y18.5049
G01 X75.4125 Y18.5585
G01 X75.4661 Y18.6174
G01 X75.4724 Y18.6250
G01 X75.5197 Y18.6891
G01 X75.5608 Y18.7574
G01 X75.5654 Y18.7660
G01 X75.5994 Y18.8381
G01 X75.6263 Y18.9131
G01 X75.6292 Y18.9225
G01 X75.6484 Y18.9998
G01 X75.6602 Y19.0786
G01 X75.6612 Y19.0884
G01 X75.6650 Y19.1680
G01 X75.6612 Y19.2476
G01 X75.6602 Y19.2574
G01 X75.6484 Y19.3362
G01 X75.6292 Y19.4135
G01 X75.6263 Y19.4229
G01 X75.5994 Y19.4979
G01 X75.5654 Y19.5700
G01 X75.5608 Y19.5786
G01 X75.5197 Y19.6469
G01 X75.4724 Y19.7110
G01 X75.4661 Y19.7186
G01 X75.4125 Y19.7775
G01 X75.3536 Y19.8311
G01 X75.3460 Y19.8374
G01 X75.2819 Y19.8847
G01 X75.2093 Y19.9282
G01 X75.1374 Y19.9624
G01 X75.1283 Y19.9662
G01 X75.0532 Y19.9929
G01 X74.9760 Y20.0124
G01 X74.9663 Y20.0143
G01 X74.8875 Y20.0258
G01 X74.8030 Y20.0300
G01 X74.7185 Y20.0258
G01 X74.6348 Y20.0134
G01 X74.5528 Y19.9929
G01 X74.4731 Y19.9644
G01 X74.3967 Y19.9282
G01 X74.3241 Y19.8847
G01 X74.2562 Y19.8343
G01 X74.1970 Y19.7809
G01 X74.1849 Y19.7683
G01 X59.1820 Y19.7683
G01 X59.1281 Y19.7657
G01 X59.1183 Y19.7648
G01 X59.0649 Y19.7567
G01 X59.0078 Y19.7424
G01 X58.9569 Y19.7243
G01 X58.9478 Y19.7206
G01 X58.8990 Y19.6974
G01 X58.8485 Y19.6671
G01 X58.8012 Y19.6320
G01 X58.7576 Y19.5924
G01 X27.6426 Y-11.5226
G01 X27.6030 Y-11.5662
G01 X27.5707 Y-11.6095
G01 X27.5653 Y-11.6177
G01 X27.5400 Y-11.6598
G01 X27.5354 Y-11.6684
G01 X27.5124 Y-11.7173
G01 X27.4926 Y-11.7728
G01 X27.4783 Y-11.8299
G01 X27.4702 Y-11.8833
G00 Z2.0000
G00 X30.3912 Y-13.7883
G01 F60.00
G01 Z0.0000
G01 F300.00
G01 X30.3903 Y-13.7981
G01 X30.3877 Y-13.8520
G01 X30.3877 Y-26.6790
G01 X30.3906 Y-26.7378
G01 X30.3988 Y-26.7937
G01 X30.4004 Y-26.8009
G01 X30.4136 Y-26.8532
G01 X30.4334 Y-26.9087
G01 X30.4586 Y-26.9620
G01 X30.4863 Y-27.0083
G01 X30.4917 Y-27.0165
G01 X30.5240 Y-27.0598
G01 X30.5602 Y-27.0999
G01 X30.5671 Y-27.1068
G01 X30.6035 Y-27.1398
G01 X30.6111 Y-27.1460
G01 X30.6545 Y-27.1781
G01 X30.7008 Y-27.2060
G01 X30.7072 Y-27.2095
G01 X30.7583 Y-27.2336
G01 X30.8138 Y-27.2534
G01 X30.8709 Y-27.2677
G01 X30.9292 Y-27.2764
G01 X30.9880 Y-27.2793
G01 X31.3744 Y-27.2793
G01 X32.3168 Y-28.2216
G01 X32.3168 Y-29.5987
G01 X32.3175 Y-29.6084
G01 X32.3192 Y-29.6181
G01 X32.3211 Y-29.6252
G01 X32.3244 Y-29.6345
G01 X32.3274 Y-29.6412
G01 X32.3323 Y-29.6497
G01 X32.3379 Y-29.6577
G01 X32.3443 Y-29.6652
G01 X32.3514 Y-29.6719
G01 X32.3592 Y-29.6780
G01 X32.3675 Y-29.6832
G01 X32.3762 Y-29.6876
G01 X32.3854 Y-29.6912
G01 X32.3948 Y-29.6938
G01 X32.4021 Y-29.6951
G01 X32.4118 Y-29.6961
G01 X33.1817 Y-29.6962
G01 X33.1817 Y-32.6763
G01 X33.1663 Y-32.7027
G01 X33.1372 Y-32.7646
G01 X33.1151 Y-32.8267
G01 X33.0996 Y-32.8883
G01 X33.0980 Y-32.8955
G01 X33.0885 Y-32.9607
G01 X33.0851 Y-33.0290
G01 X33.0885 Y-33.0973
G01 X33.0980 Y-33.1625
G01 X33.0996 Y-33.1697
G01 X33.1151 Y-33.2313
G01 X33.1381 Y-33.2957
G01 X33.1674 Y-33.3575
G01 X33.2025 Y-33.4162
G01 X33.2433 Y-33.4711
G01 X33.2892 Y-33.5218
G01 X33.3399 Y-33.5677
G01 X33.3948 Y-33.6085
G01 X33.4535 Y-33.6436
G01 X33.5153 Y-33.6729
G01 X33.5797 Y-33.6959
G01 X33.6460 Y-33.7125
G01 X33.7137 Y-33.7225
G01 X33.7820 Y-33.7259
G01 X33.8503 Y-33.7225
G01 X33.9155 Y-33.7130
G01 X33.9796 Y-33.6972
G01 X33.9890 Y-33.6944
G01 X34.0487 Y-33.6729
G01 X34.1105 Y-33.6436
G01 X34.1692 Y-33.6085
G01 X34.2202 Y-33.5707
G01 X34.2278 Y-33.5645
G01 X34.2712 Y-33.5252
G01 X34.2782 Y-33.5182
G01 X34.3207 Y-33.4711
G01 X34.3615 Y-33.4162
G01 X34.3966 Y-33.3575
G01 X34.4239 Y-33.3002
G01 X34.4276 Y-33.2911
G01 X34.4474 Y-33.2360
G01 X34.4502 Y-33.2266
G01 X34.4655 Y-33.1650
G01 X34.4753 Y-33.0997
G01 X34.4788 Y-33.0339
G01 X34.4788 Y-33.0241
G01 X34.4755 Y-32.9607
G01 X34.4663 Y-32.8979
G01 X34.4650 Y-32.8906
G01 X34.4489 Y-32.8267
G01 X34.4268 Y-32.7646
G01 X34.3977 Y-32.7027
G01 X34.3823 Y-32.6763
G01 X34.3823 Y-29.6962
G01 X35.1472 Y-29.6962
G01 X35.1546 Y-29.6959
G01 X35.1668 Y-29.6943
G01 X35.1786 Y-29.6912
G01 X35.1900 Y-29.6866
G01 X35.1965 Y-29.6832
G01 X35.2028 Y-29.6793
G01 X35.2126 Y-29.6719
G01 X35.2213 Y-29.6634
G01 X35.2290 Y-29.6538
G01 X35.2354 Y-29.6433
G01 X35.2405 Y-29.6322
G01 X35.2443 Y-29.6205
G01 X35.2465 Y-29.6084
G01 X35.2472 Y-29.5962
G01 X35.2472 Y-28.0798
G01 X35.2465 Y-28.0676
G01 X35.2448 Y-28.0579
G01 X35.2429 Y-28.0508
G01 X35.2405 Y-28.0438
G01 X35.2366 Y-28.0348
G01 X35.2317 Y-28.0263
G01 X35.2276 Y-28.0202
G01 X35.2230 Y-28.0145
G01 X35.2162 Y-28.0074
G01 X35.2088 Y-28.0010
G01 X35.2028 Y-27.9967
G01 X35.1944 Y-27.9916
G01 X35.1878 Y-27.9884
G01 X35.1809 Y-27.9856
G01 X35.1715 Y-27.9828
G01 X35.1619 Y-27.9809
G01 X35.1522 Y-27.9799
G01 X33.7727 Y-27.9798
G01 X32.0474 Y-26.2546
G01 X32.0057 Y-26.2166
G01 X31.9999 Y-26.2120
G01 X31.9565 Y-26.1799
G01 X31.9060 Y-26.1496
G01 X31.8527 Y-26.1244
G01 X31.7996 Y-26.1053
G01 X31.7925 Y-26.1033
G01 X31.7401 Y-26.0903
G01 X31.6843 Y-26.0819
G01 X31.6255 Y-26.0788
G01 X31.5883 Y-26.0787
G01 X31.5883 Y-14.1006
G01 X59.1766 Y13.4877
G01 X71.5357 Y13.4877
G01 X71.5357 Y-22.7420
G01 X71.5386 Y-22.8008
G01 X71.5464 Y-22.8543
G01 X71.5484 Y-22.8639
G01 X71.5616 Y-22.9162
G01 X71.5797 Y-22.9671
G01 X71.5834 Y-22.9762
G01 X71.6055 Y-23.0228
G01 X71.6343 Y-23.0713
G01 X71.6397 Y-23.0795
G01 X71.6720 Y-23.1228
G01 X71.7116 Y-23.1664
G01 X77.8857 Y-29.3406
G01 X77.8858 Y-32.6505
G01 X77.8886 Y-32.7068
G01 X77.8973 Y-32.7651
G01 X77.9116 Y-32.8222
G01 X77.9314 Y-32.8777
G01 X77.9566 Y-32.9310
G01 X77.9869 Y-32.9815
G01 X78.0220 Y-33.0288
G01 X78.0616 Y-33.0724
G01 X80.0936 Y-35.1044
G01 X80.1372 Y-35.1440
G01 X80.1805 Y-35.1763
G01 X80.1887 Y-35.1817
G01 X80.2372 Y-35.2105
G01 X80.2838 Y-35.2326
G01 X80.2929 Y-35.2363
G01 X80.3438 Y-35.2544
G01 X80.3961 Y-35.2676
G01 X80.4057 Y-35.2696
G01 X80.4592 Y-35.2774
G01 X80.5180 Y-35.2803
G01 X96.2660 Y-35.2803
G01 X96.3248 Y-35.2774
G01 X96.3783 Y-35.2696
G01 X96.3879 Y-35.2676
G01 X96.4355 Y-35.2557
G01 X96.4449 Y-35.2529
G01 X96.4911 Y-35.2363
G01 X96.5002 Y-35.2326
G01 X96.5490 Y-35.2094
G01 X96.5953 Y-35.1817
G01 X96.6035 Y-35.1763
G01 X96.6468 Y-35.1440
G01 X96.6887 Y-35.1062
G01 X97.9604 Y-33.8344
G01 X97.9968 Y-33.7945
G01 X98.0030 Y-33.7869
G01 X98.0351 Y-33.7435
G01 X98.0630 Y-33.6972
G01 X98.0676 Y-33.6886
G01 X98.0906 Y-33.6397
G01 X98.1089 Y-33.5889
G01 X98.1111 Y-33.5819
G01 X98.1247 Y-33.5271
G01 X98.1328 Y-33.4737
G01 X98.1337 Y-33.4639
G01 X98.1362 Y-33.4125
G01 X98.1363 Y-32.6653
G01 X98.1652 Y-32.6387
G01 X98.2204 Y-32.5778
G01 X98.2250 Y-32.5721
G01 X98.2725 Y-32.5080
G01 X98.2765 Y-32.5019
G01 X98.3186 Y-32.4313
G01 X98.3549 Y-32.3548
G01 X98.3576 Y-32.3480
G01 X98.3852 Y-32.2706
G01 X98.4063 Y-32.1861
G01 X98.4191 Y-32.1000
G01 X98.4234 Y-32.0130
G01 X98.4191 Y-31.9260
G01 X98.4063 Y-31.8399
G01 X98.3852 Y-31.7554
G01 X98.3576 Y-31.6780
G01 X98.3549 Y-31.6712
G01 X98.3186 Y-31.5947
G01 X98.2765 Y-31.5241
G01 X98.2725 Y-31.5180
G01 X98.2250 Y-31.4539
G01 X98.2204 Y-31.4482
G01 X98.1652 Y-31.3873
G01 X98.1363 Y-31.3607
G01 X98.1363 Y-29.2136
G01 X100.8832 Y-26.4667
G01 X100.9210 Y-26.4248
G01 X100.9533 Y-26.3815
G01 X100.9587 Y-26.3733
G01 X100.9840 Y-26.3312
G01 X100.9886 Y-26.3226
G01 X101.0116 Y-26.2737
G01 X101.0314 Y-26.2182
G01 X101.0457 Y-26.1611
G01 X101.0538 Y-26.1077
G01 X101.0547 Y-26.0979
G01 X101.0573 Y-26.0440
G01 X101.0573 Y-2.2896
G01 X106.4694 Y3.1226
G01 X106.5090 Y3.1662
G01 X106.5441 Y3.2135
G01 X106.5744 Y3.2640
G01 X106.5996 Y3.3173
G01 X106.6194 Y3.3728
G01 X106.6337 Y3.4299
G01 X106.6424 Y3.4882
G01 X106.6453 Y3.5470
G01 X106.6453 Y11.0227
G01 X106.6725 Y11.0475
G01 X106.6973 Y11.0747
G01 X109.8550 Y11.0747
G01 X109.9089 Y11.0773
G01 X109.9187 Y11.0782
G01 X109.9673 Y11.0854
G01 X109.9769 Y11.0874
G01 X110.0292 Y11.1006
G01 X110.0847 Y11.1204
G01 X110.1336 Y11.1434
G01 X110.1422 Y11.1480
G01 X110.1885 Y11.1759
G01 X110.2339 Y11.2095
G01 X110.2395 Y11.2142
G01 X110.2794 Y11.2506
G01 X111.5512 Y12.5223
G01 X111.5890 Y12.5642
G01 X111.6241 Y12.6115
G01 X111.6544 Y12.6620
G01 X111.6786 Y12.7130
G01 X111.6979 Y12.7661
G01 X111.7007 Y12.7755
G01 X111.7137 Y12.8279
G01 X111.7218 Y12.8813
G01 X111.7226 Y12.8886
G01 X111.7253 Y12.9450
G01 X111.7253 Y13.4546
G01 X111.9149 Y13.4546
G01 X111.9222 Y13.4551
G01 X111.9295 Y13.4561
G01 X111.9414 Y13.4589
G01 X111.9484 Y13.4613
G01 X111.9552 Y13.4642
G01 X111.9617 Y13.4676
G01 X111.9680 Y13.4715
G01 X111.9739 Y13.4758
G01 X111.9796 Y13.4805
G01 X111.9848 Y13.4856
G01 X111.9897 Y13.4912
G01 X111.9942 Y13.4970
G01 X111.9982 Y13.5032
G01 X112.0017 Y13.5096
G01 X112.0048 Y13.5163
G01 X112.0088 Y13.5279
G01 X112.0105 Y13.5351
G01 X112.0116 Y13.5424
G01 X112.0124 Y13.5546
G01 X112.0124 Y15.1294
G01 X112.0121 Y15.1368
G01 X112.0109 Y15.1465
G01 X112.0088 Y15.1561
G01 X112.0066 Y15.1631
G01 X112.0038 Y15.1699
G01 X112.0006 Y15.1765
G01 X111.9969 Y15.1829
G01 X111.9927 Y15.1890
G01 X111.9881 Y15.1947
G01 X111.9831 Y15.2001
G01 X111.9777 Y15.2051
G01 X111.9700 Y15.2112
G01 X111.9638 Y15.2152
G01 X111.9574 Y15.2187
G01 X111.9507 Y15.2218
G01 X111.9438 Y15.2244
G01 X111.9367 Y15.2264
G01 X111.9295 Y15.2279
G01 X111.9222 Y15.2289
G01 X111.9149 Y15.2294
G01 X110.3351 Y15.2294
G01 X110.3254 Y15.2286
G01 X110.3133 Y15.2264
G01 X110.3016 Y15.2227
G01 X110.2926 Y15.2187
G01 X110.2841 Y15.2139
G01 X110.2761 Y15.2082
G01 X110.2669 Y15.2001
G01 X110.2603 Y15.1928
G01 X110.2558 Y15.1870
G01 X110.2518 Y15.1808
G01 X110.2483 Y15.1744
G01 X110.2443 Y15.1654
G01 X110.2412 Y15.1561
G01 X110.2395 Y15.1489
G01 X110.2381 Y15.1392
G01 X110.2376 Y15.1319
G01 X110.2376 Y13.5546
G01 X110.2384 Y13.5424
G01 X110.2406 Y13.5303
G01 X110.2426 Y13.5232
G01 X110.2452 Y13.5163
G01 X110.2483 Y13.5096
G01 X110.2518 Y13.5032
G01 X110.2558 Y13.4970
G01 X110.2603 Y13.4912
G01 X110.2652 Y13.4856
G01 X110.2704 Y13.4805
G01 X110.2761 Y13.4758
G01 X110.2820 Y13.4715
G01 X110.2883 Y13.4676
G01 X110.2948 Y13.4642
G01 X110.3016 Y13.4613
G01 X110.3086 Y13.4589
G01 X110.3157 Y13.4570
G01 X110.3229 Y13.4557
G01 X110.3351 Y13.4546
G01 X110.5247 Y13.4546
G01 X110.5247 Y13.1936
G01 X109.6064 Y12.2753
G01 X106.6973 Y12.2753
G01 X106.6707 Y12.3042
G01 X106.6098 Y12.3594
G01 X106.6041 Y12.3640
G01 X106.5400 Y12.4115
G01 X106.5339 Y12.4155
G01 X106.4633 Y12.4576
G01 X106.3868 Y12.4939
G01 X106.3800 Y12.4966
G01 X106.3026 Y12.5242
G01 X106.2181 Y12.5453
G01 X106.1320 Y12.5581
G01 X106.0499 Y12.5623
G01 X106.0425 Y12.5624
G01 X105.9629 Y12.5585
G01 X105.9531 Y12.5575
G01 X105.8719 Y12.5453
G01 X105.7921 Y12.5255
G01 X105.7827 Y12.5226
G01 X105.7054 Y12.4949
G01 X105.6267 Y12.4576
G01 X105.5520 Y12.4128
G01 X105.4859 Y12.3640
G01 X105.4783 Y12.3578
G01 X105.4175 Y12.3025
G01 X105.3622 Y12.2417
G01 X105.3560 Y12.2341
G01 X105.3085 Y12.1700
G01 X105.2648 Y12.0976
G01 X105.2602 Y12.0889
G01 X105.2251 Y12.0146
G01 X105.1958 Y11.9326
G01 X105.1747 Y11.8481
G01 X105.1625 Y11.7669
G01 X105.1615 Y11.7571
G01 X105.1576 Y11.6725
G01 X105.1619 Y11.5880
G01 X105.1747 Y11.5019
G01 X105.1958 Y11.4174
G01 X105.2234 Y11.3400
G01 X105.2261 Y11.3332
G01 X105.2624 Y11.2567
G01 X105.3045 Y11.1861
G01 X105.3085 Y11.1800
G01 X105.3560 Y11.1159
G01 X105.3606 Y11.1102
G01 X105.4158 Y11.0493
G01 X105.4447 Y11.0227
G01 X105.4447 Y3.7956
G01 X100.0326 Y-1.6166
G01 X99.9930 Y-1.6602
G01 X99.9607 Y-1.7035
G01 X99.9553 Y-1.7117
G01 X99.9276 Y-1.7580
G01 X99.9044 Y-1.8068
G01 X99.9007 Y-1.8159
G01 X99.8833 Y-1.8644
G01 X99.8694 Y-1.9191
G01 X99.8674 Y-1.9287
G01 X99.8596 Y-1.9822
G01 X99.8567 Y-2.0410
G01 X99.8567 Y-25.7954
G01 X97.1116 Y-28.5406
G01 X97.0720 Y-28.5842
G01 X97.0369 Y-28.6315
G01 X97.0066 Y-28.6820
G01 X96.9834 Y-28.7308
G01 X96.9797 Y-28.7399
G01 X96.9616 Y-28.7908
G01 X96.9473 Y-28.8479
G01 X96.9386 Y-28.9062
G01 X96.9358 Y-28.9625
G01 X96.9357 Y-31.3607
G01 X96.9068 Y-31.3873
G01 X96.8516 Y-31.4482
G01 X96.8470 Y-31.4539
G01 X96.7995 Y-31.5180
G01 X96.7955 Y-31.5241
G01 X96.7534 Y-31.5947
G01 X96.7171 Y-31.6712
G01 X96.7144 Y-31.6780
G01 X96.6868 Y-31.7554
G01 X96.6657 Y-31.8399
G01 X96.6529 Y-31.9260
G01 X96.6486 Y-32.0130
G01 X96.6529 Y-32.1000
G01 X96.6657 Y-32.1861
G01 X96.6868 Y-32.2706
G01 X96.7144 Y-32.3480
G01 X96.7171 Y-32.3548
G01 X96.7534 Y-32.4313
G01 X96.7955 Y-32.5019
G01 X96.7995 Y-32.5080
G01 X96.8470 Y-32.5721
G01 X96.8516 Y-32.5778
G01 X96.9068 Y-32.6387
G01 X96.9357 Y-32.6653
G01 X96.9357 Y-33.1614
G01 X96.0174 Y-34.0797
G01 X86.3546 Y-34.0797
G01 X85.4363 Y-33.1614
G01 X85.4363 Y-32.6653
G01 X85.4652 Y-32.6387
G01 X85.5188 Y-32.5797
G01 X85.5235 Y-32.5740
G01 X85.5738 Y-32.5060
G01 X85.6162 Y-32.4356
G01 X85.6197 Y-32.4291
G01 X85.6559 Y-32.3526
G01 X85.6852 Y-32.2706
G01 X85.7063 Y-32.1861
G01 X85.7189 Y-32.1024
G01 X85.7233 Y-32.0179
G01 X85.7233 Y-32.0081
G01 X85.7191 Y-31.9260
G01 X85.7063 Y-31.8399
G01 X85.6865 Y-31.7601
G01 X85.6836 Y-31.7507
G01 X85.6559 Y-31.6734
G01 X85.6197 Y-31.5969
G01 X85.5765 Y-31.5241
G01 X85.5710 Y-31.5160
G01 X85.5220 Y-31.4500
G01 X85.4669 Y-31.3891
G01 X85.4599 Y-31.3821
G01 X85.3990 Y-31.3270
G01 X85.3330 Y-31.2780
G01 X85.3249 Y-31.2725
G01 X85.2543 Y-31.2304
G01 X85.1801 Y-31.1951
G01 X85.1710 Y-31.1914
G01 X85.0936 Y-31.1638
G01 X85.0139 Y-31.1437
G01 X85.0043 Y-31.1418
G01 X84.9230 Y-31.1299
G01 X84.8360 Y-31.1256
G01 X84.7490 Y-31.1299
G01 X84.6629 Y-31.1427
G01 X84.5784 Y-31.1638
G01 X84.4964 Y-31.1931
G01 X84.4177 Y-31.2304
G01 X84.3430 Y-31.2752
G01 X84.2730 Y-31.3270
G01 X84.2121 Y-31.3821
G01 X84.2051 Y-31.3891
G01 X84.1532 Y-31.4463
G01 X84.1470 Y-31.4539
G01 X84.0982 Y-31.5200
G01 X84.0558 Y-31.5904
G01 X84.0512 Y-31.5991
G01 X84.0161 Y-31.6734
G01 X83.9868 Y-31.7554
G01 X83.9657 Y-31.8399
G01 X83.9535 Y-31.9211
G01 X83.9525 Y-31.9309
G01 X83.9486 Y-32.0130
G01 X83.9525 Y-32.0951
G01 X83.9535 Y-32.1049
G01 X83.9648 Y-32.1813
G01 X83.9667 Y-32.1909
G01 X83.9868 Y-32.2706
G01 X84.0152 Y-32.3503
G01 X84.0181 Y-32.3571
G01 X84.0534 Y-32.4313
G01 X84.0955 Y-32.5019
G01 X84.0995 Y-32.5080
G01 X84.1470 Y-32.5721
G01 X84.1516 Y-32.5778
G01 X84.2068 Y-32.6387
G01 X84.2357 Y-32.6653
G01 X84.2358 Y-33.4125
G01 X84.2386 Y-33.4688
G01 X84.2464 Y-33.5223
G01 X84.2484 Y-33.5319
G01 X84.2623 Y-33.5866
G01 X84.2814 Y-33.6397
G01 X84.3066 Y-33.6930
G01 X84.3369 Y-33.7435
G01 X84.3705 Y-33.7889
G01 X84.3752 Y-33.7945
G01 X84.4116 Y-33.8344
G01 X84.6569 Y-34.0797
G01 X80.7666 Y-34.0797
G01 X79.0863 Y-32.3994
G01 X79.0862 Y-29.0895
G01 X79.0834 Y-29.0332
G01 X79.0756 Y-28.9797
G01 X79.0736 Y-28.9701
G01 X79.0604 Y-28.9178
G01 X79.0406 Y-28.8623
G01 X79.0176 Y-28.8134
G01 X79.0130 Y-28.8048
G01 X78.9837 Y-28.7565
G01 X78.9500 Y-28.7112
G01 X78.9104 Y-28.6676
G01 X72.7363 Y-22.4934
G01 X72.7363 Y13.4877
G01 X74.1849 Y13.4877
G01 X74.1970 Y13.4751
G01 X74.2562 Y13.4217
G01 X74.3241 Y13.3713
G01 X74.3967 Y13.3278
G01 X74.4731 Y13.2916
G01 X74.5528 Y13.2631
G01 X74.6348 Y13.2426
G01 X74.7185 Y13.2302
G01 X74.7981 Y13.2261
G01 X74.8079 Y13.2261
G01 X74.8826 Y13.2298
G01 X74.8924 Y13.2308
G01 X74.9712 Y13.2426
G01 X75.0532 Y13.2631
G01 X75.1283 Y13.2898
G01 X75.1374 Y13.2936
G01 X75.2093 Y13.3278
G01 X75.2778 Y13.3686
G01 X75.2859 Y13.3741
G01 X75.3460 Y13.4186
G01 X75.3536 Y13.4249
G01 X75.4125 Y13.4785
G01 X75.4693 Y13.5412
G01 X75.5169 Y13.6051
G01 X75.5224 Y13.6132
G01 X75.5632 Y13.6817
G01 X75.5974 Y13.7536
G01 X75.6012 Y13.7627
G01 X75.6279 Y13.8378
G01 X75.6474 Y13.9150
G01 X75.6493 Y13.9247
G01 X75.6608 Y14.0035
G01 X75.6649 Y14.0831
G01 X75.6649 Y14.0929
G01 X75.6612 Y14.1676
G01 X75.6602 Y14.1774
G01 X75.6484 Y14.2562
G01 X75.6292 Y14.3335
G01 X75.6263 Y14.3429
G01 X75.5994 Y14.4179
G01 X75.5632 Y14.4943
G01 X75.5224 Y14.5628
G01 X75.5169 Y14.5709
G01 X75.4693 Y14.6348
G01 X75.4125 Y14.6975
G01 X75.3536 Y14.7511
G01 X75.3460 Y14.7574
G01 X75.2819 Y14.8047
G01 X75.2093 Y14.8482
G01 X75.1374 Y14.8824
G01 X75.1283 Y14.8862
G01 X75.0532 Y14.9129
G01 X74.9712 Y14.9334
G01 X74.8924 Y14.9452
G01 X74.8826 Y14.9462
G01 X74.8030 Y14.9500
G01 X74.7234 Y14.9462
G01 X74.7136 Y14.9452
G01 X74.6348 Y14.9334
G01 X74.5575 Y14.9142
G01 X74.5481 Y14.9113
G01 X74.4777 Y14.8862
G01 X74.4686 Y14.8824
G01 X74.3967 Y14.8482
G01 X74.3282 Y14.8074
G01 X74.3201 Y14.8019
G01 X74.2562 Y14.7543
G01 X74.1970 Y14.7009
G01 X74.1849 Y14.6883
G01 X58.9280 Y14.6883
G01 X58.8741 Y14.6857
G01 X58.8643 Y14.6848
G01 X58.8109 Y14.6767
G01 X58.7538 Y14.6624
G01 X58.7029 Y14.6443
G01 X58.6938 Y14.6406
G01 X58.6450 Y14.6174
G01 X58.5966 Y14.5884
G01 X58.5905 Y14.5843
G01 X58.5472 Y14.5520
G01 X58.5036 Y14.5124
G01 X30.5636 Y-13.4276
G01 X30.5240 Y-13.4712
G01 X30.4917 Y-13.5145
G01 X30.4863 Y-13.5227
G01 X30.4610 Y-13.5648
G01 X30.4564 Y-13.5734
G01 X30.4334 Y-13.6223
G01 X30.4136 Y-13.6778
G01 X30.3993 Y-13.7349
G01 X30.3912 Y-13.7883
G00 Z2.0000
G00 X32.3168 Y-24.5162
G01 F60.00
G01 Z0.0000
G01 F300.00
G01 X32.3172 Y-24.5260
G01 X32.3187 Y-24.5357
G01 X32.3211 Y-24.5452
G01 X32.3244 Y-24.5545
G01 X32.3286 Y-24.5633
G01 X32.3336 Y-24.5718
G01 X32.3379 Y-24.5777
G01 X32.3443 Y-24.5852
G01 X32.3514 Y-24.5919
G01 X32.3592 Y-24.5980
G01 X32.3675 Y-24.6032
G01 X32.3762 Y-24.6076
G01 X32.3854 Y-24.6112
G01 X32.3948 Y-24.6138
G01 X32.4045 Y-24.6154
G01 X32.4143 Y-24.6162
G01 X35.1497 Y-24.6162
G01 X35.1571 Y-24.6157
G01 X35.1643 Y-24.6147
G01 X35.1715 Y-24.6132
G01 X35.1786 Y-24.6112
G01 X35.1855 Y-24.6086
G01 X35.1922 Y-24.6055
G01 X35.1987 Y-24.6020
G01 X35.2048 Y-24.5980
G01 X35.2107 Y-24.5935
G01 X35.2162 Y-24.5886
G01 X35.2213 Y-24.5834
G01 X35.2261 Y-24.5777
G01 X35.2304 Y-24.5718
G01 X35.2343 Y-24.5655
G01 X35.2376 Y-24.5590
G01 X35.2405 Y-24.5522
G01 X35.2429 Y-24.5452
G01 X35.2453 Y-24.5357
G01 X35.2465 Y-24.5284
G01 X35.2472 Y-24.5187
G01 X35.2472 Y-24.3583
G01 X43.6934 Y-24.3583
G01 X48.9786 Y-29.6434
G01 X49.0222 Y-29.6830
G01 X49.0695 Y-29.7181
G01 X49.1200 Y-29.7484
G01 X49.1688 Y-29.7716
G01 X49.1756 Y-29.7745
G01 X49.2288 Y-29.7934
G01 X49.2859 Y-29.8077
G01 X49.3442 Y-29.8164
G01 X49.4030 Y-29.8193
G01 X58.0444 Y-29.8193
G01 X58.7087 Y-30.4836
G01 X58.7087 Y-31.5055
G01 X58.6995 Y-31.5180
G01 X58.6955 Y-31.5241
G01 X58.6558 Y-31.5904
G01 X58.6512 Y-31.5991
G01 X58.6161 Y-31.6734
G01 X58.5884 Y-31.7507
G01 X58.5861 Y-31.7578
G01 X58.5657 Y-31.8399
G01 X58.5529 Y-31.9260
G01 X58.5486 Y-32.0130
G01 X58.5527 Y-32.0975
G01 X58.5535 Y-32.1049
G01 X58.5657 Y-32.1861
G01 X58.5868 Y-32.2706
G01 X58.6161 Y-32.3526
G01 X58.6523 Y-32.4291
G01 X58.6558 Y-32.4356
G01 X58.6982 Y-32.5060
G01 X58.7485 Y-32.5740
G01 X58.7532 Y-32.5797
G01 X58.8068 Y-32.6387
G01 X58.8357 Y-32.6653
G01 X58.8357 Y-33.2830
G01 X58.8384 Y-33.3394
G01 X58.8392 Y-33.3467
G01 X58.8473 Y-33.4001
G01 X58.8616 Y-33.4572
G01 X58.8814 Y-33.5127
G01 X58.9055 Y-33.5638
G01 X58.9343 Y-33.6123
G01 X58.9397 Y-33.6205
G01 X58.9720 Y-33.6638
G01 X59.0098 Y-33.7057
G01 X60.4103 Y-35.1062
G01 X60.4522 Y-35.1440
G01 X60.4955 Y-35.1763
G01 X60.5037 Y-35.1817
G01 X60.5500 Y-35.2094
G01 X60.5988 Y-35.2326
G01 X60.6079 Y-35.2363
G01 X60.6588 Y-35.2544
G01 X60.7135 Y-35.2682
G01 X60.7207 Y-35.2696
G01 X60.7742 Y-35.2774
G01 X60.8330 Y-35.2803
G01 X70.9930 Y-35.2803
G01 X71.0469 Y-35.2777
G01 X71.0543 Y-35.2771
G01 X71.1101 Y-35.2687
G01 X71.1672 Y-35.2544
G01 X71.2227 Y-35.2346
G01 X71.2716 Y-35.2116
G01 X71.2802 Y-35.2070
G01 X71.3223 Y-35.1817
G01 X71.3305 Y-35.1763
G01 X71.3738 Y-35.1440
G01 X71.4157 Y-35.1062
G01 X72.5604 Y-33.9614
G01 X72.5968 Y-33.9215
G01 X72.6030 Y-33.9139
G01 X72.6351 Y-33.8705
G01 X72.6630 Y-33.8242
G01 X72.6676 Y-33.8156
G01 X72.6906 Y-33.7667
G01 X72.7089 Y-33.7159
G01 X72.7117 Y-33.7065
G01 X72.7242 Y-33.6565
G01 X72.7256 Y-33.6493
G01 X72.7334 Y-33.5958
G01 X72.7363 Y-33.5370
G01 X72.7363 Y-32.6653
G01 X72.7652 Y-32.6387
G01 X72.8204 Y-32.5778
G01 X72.8250 Y-32.5721
G01 X72.8752 Y-32.5040
G01 X72.9162 Y-32.4356
G01 X72.9208 Y-32.4269
G01 X72.9559 Y-32.3526
G01 X72.9844 Y-32.2729
G01 X72.9865 Y-32.2659
G01 X73.0063 Y-32.1861
G01 X73.0185 Y-32.1049
G01 X73.0195 Y-32.0951
G01 X73.0234 Y-32.0130
G01 X73.0195 Y-31.9309
G01 X73.0185 Y-31.9211
G01 X73.0058 Y-31.8375
G01 X72.9852 Y-31.7554
G01 X72.9559 Y-31.6734
G01 X72.9186 Y-31.5947
G01 X72.8765 Y-31.5241
G01 X72.8710 Y-31.5160
G01 X72.8250 Y-31.4539
G01 X72.8188 Y-31.4463
G01 X72.7635 Y-31.3855
G01 X72.6990 Y-31.3270
G01 X72.6290 Y-31.2752
G01 X72.5543 Y-31.2304
G01 X72.4756 Y-31.1931
G01 X72.3983 Y-31.1654
G01 X72.3889 Y-31.1625
G01 X72.3139 Y-31.1437
G01 X72.3043 Y-31.1418
G01 X72.2230 Y-31.1299
G01 X72.1409 Y-31.1257
G01 X72.1335 Y-31.1256
G01 X72.0490 Y-31.1299
G01 X71.9677 Y-31.1418
G01 X71.9581 Y-31.1437
G01 X71.8784 Y-31.1638
G01 X71.8010 Y-31.1914
G01 X71.7919 Y-31.1951
G01 X71.7177 Y-31.2304
G01 X71.6430 Y-31.2752
G01 X71.5730 Y-31.3270
G01 X71.5121 Y-31.3821
G01 X71.5051 Y-31.3891
G01 X71.4500 Y-31.4500
G01 X71.4010 Y-31.5160
G01 X71.3955 Y-31.5241
G01 X71.3534 Y-31.5947
G01 X71.3181 Y-31.6689
G01 X71.3144 Y-31.6780
G01 X71.2868 Y-31.7554
G01 X71.2667 Y-31.8351
G01 X71.2648 Y-31.8447
G01 X71.2529 Y-31.9260
G01 X71.2487 Y-32.0081
G01 X71.2487 Y-32.0179
G01 X71.2531 Y-32.1024
G01 X71.2657 Y-32.1861
G01 X71.2868 Y-32.2706
G01 X71.3161 Y-32.3526
G01 X71.3523 Y-32.4291
G01 X71.3558 Y-32.4356
G01 X71.3982 Y-32.5060
G01 X71.4485 Y-32.5740
G01 X71.4532 Y-32.5797
G01 X71.5068 Y-32.6387
G01 X71.5357 Y-32.6653
G01 X71.5357 Y-33.2884
G01 X70.7444 Y-34.0797
G01 X61.0816 Y-34.0797
G01 X60.0363 Y-33.0344
G01 X60.0363 Y-32.6653
G01 X60.0652 Y-32.6387
G01 X60.1204 Y-32.5778
G01 X60.1250 Y-32.5721
G01 X60.1725 Y-32.5080
G01 X60.1765 Y-32.5019
G01 X60.2186 Y-32.4313
G01 X60.2539 Y-32.3571
G01 X60.2568 Y-32.3503
G01 X60.2852 Y-32.2706
G01 X60.3053 Y-32.1909
G01 X60.3072 Y-32.1813
G01 X60.3185 Y-32.1049
G01 X60.3195 Y-32.0951
G01 X60.3234 Y-32.0130
G01 X60.3195 Y-31.9309
G01 X60.3185 Y-31.9211
G01 X60.3063 Y-31.8399
G01 X60.2865 Y-31.7601
G01 X60.2836 Y-31.7507
G01 X60.2576 Y-31.6780
G01 X60.2539 Y-31.6689
G01 X60.2186 Y-31.5947
G01 X60.1765 Y-31.5241
G01 X60.1710 Y-31.5160
G01 X60.1220 Y-31.4500
G01 X60.0635 Y-31.3855
G01 X60.0027 Y-31.3302
G01 X59.9970 Y-31.3255
G01 X59.9310 Y-31.2765
G01 X59.9093 Y-31.2632
G01 X59.9091 Y-30.2301
G01 X59.9064 Y-30.1762
G01 X59.8977 Y-30.1179
G01 X59.8834 Y-30.0608
G01 X59.8653 Y-30.0099
G01 X59.8616 Y-30.0008
G01 X59.8384 Y-29.9520
G01 X59.8081 Y-29.9015
G01 X59.7730 Y-29.8542
G01 X59.7352 Y-29.8123
G01 X58.7174 Y-28.7946
G01 X58.6738 Y-28.7550
G01 X58.6265 Y-28.7199
G01 X58.5760 Y-28.6896
G01 X58.5227 Y-28.6644
G01 X58.4672 Y-28.6446
G01 X58.4101 Y-28.6303
G01 X58.3518 Y-28.6216
G01 X58.2930 Y-28.6187
G01 X49.6516 Y-28.6187
G01 X44.3664 Y-23.3336
G01 X44.3228 Y-23.2940
G01 X44.2755 Y-23.2589
G01 X44.2250 Y-23.2286
G01 X44.1762 Y-23.2054
G01 X44.1694 Y-23.2025
G01 X44.1162 Y-23.1836
G01 X44.0591 Y-23.1693
G01 X44.0008 Y-23.1606
G01 X43.9420 Y-23.1577
G01 X35.2472 Y-23.1577
G01 X35.2472 Y-22.9973
G01 X35.2462 Y-22.9851
G01 X35.2436 Y-22.9731
G01 X35.2396 Y-22.9615
G01 X35.2343 Y-22.9505
G01 X35.2276 Y-22.9402
G01 X35.2197 Y-22.9308
G01 X35.2107 Y-22.9225
G01 X35.2007 Y-22.9153
G01 X35.1944 Y-22.9116
G01 X35.1878 Y-22.9084
G01 X35.1763 Y-22.9041
G01 X35.1692 Y-22.9022
G01 X35.1619 Y-22.9009
G01 X35.1546 Y-22.9001
G01 X35.1472 Y-22.8998
G01 X34.3823 Y-22.8998
G01 X34.3823 Y-18.0456
G01 X34.4035 Y-18.0260
G01 X34.4461 Y-17.9790
G01 X34.4871 Y-17.9242
G01 X34.4911 Y-17.9180
G01 X34.5236 Y-17.8635
G01 X34.5519 Y-17.8039
G01 X34.5546 Y-17.7971
G01 X34.5759 Y-17.7373
G01 X34.5925 Y-17.6710
G01 X34.6025 Y-17.6033
G01 X34.6059 Y-17.5375
G01 X34.6029 Y-17.4716
G01 X34.6019 Y-17.4618
G01 X34.5925 Y-17.3990
G01 X34.5766 Y-17.3351
G01 X34.5546 Y-17.2729
G01 X34.5519 Y-17.2661
G01 X34.5247 Y-17.2087
G01 X34.5093 Y-17.1823
G01 X34.5093 Y-14.2276
G01 X42.6905 Y-6.0464
G01 X51.9412 Y-6.0464
G01 X51.9412 Y-6.6961
G01 X51.9417 Y-6.7059
G01 X51.9427 Y-6.7132
G01 X51.9442 Y-6.7204
G01 X51.9463 Y-6.7275
G01 X51.9488 Y-6.7344
G01 X51.9519 Y-6.7411
G01 X51.9555 Y-6.7475
G01 X51.9609 Y-6.7557
G01 X51.9655 Y-6.7614
G01 X51.9705 Y-6.7668
G01 X51.9759 Y-6.7718
G01 X51.9817 Y-6.7764
G01 X51.9877 Y-6.7806
G01 X51.9941 Y-6.7843
G01 X52.0007 Y-6.7875
G01 X52.0075 Y-6.7903
G01 X52.0146 Y-6.7925
G01 X52.0217 Y-6.7942
G01 X52.0290 Y-6.7954
G01 X52.0412 Y-6.7961
G01 X54.5412 Y-6.7961
G01 X54.5486 Y-6.7958
G01 X54.5583 Y-6.7946
G01 X54.5655 Y-6.7931
G01 X54.5749 Y-6.7903
G01 X54.5818 Y-6.7875
G01 X54.5905 Y-6.7831
G01 X54.5968 Y-6.7793
G01 X54.6047 Y-6.7734
G01 X54.6119 Y-6.7668
G01 X54.6170 Y-6.7614
G01 X54.6230 Y-6.7537
G01 X54.6270 Y-6.7475
G01 X54.6316 Y-6.7389
G01 X54.6354 Y-6.7298
G01 X54.6382 Y-6.7204
G01 X54.6398 Y-6.7132
G01 X54.6410 Y-6.7035
G01 X54.6412 Y-6.6961
G01 X54.6412 Y-4.1937
G01 X54.6407 Y-4.1863
G01 X54.6393 Y-4.1766
G01 X54.6369 Y-4.1671
G01 X54.6345 Y-4.1601
G01 X54.6316 Y-4.1534
G01 X54.6282 Y-4.1468
G01 X54.6244 Y-4.1406
G01 X54.6185 Y-4.1327
G01 X54.6119 Y-4.1254
G01 X54.6065 Y-4.1204
G01 X54.6008 Y-4.1158
G01 X54.5947 Y-4.1116
G01 X54.5884 Y-4.1079
G01 X54.5795 Y-4.1037
G01 X54.5726 Y-4.1012
G01 X54.5631 Y-4.0985
G01 X54.5535 Y-4.0969
G01 X54.5412 Y-4.0961
G01 X52.0412 Y-4.0961
G01 X52.0339 Y-4.0964
G01 X52.0266 Y-4.0972
G01 X52.0146 Y-4.0997
G01 X52.0075 Y-4.1020
G01 X52.0007 Y-4.1047
G01 X51.9941 Y-4.1079
G01 X51.9877 Y-4.1116
G01 X51.9817 Y-4.1158
G01 X51.9759 Y-4.1204
G01 X51.9705 Y-4.1254
G01 X51.9655 Y-4.1308
G01 X51.9609 Y-4.1366
G01 X51.9567 Y-4.1426
G01 X51.9530 Y-4.1490
G01 X51.9488 Y-4.1579
G01 X51.9463 Y-4.1648
G01 X51.9442 Y-4.1718
G01 X51.9427 Y-4.1790
G01 X51.9417 Y-4.1863
G01 X51.9412 Y-4.1961
G01 X51.9412 Y-4.8459
G01 X42.4394 Y-4.8459
G01 X42.3830 Y-4.8488
G01 X42.3248 Y-4.8574
G01 X42.2676 Y-4.8717
G01 X42.2122 Y-4.8916
G01 X42.1589 Y-4.9167
G01 X42.1084 Y-4.9470
G01 X42.0611 Y-4.9821
G01 X42.0210 Y-5.0183
G01 X33.4844 Y-13.5547
G01 X33.4450 Y-13.5983
G01 X33.4127 Y-13.6415
G01 X33.4073 Y-13.6497
G01 X33.3785 Y-13.6983
G01 X33.3564 Y-13.7448
G01 X33.3527 Y-13.7539
G01 X33.3346 Y-13.8047
G01 X33.3214 Y-13.8571
G01 X33.3194 Y-13.8667
G01 X33.3116 Y-13.9201
G01 X33.3088 Y-13.9765
G01 X33.3087 Y-17.1823
G01 X33.2933 Y-17.2087
G01 X33.2661 Y-17.2661
G01 X33.2634 Y-17.2729
G01 X33.2414 Y-17.3351
G01 X33.2255 Y-17.3990
G01 X33.2157 Y-17.4649
G01 X33.2069 Y-17.4901
G01 X33.1928 Y-17.5473
G01 X33.1846 Y-17.6032
G01 X33.1818 Y-17.6595
G01 X33.1817 Y-22.8998
G01 X32.4168 Y-22.8998
G01 X32.4094 Y-22.9001
G01 X32.3972 Y-22.9017
G01 X32.3854 Y-22.9048
G01 X32.3740 Y-22.9094
G01 X32.3675 Y-22.9128
G01 X32.3612 Y-22.9167
G01 X32.3514 Y-22.9241
G01 X32.3427 Y-22.9326
G01 X32.3350 Y-22.9422
G01 X32.3286 Y-22.9527
G01 X32.3235 Y-22.9638
G01 X32.3197 Y-22.9755
G01 X32.3175 Y-22.9876
G01 X32.3168 Y-22.9998
G01 X32.3168 Y-24.5162
G00 Z2.0000
G00 X52.0523 Y-4.0368
G01 F60.00
G01 Z0.0000
G01 F300.00
G01 X52.0061 Y-4.0421
G01 X51.9724 Y-4.0539
G01 X51.9427 Y-4.0725
G01 X51.9176 Y-4.0976
G01 X51.8990 Y-4.1273
G01 X51.8872 Y-4.1610
G01 X51.8820 Y-4.2071
G01 X51.8818 Y-4.5904
G01 X51.8805 Y-4.6025
G01 X51.8719 Y-4.6459
G01 X51.8686 Y-4.6576
G01 X51.8638 Y-4.6688
G01 X51.8591 Y-4.6773
G01 X51.8359 Y-4.7124
G01 X51.8316 Y-4.7183
G01 X51.8253 Y-4.7258
G01 X51.8201 Y-4.7309
G01 X51.8125 Y-4.7372
G01 X51.7755 Y-4.7624
G01 X51.7691 Y-4.7664
G01 X51.7602 Y-4.7709
G01 X51.7531 Y-4.7737
G01 X51.7459 Y-4.7760
G01 X51.6995 Y-4.7853
G01 X51.6876 Y-4.7869
G01 X51.6804 Y-4.7872
G01 X42.4200 Y-4.7877
G01 X42.3399 Y-4.7950
G01 X42.3229 Y-4.7979
G01 X42.2438 Y-4.8174
G01 X42.2276 Y-4.8227
G01 X42.1526 Y-4.8537
G01 X42.1376 Y-4.8614
G01 X42.0700 Y-4.9024
G01 X41.9910 Y-4.9655
G01 X33.4284 Y-13.5281
G01 X33.3653 Y-13.6071
G01 X33.3243 Y-13.6747
G01 X33.3166 Y-13.6897
G01 X33.2856 Y-13.7647
G01 X33.2803 Y-13.7810
G01 X33.2607 Y-13.8600
G01 X33.2579 Y-13.8770
G01 X33.2505 Y-13.9572
G01 X33.2500 Y-17.1209
G01 X33.2493 Y-17.1306
G01 X33.2459 Y-17.1579
G01 X33.2445 Y-17.1654
G01 X33.2418 Y-17.1751
G01 X33.2382 Y-17.1844
G01 X33.2233 Y-17.2174
G01 X33.1842 Y-17.3226
G01 X33.1307 Y-17.5648
G01 X33.1235 Y-17.6403
G01 X33.1230 Y-22.6389
G01 X33.1226 Y-22.6485
G01 X33.1212 Y-22.6580
G01 X33.1131 Y-22.6996
G01 X33.1104 Y-22.7093
G01 X33.1078 Y-22.7164
G01 X33.1046 Y-22.7232
G01 X33.0996 Y-22.7319
G01 X33.0730 Y-22.7710
G01 X33.0684 Y-22.7767
G01 X33.0634 Y-22.7821
G01 X33.0580 Y-22.7871
G01 X33.0503 Y-22.7930
G01 X33.0111 Y-22.8188
G01 X33.0003 Y-22.8244
G01 X32.9912 Y-22.8279
G01 X32.9818 Y-22.8305
G01 X32.9408 Y-22.8386
G01 X32.9312 Y-22.8400
G01 X32.9239 Y-22.8404
G01 X32.4286 Y-22.8405
G01 X32.3816 Y-22.8461
G01 X32.3483 Y-22.8576
G01 X32.3182 Y-22.8765
G01 X32.2935 Y-22.9013
G01 X32.2746 Y-22.9313
G01 X32.2632 Y-22.9643
G01 X32.2579 Y-23.0112
G01 X32.2579 Y-24.5048
G01 X32.2632 Y-24.5517
G01 X32.2746 Y-24.5847
G01 X32.2935 Y-24.6147
G01 X32.3182 Y-24.6395
G01 X32.3483 Y-24.6583
G01 X32.3813 Y-24.6698
G01 X32.4282 Y-24.6750
G01 X35.1358 Y-24.6750
G01 X35.1827 Y-24.6698
G01 X35.2157 Y-24.6583
G01 X35.2458 Y-24.6395
G01 X35.2705 Y-24.6147
G01 X35.2896 Y-24.5844
G01 X35.3020 Y-24.5494
G01 X35.3049 Y-24.5424
G01 X35.3084 Y-24.5357
G01 X35.3336 Y-24.4939
G01 X35.3409 Y-24.4843
G01 X35.3493 Y-24.4756
G01 X35.3568 Y-24.4694
G01 X35.3942 Y-24.4428
G01 X35.4025 Y-24.4377
G01 X35.4111 Y-24.4336
G01 X35.4202 Y-24.4302
G01 X35.4295 Y-24.4278
G01 X35.4724 Y-24.4187
G01 X35.4793 Y-24.4176
G01 X35.4886 Y-24.4170
G01 X43.5854 Y-24.4170
G01 X43.5950 Y-24.4174
G01 X43.6021 Y-24.4184
G01 X43.6510 Y-24.4281
G01 X43.6582 Y-24.4304
G01 X43.6652 Y-24.4332
G01 X43.6763 Y-24.4390
G01 X43.7155 Y-24.4655
G01 X43.7212 Y-24.4698
G01 X43.7282 Y-24.4762
G01 X48.9521 Y-29.6996
G01 X49.0311 Y-29.7627
G01 X49.0987 Y-29.8037
G01 X49.1137 Y-29.8114
G01 X49.1887 Y-29.8424
G01 X49.2050 Y-29.8477
G01 X49.2840 Y-29.8672
G01 X49.3010 Y-29.8701
G01 X49.3812 Y-29.8774
G01 X57.9364 Y-29.8780
G01 X57.9436 Y-29.8782
G01 X57.9531 Y-29.8794
G01 X57.9995 Y-29.8885
G01 X58.0068 Y-29.8906
G01 X58.0139 Y-29.8932
G01 X58.0207 Y-29.8964
G01 X58.0295 Y-29.9014
G01 X58.0665 Y-29.9265
G01 X58.0722 Y-29.9308
G01 X58.0775 Y-29.9355
G01 X58.5924 Y-30.4505
G01 X58.5972 Y-30.4558
G01 X58.6015 Y-30.4615
G01 X58.6279 Y-30.5007
G01 X58.6327 Y-30.5095
G01 X58.6357 Y-30.5165
G01 X58.6382 Y-30.5236
G01 X58.6401 Y-30.5309
G01 X58.6486 Y-30.5749
G01 X58.6498 Y-30.5844
G01 X58.6500 Y-30.5916
G01 X58.6500 Y-31.4293
G01 X58.6497 Y-31.4370
G01 X58.6439 Y-31.4766
G01 X58.6422 Y-31.4841
G01 X58.6391 Y-31.4938
G01 X58.6351 Y-31.5031
G01 X58.5619 Y-31.6510
G01 X58.5224 Y-31.7682
G01 X58.4980 Y-31.8896
G01 X58.4897 Y-32.0130
G01 X58.4980 Y-32.1364
G01 X58.5224 Y-32.2578
G01 X58.5619 Y-32.3751
G01 X58.6165 Y-32.4861
G01 X58.6854 Y-32.5891
G01 X58.7269 Y-32.6365
G01 X58.7345 Y-32.6463
G01 X58.7595 Y-32.6878
G01 X58.7643 Y-32.6988
G01 X58.7678 Y-32.7104
G01 X58.7758 Y-32.7532
G01 X58.7770 Y-32.7662
G01 X58.7775 Y-33.3048
G01 X58.7849 Y-33.3850
G01 X58.7877 Y-33.4020
G01 X58.8073 Y-33.4810
G01 X58.8126 Y-33.4973
G01 X58.8436 Y-33.5723
G01 X58.8513 Y-33.5873
G01 X58.8923 Y-33.6549
G01 X58.9554 Y-33.7339
G01 X60.3821 Y-35.1606
G01 X60.4611 Y-35.2237
G01 X60.5287 Y-35.2647
G01 X60.5437 Y-35.2724
G01 X60.6187 Y-35.3034
G01 X60.6350 Y-35.3087
G01 X60.7140 Y-35.3282
G01 X60.7310 Y-35.3311
G01 X60.8112 Y-35.3384
G01 X71.0148 Y-35.3384
G01 X71.0950 Y-35.3311
G01 X71.1120 Y-35.3282
G01 X71.1910 Y-35.3087
G01 X71.2073 Y-35.3034
G01 X71.2823 Y-35.2724
G01 X71.2973 Y-35.2647
G01 X71.3649 Y-35.2237
G01 X71.4439 Y-35.1606
G01 X72.6166 Y-33.9879
G01 X72.6797 Y-33.9089
G01 X72.7207 Y-33.8413
G01 X72.7284 Y-33.8263
G01 X72.7594 Y-33.7513
G01 X72.7647 Y-33.7350
G01 X72.7842 Y-33.6560
G01 X72.7871 Y-33.6390
G01 X72.7944 Y-33.5588
G01 X72.7950 Y-32.7688
G01 X72.7953 Y-32.7610
G01 X72.7962 Y-32.7532
G01 X72.8032 Y-32.7151
G01 X72.8054 Y-32.7057
G01 X72.8077 Y-32.6988
G01 X72.8104 Y-32.6921
G01 X72.8161 Y-32.6815
G01 X72.8349 Y-32.6505
G01 X72.8404 Y-32.6423
G01 X72.8865 Y-32.5891
G01 X72.9555 Y-32.4861
G01 X73.0101 Y-32.3751
G01 X73.0496 Y-32.2578
G01 X73.0740 Y-32.1364
G01 X73.0823 Y-32.0130
G01 X73.0740 Y-31.8896
G01 X73.0496 Y-31.7682
G01 X73.0101 Y-31.6509
G01 X72.9555 Y-31.5399
G01 X72.8867 Y-31.4371
G01 X72.8048 Y-31.3442
G01 X72.7119 Y-31.2623
G01 X72.6091 Y-31.1935
G01 X72.4981 Y-31.1389
G01 X72.3808 Y-31.0994
G01 X72.2594 Y-31.0750
G01 X72.1360 Y-31.0667
G01 X72.0126 Y-31.0750
G01 X71.8912 Y-31.0994
G01 X71.7739 Y-31.1389
G01 X71.6629 Y-31.1935
G01 X71.5601 Y-31.2623
G01 X71.4672 Y-31.3442
G01 X71.3853 Y-31.4371
G01 X71.3165 Y-31.5399
G01 X71.2619 Y-31.6509
G01 X71.2224 Y-31.7682
G01 X71.1980 Y-31.8896
G01 X71.1897 Y-32.0130
G01 X71.1980 Y-32.1364
G01 X71.2224 Y-32.2578
G01 X71.2619 Y-32.3751
G01 X71.3165 Y-32.4861
G01 X71.3854 Y-32.5891
G01 X71.4269 Y-32.6365
G01 X71.4345 Y-32.6463
G01 X71.4595 Y-32.6878
G01 X71.4643 Y-32.6988
G01 X71.4678 Y-32.7104
G01 X71.4758 Y-32.7532
G01 X71.4770 Y-32.7663
G01 X71.4770 Y-33.1804
G01 X71.4766 Y-33.1900
G01 X71.4756 Y-33.1971
G01 X71.4665 Y-33.2435
G01 X71.4644 Y-33.2508
G01 X71.4618 Y-33.2579
G01 X71.4586 Y-33.2647
G01 X71.4549 Y-33.2713
G01 X71.4285 Y-33.3105
G01 X71.4242 Y-33.3162
G01 X71.4194 Y-33.3215
G01 X70.7792 Y-33.9618
G01 X70.7722 Y-33.9682
G01 X70.7665 Y-33.9725
G01 X70.7273 Y-33.9989
G01 X70.7207 Y-34.0026
G01 X70.7139 Y-34.0058
G01 X70.7068 Y-34.0084
G01 X70.6995 Y-34.0105
G01 X70.6531 Y-34.0196
G01 X70.6436 Y-34.0208
G01 X70.6364 Y-34.0210
G01 X61.1896 Y-34.0210
G01 X61.1824 Y-34.0208
G01 X61.1729 Y-34.0196
G01 X61.1289 Y-34.0111
G01 X61.1216 Y-34.0092
G01 X61.1121 Y-34.0058
G01 X61.1053 Y-34.0026
G01 X61.0987 Y-33.9989
G01 X61.0595 Y-33.9725
G01 X61.0520 Y-33.9666
G01 X61.0468 Y-33.9618
G01 X60.1525 Y-33.0675
G01 X60.1478 Y-33.0622
G01 X60.1435 Y-33.0565
G01 X60.1184 Y-33.0195
G01 X60.1123 Y-33.0085
G01 X60.1093 Y-33.0015
G01 X60.1068 Y-32.9944
G01 X60.1044 Y-32.9846
G01 X60.0964 Y-32.9431
G01 X60.0952 Y-32.9336
G01 X60.0950 Y-32.9264
G01 X60.0951 Y-32.7637
G01 X60.0962 Y-32.7532
G01 X60.1042 Y-32.7104
G01 X60.1077 Y-32.6988
G01 X60.1125 Y-32.6878
G01 X60.1375 Y-32.6463
G01 X60.1450 Y-32.6365
G01 X60.1865 Y-32.5891
G01 X60.2555 Y-32.4861
G01 X60.3101 Y-32.3751
G01 X60.3496 Y-32.2578
G01 X60.3740 Y-32.1364
G01 X60.3823 Y-32.0130
G01 X60.3740 Y-31.8896
G01 X60.3496 Y-31.7682
G01 X60.3101 Y-31.6509
G01 X60.2555 Y-31.5399
G01 X60.1867 Y-31.4371
G01 X60.1048 Y-31.3442
G01 X60.0344 Y-31.2821
G01 X60.0290 Y-31.2766
G01 X60.0239 Y-31.2707
G01 X59.9970 Y-31.2346
G01 X59.9913 Y-31.2263
G01 X59.9877 Y-31.2196
G01 X59.9846 Y-31.2128
G01 X59.9820 Y-31.2057
G01 X59.9799 Y-31.1984
G01 X59.9697 Y-31.1515
G01 X59.9687 Y-31.1445
G01 X59.9680 Y-31.1351
G01 X59.9674 Y-30.2132
G01 X59.9601 Y-30.1330
G01 X59.9572 Y-30.1160
G01 X59.9377 Y-30.0370
G01 X59.9324 Y-30.0207
G01 X59.9014 Y-29.9457
G01 X59.8937 Y-29.9307
G01 X59.8527 Y-29.8631
G01 X59.7896 Y-29.7841
G01 X58.7439 Y-28.7384
G01 X58.6649 Y-28.6753
G01 X58.5973 Y-28.6343
G01 X58.5823 Y-28.6266
G01 X58.5073 Y-28.5956
G01 X58.4910 Y-28.5903
G01 X58.4120 Y-28.5707
G01 X58.3950 Y-28.5679
G01 X58.3148 Y-28.5605
G01 X49.7596 Y-28.5600
G01 X49.7500 Y-28.5596
G01 X49.7429 Y-28.5586
G01 X49.6965 Y-28.5495
G01 X49.6892 Y-28.5474
G01 X49.6821 Y-28.5448
G01 X49.6753 Y-28.5416
G01 X49.6687 Y-28.5379
G01 X49.6295 Y-28.5115
G01 X49.6220 Y-28.5056
G01 X49.6168 Y-28.5008
G01 X44.3929 Y-23.2774
G01 X44.3139 Y-23.2143
G01 X44.2463 Y-23.1733
G01 X44.2313 Y-23.1656
G01 X44.1563 Y-23.1346
G01 X44.1400 Y-23.1293
G01 X44.0610 Y-23.1097
G01 X44.0440 Y-23.1069
G01 X43.9638 Y-23.0995
G01 X35.4863 Y-23.0989
G01 X35.4724 Y-23.0973
G01 X35.4295 Y-23.0882
G01 X35.4202 Y-23.0858
G01 X35.4111 Y-23.0824
G01 X35.4025 Y-23.0782
G01 X35.3942 Y-23.0732
G01 X35.3568 Y-23.0466
G01 X35.3493 Y-23.0404
G01 X35.3409 Y-23.0317
G01 X35.3336 Y-23.0221
G01 X35.3084 Y-22.9803
G01 X35.3049 Y-22.9736
G01 X35.3020 Y-22.9666
G01 X35.2896 Y-22.9316
G01 X35.2705 Y-22.9013
G01 X35.2458 Y-22.8765
G01 X35.2157 Y-22.8576
G01 X35.1823 Y-22.8461
G01 X35.1354 Y-22.8405
G01 X34.6426 Y-22.8405
G01 X34.6328 Y-22.8400
G01 X34.6256 Y-22.8390
G01 X34.5822 Y-22.8305
G01 X34.5751 Y-22.8286
G01 X34.5660 Y-22.8254
G01 X34.5593 Y-22.8223
G01 X34.5508 Y-22.8176
G01 X34.5158 Y-22.7944
G01 X34.5098 Y-22.7901
G01 X34.5041 Y-22.7855
G01 X34.4989 Y-22.7804
G01 X34.4940 Y-22.7749
G01 X34.4881 Y-22.7671
G01 X34.4630 Y-22.7298
G01 X34.4594 Y-22.7232
G01 X34.4562 Y-22.7164
G01 X34.4536 Y-22.7093
G01 X34.4515 Y-22.7020
G01 X34.4424 Y-22.6556
G01 X34.4412 Y-22.6461
G01 X34.4410 Y-22.6389
G01 X34.4410 Y-18.1460
G01 X34.4418 Y-18.1356
G01 X34.4482 Y-18.0960
G01 X34.4515 Y-18.0839
G01 X34.4564 Y-18.0723
G01 X34.4739 Y-18.0391
G01 X34.4787 Y-18.0313
G01 X34.5445 Y-17.9435
G01 X34.5960 Y-17.8490
G01 X34.6337 Y-17.7481
G01 X34.6566 Y-17.6427
G01 X34.6642 Y-17.5350
G01 X34.6566 Y-17.4273
G01 X34.6337 Y-17.3219
G01 X34.5947 Y-17.2175
G01 X34.5798 Y-17.1844
G01 X34.5762 Y-17.1751
G01 X34.5735 Y-17.1654
G01 X34.5721 Y-17.1580
G01 X34.5684 Y-17.1282
G01 X34.5680 Y-17.1184
G01 X34.5680 Y-14.3332
G01 X34.5684 Y-14.3260
G01 X34.5694 Y-14.3189
G01 X34.5774 Y-14.2774
G01 X34.5798 Y-14.2676
G01 X34.5832 Y-14.2581
G01 X34.5875 Y-14.2491
G01 X34.5928 Y-14.2404
G01 X34.6165 Y-14.2055
G01 X34.6208 Y-14.1998
G01 X34.6255 Y-14.1945
G01 X42.6556 Y-6.1643
G01 X42.6609 Y-6.1595
G01 X42.6683 Y-6.1536
G01 X42.7054 Y-6.1285
G01 X42.7142 Y-6.1235
G01 X42.7257 Y-6.1185
G01 X42.7378 Y-6.1150
G01 X42.7794 Y-6.1069
G01 X42.7889 Y-6.1055
G01 X42.7985 Y-6.1051
G01 X51.6852 Y-6.1052
G01 X51.6971 Y-6.1065
G01 X51.7386 Y-6.1145
G01 X51.7484 Y-6.1170
G01 X51.7555 Y-6.1194
G01 X51.7624 Y-6.1224
G01 X51.7713 Y-6.1272
G01 X51.8086 Y-6.1522
G01 X51.8145 Y-6.1566
G01 X51.8201 Y-6.1613
G01 X51.8269 Y-6.1683
G01 X51.8316 Y-6.1739
G01 X51.8591 Y-6.2149
G01 X51.8627 Y-6.2213
G01 X51.8659 Y-6.2278
G01 X51.8694 Y-6.2369
G01 X51.8719 Y-6.2463
G01 X51.8805 Y-6.2897
G01 X51.8818 Y-6.3018
G01 X51.8820 Y-6.6846
G01 X51.8872 Y-6.7311
G01 X51.8990 Y-6.7645
G01 X51.9176 Y-6.7946
G01 X51.9427 Y-6.8193
G01 X51.9724 Y-6.8382
G01 X52.0057 Y-6.8496
G01 X52.0523 Y-6.8549
G01 X54.5297 Y-6.8549
G01 X54.5766 Y-6.8496
G01 X54.6097 Y-6.8382
G01 X54.6397 Y-6.8193
G01 X54.6644 Y-6.7946
G01 X54.6833 Y-6.7645
G01 X54.6947 Y-6.7315
G01 X54.7000 Y-6.6846
G01 X54.7000 Y-4.2071
G01 X54.6947 Y-4.1606
G01 X54.6833 Y-4.1273
G01 X54.6644 Y-4.0976
G01 X54.6397 Y-4.0725
G01 X54.6096 Y-4.0539
G01 X54.5762 Y-4.0421
G01 X54.5297 Y-4.0368
G01 X52.0523 Y-4.0368
G00 Z2.0000
G00 X61.3339 Y-23.7880
G01 F60.00
G01 Z0.0000
G01 F300.00
G01 X61.1628 Y-23.7923
G01 X60.9936 Y-23.8143
G01 X60.8274 Y-23.8531
G01 X60.6661 Y-23.9096
G01 X60.5112 Y-23.9820
G01 X60.3651 Y-24.0697
G01 X60.2281 Y-24.1722
G01 X60.1031 Y-24.2881
G01 X59.9900 Y-24.4165
G01 X59.8913 Y-24.5559
G01 X59.8070 Y-24.7044
G01 X59.7390 Y-24.8611
G01 X59.6867 Y-25.0236
G01 X59.6518 Y-25.1906
G01 X59.6345 Y-25.3607
G01 X59.6345 Y-25.5314
G01 X59.6518 Y-25.7015
G01 X59.6867 Y-25.8685
G01 X59.7390 Y-26.0310
G01 X59.8070 Y-26.1877
G01 X59.8913 Y-26.3362
G01 X59.9900 Y-26.4757
G01 X60.1031 Y-26.6040
G01 X60.2281 Y-26.7199
G01 X60.3651 Y-26.8224
G01 X60.5112 Y-26.9101
G01 X60.6661 Y-26.9825
G01 X60.8274 Y-27.0390
G01 X60.9936 Y-27.0778
G01 X61.1628 Y-27.0999
G01 X61.3339 Y-27.1042
G01 X61.5040 Y-27.0912
G01 X61.6720 Y-27.0606
G01 X61.8359 Y-27.0127
G01 X61.9940 Y-26.9485
G01 X62.1449 Y-26.8680
G01 X62.2867 Y-26.7726
G01 X62.4175 Y-26.6634
G01 X62.5369 Y-26.5412
G01 X62.6432 Y-26.4071
G01 X62.7347 Y-26.2629
G01 X62.8108 Y-26.1106
G01 X62.8712 Y-25.9505
G01 X62.9148 Y-25.7852
G01 X62.9412 Y-25.6167
G01 X62.9498 Y-25.4461
G01 X62.9412 Y-25.2755
G01 X62.9148 Y-25.1069
G01 X62.8712 Y-24.9416
G01 X62.8108 Y-24.7816
G01 X62.7347 Y-24.6292
G01 X62.6432 Y-24.4850
G01 X62.5369 Y-24.3510
G01 X62.4175 Y-24.2287
G01 X62.2867 Y-24.1195
G01 X62.1449 Y-24.0242
G01 X61.9940 Y-23.9437
G01 X61.8359 Y-23.8795
G01 X61.6720 Y-23.8316
G01 X61.5040 Y-23.8009
G01 X61.3339 Y-23.7880
G00 Z2.0000
G00 X81.5086 Y-31.1256
G01 F60.00
G01 Z0.0000
G01 F300.00
G01 X81.5012 Y-31.1259
G01 X81.4915 Y-31.1271
G01 X81.4819 Y-31.1292
G01 X81.4726 Y-31.1323
G01 X81.4636 Y-31.1363
G01 X81.4551 Y-31.1411
G01 X81.4471 Y-31.1468
G01 X81.4396 Y-31.1532
G01 X81.4329 Y-31.1603
G01 X81.4268 Y-31.1680
G01 X81.4216 Y-31.1763
G01 X81.4172 Y-31.1851
G01 X81.4136 Y-31.1942
G01 X81.4116 Y-31.2013
G01 X81.4097 Y-31.2109
G01 X81.4087 Y-31.2207
G01 X81.4086 Y-32.8029
G01 X81.4094 Y-32.8126
G01 X81.4105 Y-32.8199
G01 X81.4122 Y-32.8271
G01 X81.4153 Y-32.8364
G01 X81.4182 Y-32.8432
G01 X81.4228 Y-32.8518
G01 X81.4283 Y-32.8600
G01 X81.4345 Y-32.8676
G01 X81.4414 Y-32.8745
G01 X81.4490 Y-32.8807
G01 X81.4593 Y-32.8874
G01 X81.4681 Y-32.8918
G01 X81.4772 Y-32.8954
G01 X81.4867 Y-32.8980
G01 X81.4988 Y-32.8999
G01 X81.5086 Y-32.9004
G01 X83.0834 Y-32.9004
G01 X83.0956 Y-32.8996
G01 X83.1029 Y-32.8985
G01 X83.1101 Y-32.8968
G01 X83.1217 Y-32.8928
G01 X83.1284 Y-32.8897
G01 X83.1348 Y-32.8862
G01 X83.1449 Y-32.8792
G01 X83.1541 Y-32.8711
G01 X83.1622 Y-32.8619
G01 X83.1692 Y-32.8518
G01 X83.1748 Y-32.8409
G01 X83.1791 Y-32.8294
G01 X83.1819 Y-32.8175
G01 X83.1833 Y-32.8053
G01 X83.1834 Y-31.9745
G01 X87.2942 Y-27.8637
G01 X87.3320 Y-27.8218
G01 X87.3671 Y-27.7745
G01 X87.3974 Y-27.7240
G01 X87.4206 Y-27.6752
G01 X87.4243 Y-27.6661
G01 X87.4409 Y-27.6199
G01 X87.4437 Y-27.6105
G01 X87.4567 Y-27.5581
G01 X87.4648 Y-27.5047
G01 X87.4656 Y-27.4974
G01 X87.4683 Y-27.4410
G01 X87.4683 Y41.7794
G01 X89.4026 Y43.7137
G01 X97.7207 Y43.7137
G01 X97.7581 Y43.6802
G01 X97.8222 Y43.6327
G01 X97.8283 Y43.6287
G01 X97.8989 Y43.5867
G01 X97.9687 Y43.5536
G01 X97.9778 Y43.5499
G01 X98.0529 Y43.5232
G01 X98.1325 Y43.5031
G01 X98.1397 Y43.5018
G01 X98.2186 Y43.4902
G01 X98.2982 Y43.4862
G01 X98.3080 Y43.4862
G01 X98.3876 Y43.4902
G01 X98.4664 Y43.5018
G01 X98.4760 Y43.5037
G01 X98.5533 Y43.5232
G01 X98.6330 Y43.5517
G01 X98.7050 Y43.5856
G01 X98.7137 Y43.5902
G01 X98.7778 Y43.6287
G01 X98.7860 Y43.6341
G01 X98.8499 Y43.6817
G01 X98.9126 Y43.7385
G01 X98.9694 Y43.8012
G01 X99.0170 Y43.8651
G01 X99.0224 Y43.8733
G01 X99.0609 Y43.9374
G01 X99.0655 Y43.9461
G01 X99.0995 Y44.0182
G01 X99.1280 Y44.0978
G01 X99.1485 Y44.1799
G01 X99.1603 Y44.2587
G01 X99.1613 Y44.2684
G01 X99.1650 Y44.3431
G01 X99.1650 Y44.3529
G01 X99.1609 Y44.4325
G01 X99.1485 Y44.5162
G01 X99.1280 Y44.5983
G01 X99.1012 Y44.6733
G01 X99.0975 Y44.6824
G01 X99.0655 Y44.7500
G01 X99.0609 Y44.7587
G01 X99.0198 Y44.8269
G01 X98.9694 Y44.8949
G01 X98.9126 Y44.9576
G01 X98.8536 Y45.0112
G01 X98.8461 Y45.0174
G01 X98.7860 Y45.0619
G01 X98.7778 Y45.0674
G01 X98.7094 Y45.1083
G01 X98.6330 Y45.1444
G01 X98.5533 Y45.1729
G01 X98.4736 Y45.1930
G01 X98.4664 Y45.1943
G01 X98.3876 Y45.2059
G01 X98.3080 Y45.2099
G01 X98.2982 Y45.2099
G01 X98.2186 Y45.2059
G01 X98.1397 Y45.1943
G01 X98.1301 Y45.1924
G01 X98.0505 Y45.1722
G01 X97.9732 Y45.1444
G01 X97.9011 Y45.1105
G01 X97.8925 Y45.1058
G01 X97.8242 Y45.0648
G01 X97.7601 Y45.0174
G01 X97.7525 Y45.0112
G01 X97.6936 Y44.9576
G01 X97.6541 Y44.9143
G01 X89.1540 Y44.9143
G01 X89.0952 Y44.9114
G01 X89.0417 Y44.9036
G01 X89.0321 Y44.9016
G01 X88.9798 Y44.8884
G01 X88.9289 Y44.8703
G01 X88.9198 Y44.8666
G01 X88.8710 Y44.8434
G01 X88.8247 Y44.8157
G01 X88.8165 Y44.8103
G01 X88.7732 Y44.7780
G01 X88.7313 Y44.7402
G01 X86.4436 Y42.4524
G01 X86.4040 Y42.4088
G01 X86.3717 Y42.3655
G01 X86.3663 Y42.3573
G01 X86.3386 Y42.3110
G01 X86.3154 Y42.2622
G01 X86.3117 Y42.2531
G01 X86.2936 Y42.2022
G01 X86.2798 Y42.1475
G01 X86.2784 Y42.1403
G01 X86.2706 Y42.0868
G01 X86.2677 Y42.0280
G01 X86.2677 Y-27.1924
G01 X82.3345 Y-31.1256
G01 X81.5086 Y-31.1256
G00 Z2.0000
G00 X96.3334 Y-4.7878
G01 F60.00
G01 Z0.0000
G01 F300.00
G01 X96.1630 Y-4.7921
G01 X95.9934 Y-4.8141
G01 X95.8272 Y-4.8534
G01 X95.6662 Y-4.9095
G01 X95.5114 Y-4.9818
G01 X95.3649 Y-5.0699
G01 X95.2283 Y-5.1725
G01 X95.1028 Y-5.2884
G01 X94.9902 Y-5.4168
G01 X94.8910 Y-5.5558
G01 X94.8072 Y-5.7042
G01 X94.7387 Y-5.8609
G01 X94.6869 Y-6.0237
G01 X94.6519 Y-6.1911
G01 X94.6342 Y-6.3607
G01 X94.6342 Y-6.5316
G01 X94.6519 Y-6.7012
G01 X94.6869 Y-6.8685
G01 X94.7387 Y-7.0314
G01 X94.8072 Y-7.1880
G01 X94.8910 Y-7.3365
G01 X94.9902 Y-7.4754
G01 X95.1028 Y-7.6038
G01 X95.2283 Y-7.7197
G01 X95.3649 Y-7.8223
G01 X95.5114 Y-7.9104
G01 X95.6662 Y-7.9828
G01 X95.8272 Y-8.0388
G01 X95.9934 Y-8.0781
G01 X96.1630 Y-8.1002
G01 X96.3334 Y-8.1045
G01 X96.5040 Y-8.0910
G01 X96.6718 Y-8.0604
G01 X96.8361 Y-8.0129
G01 X96.9941 Y-7.9483
G01 X97.1446 Y-7.8683
G01 X97.2865 Y-7.7729
G01 X97.4177 Y-7.6637
G01 X97.5370 Y-7.5411
G01 X97.6428 Y-7.4074
G01 X97.7344 Y-7.2632
G01 X97.8110 Y-7.1104
G01 X97.8709 Y-6.9504
G01 X97.9145 Y-6.7855
G01 X97.9408 Y-6.6170
G01 X97.9495 Y-6.4459
G01 X97.9408 Y-6.2753
G01 X97.9145 Y-6.1068
G01 X97.8709 Y-5.9418
G01 X97.8110 Y-5.7818
G01 X97.7344 Y-5.6290
G01 X97.6428 Y-5.4848
G01 X97.5370 Y-5.3512
G01 X97.4177 Y-5.2285
G01 X97.2865 Y-5.1193
G01 X97.1446 Y-5.0240
G01 X96.9941 Y-4.9439
G01 X96.8361 Y-4.8793
G01 X96.6718 Y-4.8319
G01 X96.5040 Y-4.8012
G01 X96.3334 Y-4.7878
G00 Z2.0000
G00 X97.4458 Y8.8774
G01 F60.00
G01 Z0.0000
G01 F300.00
G01 X97.4449 Y8.8676
G01 X97.4411 Y8.7880
G01 X97.4452 Y8.7035
G01 X97.4576 Y8.6199
G01 X97.4782 Y8.5378
G01 X97.5067 Y8.4582
G01 X97.5429 Y8.3817
G01 X97.5864 Y8.3091
G01 X97.6367 Y8.2412
G01 X97.6936 Y8.1785
G01 X97.7562 Y8.1217
G01 X97.8242 Y8.0713
G01 X97.8967 Y8.0278
G01 X97.9732 Y7.9917
G01 X98.0529 Y7.9632
G01 X98.1349 Y7.9426
G01 X98.2186 Y7.9302
G01 X98.3031 Y7.9260
G01 X98.3876 Y7.9302
G01 X98.4712 Y7.9426
G01 X98.5533 Y7.9632
G01 X98.6330 Y7.9917
G01 X98.7094 Y8.0278
G01 X98.7820 Y8.0713
G01 X98.8499 Y8.1217
G01 X98.9126 Y8.1785
G01 X98.9694 Y8.2412
G01 X99.0198 Y8.3091
G01 X99.0633 Y8.3817
G01 X99.0995 Y8.4582
G01 X99.1280 Y8.5378
G01 X99.1485 Y8.6199
G01 X99.1609 Y8.7035
G01 X99.1651 Y8.7880
G01 X99.1609 Y8.8725
G01 X99.1485 Y8.9562
G01 X99.1280 Y9.0383
G01 X99.0995 Y9.1179
G01 X99.0633 Y9.1944
G01 X99.0198 Y9.2669
G01 X98.9694 Y9.3349
G01 X98.9126 Y9.3976
G01 X98.8499 Y9.4544
G01 X98.7820 Y9.5048
G01 X98.7094 Y9.5483
G01 X98.6330 Y9.5844
G01 X98.5533 Y9.6129
G01 X98.4712 Y9.6335
G01 X98.3876 Y9.6459
G01 X98.3031 Y9.6500
G01 X98.2186 Y9.6459
G01 X98.1349 Y9.6335
G01 X98.0529 Y9.6129
G01 X97.9732 Y9.5844
G01 X97.8967 Y9.5483
G01 X97.8242 Y9.5048
G01 X97.7562 Y9.4544
G01 X97.6936 Y9.3976
G01 X97.6367 Y9.3349
G01 X97.5864 Y9.2669
G01 X97.5429 Y9.1944
G01 X97.5067 Y9.1179
G01 X97.4782 Y9.0383
G01 X97.4576 Y8.9562
G01 X97.4458 Y8.8774
G00 Z2.0000
G00 X98.2722 Y9.7079
G01 F60.00
G01 Z0.0000
G01 F300.00
G01 X98.1500 Y9.6960
G01 X98.0301 Y9.6672
G01 X97.9155 Y9.6232
G01 X97.8078 Y9.5641
G01 X97.7083 Y9.4912
G01 X97.6201 Y9.4057
G01 X97.5440 Y9.3090
G01 X97.4811 Y9.2030
G01 X97.4331 Y9.0900
G01 X97.4010 Y8.9714
G01 X97.3845 Y8.8494
G01 X97.3845 Y8.7267
G01 X97.4010 Y8.6047
G01 X97.4331 Y8.4860
G01 X97.4811 Y8.3731
G01 X97.5440 Y8.2671
G01 X97.6201 Y8.1704
G01 X97.7083 Y8.0849
G01 X97.8078 Y8.0120
G01 X97.9155 Y7.9529
G01 X98.0301 Y7.9089
G01 X98.1500 Y7.8800
G01 X98.2724 Y7.8681
G01 X98.3953 Y7.8718
G01 X98.5164 Y7.8924
G01 X98.6338 Y7.9290
G01 X98.7457 Y7.9809
G01 X98.8492 Y8.0468
G01 X98.9430 Y8.1260
G01 X99.0255 Y8.2176
G01 X99.0952 Y8.3190
G01 X99.1506 Y8.4284
G01 X99.1909 Y8.5447
G01 X99.2152 Y8.6652
G01 X99.2234 Y8.7880
G01 X99.2152 Y8.9109
G01 X99.1909 Y9.0314
G01 X99.1506 Y9.1472
G01 X99.0952 Y9.2572
G01 X99.0256 Y9.3584
G01 X98.9430 Y9.4496
G01 X98.8491 Y9.5293
G01 X98.7457 Y9.5952
G01 X98.6338 Y9.6470
G01 X98.5166 Y9.6837
G01 X98.3953 Y9.7038
G01 X98.2722 Y9.7079
G00 Z2.0000
G00 X97.4458 Y11.4174
G01 F60.00
G01 Z0.0000
G01 F300.00
G01 X97.4449 Y11.4076
G01 X97.4411 Y11.3280
G01 X97.4449 Y11.2484
G01 X97.4458 Y11.2387
G01 X97.4576 Y11.1599
G01 X97.4769 Y11.0825
G01 X97.4797 Y11.0732
G01 X97.5067 Y10.9982
G01 X97.5429 Y10.9217
G01 X97.5837 Y10.8533
G01 X97.5892 Y10.8451
G01 X97.6367 Y10.7812
G01 X97.6902 Y10.7221
G01 X97.6971 Y10.7151
G01 X97.7562 Y10.6617
G01 X97.8202 Y10.6141
G01 X97.8283 Y10.6087
G01 X97.8967 Y10.5678
G01 X97.9687 Y10.5336
G01 X97.9778 Y10.5299
G01 X98.0529 Y10.5032
G01 X98.1349 Y10.4826
G01 X98.2137 Y10.4708
G01 X98.2235 Y10.4698
G01 X98.3031 Y10.4660
G01 X98.3827 Y10.4698
G01 X98.3924 Y10.4708
G01 X98.4712 Y10.4826
G01 X98.5486 Y10.5018
G01 X98.5556 Y10.5039
G01 X98.6284 Y10.5299
G01 X98.6374 Y10.5336
G01 X98.7094 Y10.5678
G01 X98.7799 Y10.6100
G01 X98.7860 Y10.6141
G01 X98.8518 Y10.6633
G01 X98.9108 Y10.7168
G01 X98.9275 Y10.7348
G01 X98.9595 Y10.7398
G01 X99.0166 Y10.7544
G01 X99.0697 Y10.7735
G01 X99.1186 Y10.7965
G01 X99.1251 Y10.7998
G01 X99.1694 Y10.8263
G01 X99.1775 Y10.8318
G01 X99.2208 Y10.8640
G01 X99.2609 Y10.9002
G01 X101.9756 Y13.6147
G01 X105.3927 Y13.6147
G01 X105.4193 Y13.5858
G01 X105.4802 Y13.5306
G01 X105.5480 Y13.4800
G01 X105.5540 Y13.4758
G01 X105.6267 Y13.4324
G01 X105.7009 Y13.3971
G01 X105.7100 Y13.3934
G01 X105.7851 Y13.3666
G01 X105.7921 Y13.3645
G01 X105.8719 Y13.3447
G01 X105.9531 Y13.3325
G01 X105.9629 Y13.3315
G01 X106.0450 Y13.3276
G01 X106.1271 Y13.3315
G01 X106.1369 Y13.3325
G01 X106.2157 Y13.3442
G01 X106.2229 Y13.3457
G01 X106.3026 Y13.3658
G01 X106.3846 Y13.3951
G01 X106.4633 Y13.4324
G01 X106.5339 Y13.4745
G01 X106.5420 Y13.4800
G01 X106.6080 Y13.5290
G01 X106.6689 Y13.5841
G01 X106.6759 Y13.5911
G01 X106.7278 Y13.6483
G01 X106.7340 Y13.6559
G01 X106.7828 Y13.7220
G01 X106.8252 Y13.7924
G01 X106.8298 Y13.8011
G01 X106.8649 Y13.8754
G01 X106.8942 Y13.9574
G01 X106.9153 Y14.0419
G01 X106.9281 Y14.1280
G01 X106.9324 Y14.2150
G01 X106.9281 Y14.3020
G01 X106.9153 Y14.3881
G01 X106.8955 Y14.4679
G01 X106.8934 Y14.4749
G01 X106.8649 Y14.5546
G01 X106.8298 Y14.6289
G01 X106.8252 Y14.6376
G01 X106.7828 Y14.7080
G01 X106.7310 Y14.7780
G01 X106.6759 Y14.8389
G01 X106.6689 Y14.8459
G01 X106.6080 Y14.9010
G01 X106.5380 Y14.9528
G01 X106.4676 Y14.9952
G01 X106.4589 Y14.9998
G01 X106.3846 Y15.0349
G01 X106.3026 Y15.0642
G01 X106.2229 Y15.0843
G01 X106.2133 Y15.0862
G01 X106.1369 Y15.0975
G01 X106.1271 Y15.0985
G01 X106.0450 Y15.1024
G01 X105.9629 Y15.0985
G01 X105.9531 Y15.0975
G01 X105.8767 Y15.0862
G01 X105.8671 Y15.0843
G01 X105.7874 Y15.0642
G01 X105.7077 Y15.0358
G01 X105.7009 Y15.0329
G01 X105.6267 Y14.9976
G01 X105.5561 Y14.9555
G01 X105.5500 Y14.9515
G01 X105.4859 Y14.9040
G01 X105.4802 Y14.8994
G01 X105.4193 Y14.8442
G01 X105.3927 Y14.8153
G01 X101.7270 Y14.8153
G01 X101.6682 Y14.8124
G01 X101.6147 Y14.8046
G01 X101.6051 Y14.8026
G01 X101.5504 Y14.7887
G01 X101.5019 Y14.7713
G01 X101.4928 Y14.7676
G01 X101.4440 Y14.7444
G01 X101.3977 Y14.7167
G01 X101.3895 Y14.7113
G01 X101.3462 Y14.6790
G01 X101.3043 Y14.6412
G01 X98.7357 Y12.0726
G01 X98.7072 Y12.0894
G01 X98.6352 Y12.1235
G01 X98.6284 Y12.1262
G01 X98.5509 Y12.1536
G01 X98.4712 Y12.1735
G01 X98.3924 Y12.1853
G01 X98.3827 Y12.1863
G01 X98.3055 Y12.1900
G01 X98.2982 Y12.1899
G01 X98.2186 Y12.1859
G01 X98.1397 Y12.1743
G01 X98.1301 Y12.1724
G01 X98.0529 Y12.1529
G01 X97.9778 Y12.1262
G01 X97.9687 Y12.1224
G01 X97.8989 Y12.0894
G01 X97.8925 Y12.0858
G01 X97.8242 Y12.0448
G01 X97.7601 Y11.9974
G01 X97.7525 Y11.9912
G01 X97.6936 Y11.9376
G01 X97.6400 Y11.8786
G01 X97.6337 Y11.8710
G01 X97.5864 Y11.8069
G01 X97.5429 Y11.7344
G01 X97.5087 Y11.6624
G01 X97.5049 Y11.6533
G01 X97.4797 Y11.5829
G01 X97.4769 Y11.5735
G01 X97.4576 Y11.4962
G01 X97.4458 Y11.4174
G00 Z2.0000
G00 X97.4458 Y13.9574
G01 F60.00
G01 Z0.0000
G01 F300.00
G01 X97.4449 Y13.9476
G01 X97.4411 Y13.8680
G01 X97.4452 Y13.7835
G01 X97.4576 Y13.6999
G01 X97.4782 Y13.6178
G01 X97.5067 Y13.5382
G01 X97.5429 Y13.4617
G01 X97.5864 Y13.3891
G01 X97.6367 Y13.3212
G01 X97.6936 Y13.2585
G01 X97.7562 Y13.2017
G01 X97.8242 Y13.1513
G01 X97.8967 Y13.1078
G01 X97.9732 Y13.0717
G01 X98.0529 Y13.0432
G01 X98.1349 Y13.0226
G01 X98.2186 Y13.0102
G01 X98.3031 Y13.0060
G01 X98.3876 Y13.0102
G01 X98.4712 Y13.0226
G01 X98.5533 Y13.0432
G01 X98.6330 Y13.0717
G01 X98.7094 Y13.1078
G01 X98.7820 Y13.1513
G01 X98.8499 Y13.2017
G01 X98.9126 Y13.2585
G01 X98.9694 Y13.3212
G01 X99.0198 Y13.3891
G01 X99.0633 Y13.4617
G01 X99.0995 Y13.5382
G01 X99.1280 Y13.6178
G01 X99.1485 Y13.6999
G01 X99.1609 Y13.7835
G01 X99.1651 Y13.8680
G01 X99.1609 Y13.9525
G01 X99.1485 Y14.0362
G01 X99.1280 Y14.1183
G01 X99.0995 Y14.1979
G01 X99.0633 Y14.2744
G01 X99.0198 Y14.3469
G01 X98.9694 Y14.4149
G01 X98.9126 Y14.4776
G01 X98.8499 Y14.5344
G01 X98.7820 Y14.5848
G01 X98.7094 Y14.6283
G01 X98.6330 Y14.6644
G01 X98.5533 Y14.6929
G01 X98.4712 Y14.7135
G01 X98.3876 Y14.7259
G01 X98.3031 Y14.7300
G01 X98.2186 Y14.7259
G01 X98.1349 Y14.7135
G01 X98.0529 Y14.6929
G01 X97.9732 Y14.6644
G01 X97.8967 Y14.6283
G01 X97.8242 Y14.5848
G01 X97.7562 Y14.5344
G01 X97.6936 Y14.4776
G01 X97.6367 Y14.4149
G01 X97.5864 Y14.3469
G01 X97.5429 Y14.2744
G01 X97.5067 Y14.1979
G01 X97.4782 Y14.1183
G01 X97.4576 Y14.0362
G01 X97.4458 Y13.9574
G00 Z2.0000
G00 X98.2722 Y14.7879
G01 F60.00
G01 Z0.0000
G01 F300.00
G01 X98.1500 Y14.7760
G01 X98.0301 Y14.7472
G01 X97.9155 Y14.7032
G01 X97.8078 Y14.6441
G01 X97.7083 Y14.5712
G01 X97.6201 Y14.4857
G01 X97.5440 Y14.3890
G01 X97.4811 Y14.2830
G01 X97.4331 Y14.1700
G01 X97.4010 Y14.0514
G01 X97.3845 Y13.9294
G01 X97.3845 Y13.8067
G01 X97.4010 Y13.6847
G01 X97.4331 Y13.5660
G01 X97.4811 Y13.4531
G01 X97.5440 Y13.3471
G01 X97.6201 Y13.2504
G01 X97.7083 Y13.1649
G01 X97.8078 Y13.0920
G01 X97.9155 Y13.0329
G01 X98.0301 Y12.9889
G01 X98.1500 Y12.9600
G01 X98.2724 Y12.9481
G01 X98.3953 Y12.9518
G01 X98.5164 Y12.9724
G01 X98.6338 Y13.0090
G01 X98.7457 Y13.0609
G01 X98.8492 Y13.1268
G01 X98.9430 Y13.2060
G01 X99.0255 Y13.2976
G01 X99.0952 Y13.3990
G01 X99.1506 Y13.5084
G01 X99.1909 Y13.6247
G01 X99.2152 Y13.7452
G01 X99.2234 Y13.8680
G01 X99.2152 Y13.9909
G01 X99.1909 Y14.1114
G01 X99.1506 Y14.2272
G01 X99.0952 Y14.3372
G01 X99.0256 Y14.4384
G01 X98.9430 Y14.5296
G01 X98.8491 Y14.6093
G01 X98.7457 Y14.6752
G01 X98.6338 Y14.7270
G01 X98.5166 Y14.7637
G01 X98.3953 Y14.7838
G01 X98.2722 Y14.7879
G00 Z2.0000
G00 X97.4458 Y16.4974
G01 F60.00
G01 Z0.0000
G01 F300.00
G01 X97.4449 Y16.4876
G01 X97.4411 Y16.4080
G01 X97.4452 Y16.3235
G01 X97.4576 Y16.2399
G01 X97.4782 Y16.1578
G01 X97.5067 Y16.0782
G01 X97.5429 Y16.0017
G01 X97.5864 Y15.9291
G01 X97.6367 Y15.8612
G01 X97.6936 Y15.7985
G01 X97.7562 Y15.7417
G01 X97.8242 Y15.6913
G01 X97.8967 Y15.6478
G01 X97.9732 Y15.6117
G01 X98.0529 Y15.5832
G01 X98.1349 Y15.5626
G01 X98.2186 Y15.5502
G01 X98.3031 Y15.5460
G01 X98.3876 Y15.5502
G01 X98.4712 Y15.5626
G01 X98.5533 Y15.5832
G01 X98.6330 Y15.6117
G01 X98.7094 Y15.6478
G01 X98.7820 Y15.6913
G01 X98.8499 Y15.7417
G01 X98.9126 Y15.7985
G01 X98.9694 Y15.8612
G01 X99.0198 Y15.9291
G01 X99.0633 Y16.0017
G01 X99.0995 Y16.0782
G01 X99.1280 Y16.1578
G01 X99.1485 Y16.2399
G01 X99.1609 Y16.3235
G01 X99.1651 Y16.4080
G01 X99.1609 Y16.4925
G01 X99.1485 Y16.5762
G01 X99.1280 Y16.6583
G01 X99.0995 Y16.7379
G01 X99.0633 Y16.8144
G01 X99.0198 Y16.8869
G01 X98.9694 Y16.9549
G01 X98.9126 Y17.0176
G01 X98.8499 Y17.0744
G01 X98.7820 Y17.1248
G01 X98.7094 Y17.1683
G01 X98.6330 Y17.2044
G01 X98.5533 Y17.2329
G01 X98.4712 Y17.2535
G01 X98.3876 Y17.2659
G01 X98.3031 Y17.2700
G01 X98.2186 Y17.2659
G01 X98.1349 Y17.2535
G01 X98.0529 Y17.2329
G01 X97.9732 Y17.2044
G01 X97.8967 Y17.1683
G01 X97.8242 Y17.1248
G01 X97.7562 Y17.0744
G01 X97.6936 Y17.0176
G01 X97.6367 Y16.9549
G01 X97.5864 Y16.8869
G01 X97.5429 Y16.8144
G01 X97.5067 Y16.7379
G01 X97.4782 Y16.6583
G01 X97.4576 Y16.5762
G01 X97.4458 Y16.4974
G00 Z2.0000
G00 X98.2722 Y17.3279
G01 F60.00
G01 Z0.0000
G01 F300.00
G01 X98.1500 Y17.3160
G01 X98.0301 Y17.2872
G01 X97.9155 Y17.2432
G01 X97.8078 Y17.1841
G01 X97.7083 Y17.1112
G01 X97.6201 Y17.0257
G01 X97.5440 Y16.9290
G01 X97.4811 Y16.8230
G01 X97.4331 Y16.7100
G01 X97.4010 Y16.5914
G01 X97.3845 Y16.4694
G01 X97.3845 Y16.3467
G01 X97.4010 Y16.2247
G01 X97.4331 Y16.1060
G01 X97.4811 Y15.9931
G01 X97.5440 Y15.8871
G01 X97.6201 Y15.7904
G01 X97.7083 Y15.7049
G01 X97.8078 Y15.6320
G01 X97.9155 Y15.5729
G01 X98.0301 Y15.5289
G01 X98.1500 Y15.5000
G01 X98.2724 Y15.4881
G01 X98.3953 Y15.4918
G01 X98.5164 Y15.5124
G01 X98.6338 Y15.5490
G01 X98.7457 Y15.6009
G01 X98.8492 Y15.6668
G01 X98.9430 Y15.7460
G01 X99.0255 Y15.8376
G01 X99.0952 Y15.9390
G01 X99.1506 Y16.0484
G01 X99.1909 Y16.1647
G01 X99.2152 Y16.2852
G01 X99.2234 Y16.4080
G01 X99.2152 Y16.5309
G01 X99.1909 Y16.6514
G01 X99.1506 Y16.7672
G01 X99.0952 Y16.8772
G01 X99.0256 Y16.9784
G01 X98.9430 Y17.0696
G01 X98.8491 Y17.1493
G01 X98.7457 Y17.2152
G01 X98.6338 Y17.2670
G01 X98.5166 Y17.3037
G01 X98.3953 Y17.3238
G01 X98.2722 Y17.3279
G00 Z2.0000
G00 X97.4458 Y19.0374
G01 F60.00
G01 Z0.0000
G01 F300.00
G01 X97.4449 Y19.0276
G01 X97.4411 Y18.9480
G01 X97.4449 Y18.8684
G01 X97.4458 Y18.8587
G01 X97.4568 Y18.7847
G01 X97.4587 Y18.7751
G01 X97.4782 Y18.6978
G01 X97.5067 Y18.6182
G01 X97.5429 Y18.5417
G01 X97.5837 Y18.4733
G01 X97.5892 Y18.4651
G01 X97.6367 Y18.4012
G01 X97.6936 Y18.3385
G01 X97.7562 Y18.2817
G01 X97.8242 Y18.2313
G01 X97.8967 Y18.1878
G01 X97.9732 Y18.1517
G01 X98.0529 Y18.1232
G01 X98.1349 Y18.1026
G01 X98.2186 Y18.0902
G01 X98.2982 Y18.0862
G01 X98.3080 Y18.0862
G01 X98.3876 Y18.0902
G01 X98.4664 Y18.1018
G01 X98.4760 Y18.1037
G01 X98.5533 Y18.1232
G01 X98.6284 Y18.1499
G01 X98.6374 Y18.1536
G01 X98.7094 Y18.1878
G01 X98.7778 Y18.2287
G01 X98.7860 Y18.2341
G01 X98.8499 Y18.2817
G01 X98.9091 Y18.3351
G01 X98.9212 Y18.3478
G01 X100.8093 Y18.3478
G01 X102.5743 Y16.5828
G01 X102.6125 Y16.5482
G01 X102.6201 Y16.5420
G01 X102.6635 Y16.5099
G01 X102.7098 Y16.4820
G01 X102.7184 Y16.4774
G01 X102.7673 Y16.4544
G01 X102.8181 Y16.4361
G01 X102.8251 Y16.4339
G01 X102.8799 Y16.4203
G01 X102.9333 Y16.4122
G01 X102.9431 Y16.4113
G01 X102.9970 Y16.4087
G01 X105.2282 Y16.4087
G01 X105.2624 Y16.3367
G01 X105.3045 Y16.2661
G01 X105.3100 Y16.2580
G01 X105.3590 Y16.1920
G01 X105.4141 Y16.1311
G01 X105.4211 Y16.1241
G01 X105.4820 Y16.0690
G01 X105.5520 Y16.0172
G01 X105.6267 Y15.9724
G01 X105.7009 Y15.9371
G01 X105.7100 Y15.9334
G01 X105.7874 Y15.9058
G01 X105.8719 Y15.8847
G01 X105.9531 Y15.8725
G01 X105.9629 Y15.8715
G01 X106.0475 Y15.8676
G01 X106.1320 Y15.8719
G01 X106.2133 Y15.8838
G01 X106.2229 Y15.8857
G01 X106.2979 Y15.9045
G01 X106.3073 Y15.9074
G01 X106.3846 Y15.9351
G01 X106.4633 Y15.9724
G01 X106.5380 Y16.0172
G01 X106.6041 Y16.0660
G01 X106.6117 Y16.0722
G01 X106.6689 Y16.1241
G01 X106.6759 Y16.1311
G01 X106.7310 Y16.1920
G01 X106.7828 Y16.2620
G01 X106.8276 Y16.3367
G01 X106.8629 Y16.4109
G01 X106.8666 Y16.4200
G01 X106.8949 Y16.4998
G01 X106.9153 Y16.5819
G01 X106.9281 Y16.6680
G01 X106.9324 Y16.7550
G01 X106.9281 Y16.8420
G01 X106.9153 Y16.9281
G01 X106.8942 Y17.0126
G01 X106.8649 Y17.0946
G01 X106.8276 Y17.1733
G01 X106.7828 Y17.2480
G01 X106.7310 Y17.3180
G01 X106.6725 Y17.3825
G01 X106.6080 Y17.4410
G01 X106.5380 Y17.4928
G01 X106.4633 Y17.5376
G01 X106.3846 Y17.5749
G01 X106.3026 Y17.6042
G01 X106.2229 Y17.6243
G01 X106.2133 Y17.6262
G01 X106.1320 Y17.6381
G01 X106.0450 Y17.6424
G01 X105.9629 Y17.6385
G01 X105.9531 Y17.6375
G01 X105.8719 Y17.6253
G01 X105.8049 Y17.6087
G01 X105.7910 Y17.6093
G01 X103.2456 Y17.6093
G01 X101.4806 Y19.3742
G01 X101.4425 Y19.4088
G01 X101.4349 Y19.4151
G01 X101.3914 Y19.4471
G01 X101.3452 Y19.4750
G01 X101.3365 Y19.4796
G01 X101.2877 Y19.5026
G01 X101.2369 Y19.5209
G01 X101.2298 Y19.5231
G01 X101.1751 Y19.5368
G01 X101.1217 Y19.5448
G01 X101.1119 Y19.5458
G01 X101.0580 Y19.5483
G01 X98.9212 Y19.5483
G01 X98.9091 Y19.5610
G01 X98.8499 Y19.6144
G01 X98.7820 Y19.6648
G01 X98.7094 Y19.7083
G01 X98.6374 Y19.7424
G01 X98.6284 Y19.7462
G01 X98.5533 Y19.7729
G01 X98.4760 Y19.7924
G01 X98.4664 Y19.7943
G01 X98.3924 Y19.8053
G01 X98.3827 Y19.8063
G01 X98.3031 Y19.8100
G01 X98.2235 Y19.8063
G01 X98.2161 Y19.8056
G01 X98.1349 Y19.7935
G01 X98.0529 Y19.7729
G01 X97.9732 Y19.7444
G01 X97.9011 Y19.7105
G01 X97.8925 Y19.7058
G01 X97.8283 Y19.6674
G01 X97.8202 Y19.6619
G01 X97.7562 Y19.6144
G01 X97.6936 Y19.5576
G01 X97.6367 Y19.4949
G01 X97.5892 Y19.4310
G01 X97.5837 Y19.4228
G01 X97.5453 Y19.3587
G01 X97.5407 Y19.3500
G01 X97.5067 Y19.2779
G01 X97.4782 Y19.1983
G01 X97.4576 Y19.1162
G01 X97.4458 Y19.0374
G00 Z2.0000
G00 X98.2722 Y19.8679
G01 F60.00
G01 Z0.0000
G01 F300.00
G01 X98.1500 Y19.8560
G01 X98.0301 Y19.8272
G01 X97.9155 Y19.7832
G01 X97.8078 Y19.7241
G01 X97.7083 Y19.6512
G01 X97.6201 Y19.5657
G01 X97.5440 Y19.4690
G01 X97.4811 Y19.3630
G01 X97.4331 Y19.2500
G01 X97.4010 Y19.1314
G01 X97.3845 Y19.0094
G01 X97.3845 Y18.8867
G01 X97.4010 Y18.7647
G01 X97.4331 Y18.6460
G01 X97.4811 Y18.5331
G01 X97.5440 Y18.4271
G01 X97.6201 Y18.3304
G01 X97.7083 Y18.2449
G01 X97.8078 Y18.1720
G01 X97.9155 Y18.1129
G01 X98.0301 Y18.0689
G01 X98.1500 Y18.0400
G01 X98.2724 Y18.0281
G01 X98.3953 Y18.0318
G01 X98.5164 Y18.0524
G01 X98.6338 Y18.0890
G01 X98.7457 Y18.1409
G01 X98.8492 Y18.2068
G01 X98.8955 Y18.2456
G01 X98.9035 Y18.2508
G01 X98.9387 Y18.2714
G01 X98.9451 Y18.2746
G01 X98.9518 Y18.2772
G01 X98.9632 Y18.2805
G01 X99.0049 Y18.2880
G01 X99.0149 Y18.2890
G01 X100.7013 Y18.2891
G01 X100.7109 Y18.2886
G01 X100.7205 Y18.2872
G01 X100.7620 Y18.2791
G01 X100.7741 Y18.2756
G01 X100.7857 Y18.2707
G01 X100.7944 Y18.2657
G01 X100.8315 Y18.2406
G01 X100.8371 Y18.2362
G01 X100.8442 Y18.2298
G01 X102.5461 Y16.5284
G01 X102.6251 Y16.4653
G01 X102.6927 Y16.4243
G01 X102.7077 Y16.4166
G01 X102.7827 Y16.3856
G01 X102.7990 Y16.3803
G01 X102.8780 Y16.3608
G01 X102.8950 Y16.3579
G01 X102.9752 Y16.3506
G01 X105.0727 Y16.3500
G01 X105.0800 Y16.3498
G01 X105.0872 Y16.3490
G01 X105.1221 Y16.3430
G01 X105.1295 Y16.3415
G01 X105.1368 Y16.3393
G01 X105.1439 Y16.3367
G01 X105.1507 Y16.3335
G01 X105.1860 Y16.3142
G01 X105.1939 Y16.3089
G01 X105.2013 Y16.3028
G01 X105.2292 Y16.2740
G01 X105.2373 Y16.2644
G01 X105.2944 Y16.1790
G01 X105.3762 Y16.0862
G01 X105.4691 Y16.0043
G01 X105.5719 Y15.9355
G01 X105.6829 Y15.8809
G01 X105.8002 Y15.8414
G01 X105.9216 Y15.8170
G01 X106.0450 Y15.8087
G01 X106.1684 Y15.8170
G01 X106.2898 Y15.8414
G01 X106.4071 Y15.8809
G01 X106.5181 Y15.9355
G01 X106.6209 Y16.0043
G01 X106.7138 Y16.0862
G01 X106.7957 Y16.1791
G01 X106.8645 Y16.2819
G01 X106.9191 Y16.3929
G01 X106.9586 Y16.5102
G01 X106.9830 Y16.6316
G01 X106.9913 Y16.7550
G01 X106.9830 Y16.8784
G01 X106.9586 Y16.9998
G01 X106.9191 Y17.1171
G01 X106.8645 Y17.2281
G01 X106.7957 Y17.3309
G01 X106.7138 Y17.4238
G01 X106.6209 Y17.5057
G01 X106.5181 Y17.5745
G01 X106.4071 Y17.6291
G01 X106.2898 Y17.6686
G01 X106.1684 Y17.6930
G01 X106.0450 Y17.7013
G01 X105.9215 Y17.6930
G01 X105.8138 Y17.6715
G01 X105.7870 Y17.6685
G01 X105.7768 Y17.6680
G01 X103.3536 Y17.6680
G01 X103.3440 Y17.6684
G01 X103.3369 Y17.6694
G01 X103.2880 Y17.6791
G01 X103.2761 Y17.6832
G01 X103.2693 Y17.6864
G01 X103.2627 Y17.6901
G01 X103.2235 Y17.7165
G01 X103.2160 Y17.7223
G01 X103.2108 Y17.7272
G01 X101.5088 Y19.4286
G01 X101.4298 Y19.4917
G01 X101.3622 Y19.5327
G01 X101.3472 Y19.5404
G01 X101.2722 Y19.5715
G01 X101.2560 Y19.5768
G01 X101.1769 Y19.5963
G01 X101.1599 Y19.5991
G01 X101.0798 Y19.6065
G01 X99.0198 Y19.6070
G01 X99.0100 Y19.6075
G01 X99.0027 Y19.6085
G01 X98.9605 Y19.6161
G01 X98.9488 Y19.6198
G01 X98.9376 Y19.6249
G01 X98.9029 Y19.6456
G01 X98.8952 Y19.6507
G01 X98.8492 Y19.6892
G01 X98.7457 Y19.7552
G01 X98.6338 Y19.8070
G01 X98.5166 Y19.8437
G01 X98.3953 Y19.8638
G01 X98.2722 Y19.8679
G00 Z2.0000
G00 X97.4458 Y24.1174
G01 F60.00
G01 Z0.0000
G01 F300.00
G01 X97.4449 Y24.1076
G01 X97.4411 Y24.0280
G01 X97.4452 Y23.9435
G01 X97.4576 Y23.8599
G01 X97.4782 Y23.7778
G01 X97.5067 Y23.6982
G01 X97.5429 Y23.6217
G01 X97.5864 Y23.5491
G01 X97.6367 Y23.4812
G01 X97.6936 Y23.4185
G01 X97.7562 Y23.3617
G01 X97.8242 Y23.3113
G01 X97.8967 Y23.2678
G01 X97.9732 Y23.2317
G01 X98.0529 Y23.2032
G01 X98.1349 Y23.1826
G01 X98.2137 Y23.1708
G01 X98.2210 Y23.1700
G01 X98.3031 Y23.1660
G01 X98.3827 Y23.1698
G01 X98.3924 Y23.1708
G01 X98.4712 Y23.1826
G01 X98.5486 Y23.2018
G01 X98.5580 Y23.2047
G01 X98.6284 Y23.2299
G01 X98.6374 Y23.2336
G01 X98.7094 Y23.2678
G01 X98.7820 Y23.3113
G01 X98.8499 Y23.3617
G01 X98.9091 Y23.4151
G01 X98.9212 Y23.4278
G01 X115.4094 Y23.4278
G01 X115.4290 Y23.3955
G01 X115.4839 Y23.3215
G01 X115.4886 Y23.3159
G01 X115.5524 Y23.2460
G01 X115.6188 Y23.1857
G01 X115.6264 Y23.1795
G01 X115.7005 Y23.1247
G01 X115.7816 Y23.0760
G01 X115.7881 Y23.0726
G01 X115.8715 Y23.0333
G01 X115.9582 Y23.0021
G01 X115.9676 Y22.9993
G01 X116.0570 Y22.9770
G01 X116.1481 Y22.9634
G01 X116.1579 Y22.9624
G01 X116.2499 Y22.9580
G01 X116.3469 Y22.9628
G01 X116.4429 Y22.9770
G01 X116.5370 Y23.0006
G01 X116.6284 Y23.0333
G01 X116.7162 Y23.0748
G01 X116.7994 Y23.1247
G01 X116.8774 Y23.1825
G01 X116.9493 Y23.2477
G01 X117.0145 Y23.3196
G01 X117.0723 Y23.3976
G01 X117.1222 Y23.4808
G01 X117.1637 Y23.5685
G01 X117.1964 Y23.6599
G01 X117.2199 Y23.7541
G01 X117.2342 Y23.8501
G01 X117.2389 Y23.9470
G01 X117.2342 Y24.0440
G01 X117.2199 Y24.1400
G01 X117.1964 Y24.2341
G01 X117.1637 Y24.3255
G01 X117.1222 Y24.4132
G01 X117.0723 Y24.4965
G01 X117.0145 Y24.5744
G01 X116.9493 Y24.6463
G01 X116.8774 Y24.7115
G01 X116.7994 Y24.7693
G01 X116.7162 Y24.8192
G01 X116.6284 Y24.8607
G01 X116.5370 Y24.8934
G01 X116.4429 Y24.9170
G01 X116.3469 Y24.9313
G01 X116.2500 Y24.9360
G01 X116.1530 Y24.9313
G01 X116.0570 Y24.9170
G01 X115.9629 Y24.8934
G01 X115.8761 Y24.8625
G01 X115.8692 Y24.8598
G01 X115.7837 Y24.8192
G01 X115.7046 Y24.7720
G01 X115.6985 Y24.7680
G01 X115.6264 Y24.7145
G01 X115.6207 Y24.7099
G01 X115.5524 Y24.6481
G01 X115.5341 Y24.6283
G01 X98.9212 Y24.6283
G01 X98.9091 Y24.6410
G01 X98.8499 Y24.6944
G01 X98.7820 Y24.7448
G01 X98.7094 Y24.7883
G01 X98.6330 Y24.8244
G01 X98.5533 Y24.8529
G01 X98.4712 Y24.8735
G01 X98.3876 Y24.8859
G01 X98.3080 Y24.8899
G01 X98.2982 Y24.8899
G01 X98.2186 Y24.8859
G01 X98.1349 Y24.8735
G01 X98.0529 Y24.8529
G01 X97.9778 Y24.8262
G01 X97.9687 Y24.8224
G01 X97.8967 Y24.7883
G01 X97.8283 Y24.7474
G01 X97.8202 Y24.7419
G01 X97.7601 Y24.6974
G01 X97.7525 Y24.6912
G01 X97.6936 Y24.6376
G01 X97.6367 Y24.5749
G01 X97.5864 Y24.5069
G01 X97.5429 Y24.4344
G01 X97.5067 Y24.3579
G01 X97.4782 Y24.2783
G01 X97.4576 Y24.1962
G01 X97.4458 Y24.1174
G00 Z2.0000
G00 X97.4458 Y26.6574
G01 F60.00
G01 Z0.0000
G01 F300.00
G01 X97.4449 Y26.6476
G01 X97.4411 Y26.5680
G01 X97.4452 Y26.4835
G01 X97.4576 Y26.3999
G01 X97.4782 Y26.3178
G01 X97.5067 Y26.2382
G01 X97.5429 Y26.1617
G01 X97.5864 Y26.0891
G01 X97.6367 Y26.0212
G01 X97.6936 Y25.9585
G01 X97.7562 Y25.9017
G01 X97.8242 Y25.8513
G01 X97.8967 Y25.8078
G01 X97.9732 Y25.7717
G01 X98.0529 Y25.7432
G01 X98.1349 Y25.7226
G01 X98.2137 Y25.7108
G01 X98.2210 Y25.7100
G01 X98.3031 Y25.7060
G01 X98.3827 Y25.7098
G01 X98.3924 Y25.7108
G01 X98.4712 Y25.7226
G01 X98.5486 Y25.7418
G01 X98.5580 Y25.7447
G01 X98.6284 Y25.7699
G01 X98.6374 Y25.7736
G01 X98.7094 Y25.8078
G01 X98.7820 Y25.8513
G01 X98.8499 Y25.9017
G01 X98.9091 Y25.9551
G01 X98.9212 Y25.9678
G01 X115.4094 Y25.9678
G01 X115.4290 Y25.9355
G01 X115.4839 Y25.8615
G01 X115.4886 Y25.8559
G01 X115.5524 Y25.7860
G01 X115.6188 Y25.7257
G01 X115.6264 Y25.7195
G01 X115.7005 Y25.6647
G01 X115.7816 Y25.6160
G01 X115.7881 Y25.6126
G01 X115.8715 Y25.5733
G01 X115.9582 Y25.5421
G01 X115.9676 Y25.5393
G01 X116.0570 Y25.5170
G01 X116.1481 Y25.5034
G01 X116.1579 Y25.5024
G01 X116.2499 Y25.4980
G01 X116.3469 Y25.5028
G01 X116.4429 Y25.5170
G01 X116.5370 Y25.5406
G01 X116.6284 Y25.5733
G01 X116.7162 Y25.6148
G01 X116.7994 Y25.6647
G01 X116.8774 Y25.7225
G01 X116.9493 Y25.7877
G01 X117.0145 Y25.8596
G01 X117.0723 Y25.9376
G01 X117.1222 Y26.0208
G01 X117.1637 Y26.1085
G01 X117.1964 Y26.1999
G01 X117.2199 Y26.2941
G01 X117.2342 Y26.3901
G01 X117.2389 Y26.4870
G01 X117.2342 Y26.5840
G01 X117.2199 Y26.6800
G01 X117.1964 Y26.7741
G01 X117.1637 Y26.8655
G01 X117.1222 Y26.9532
G01 X117.0723 Y27.0365
G01 X117.0145 Y27.1144
G01 X116.9493 Y27.1863
G01 X116.8774 Y27.2515
G01 X116.7994 Y27.3093
G01 X116.7162 Y27.3592
G01 X116.6284 Y27.4007
G01 X116.5370 Y27.4334
G01 X116.4429 Y27.4570
G01 X116.3469 Y27.4713
G01 X116.2499 Y27.4760
G01 X116.1530 Y27.4713
G01 X116.0570 Y27.4570
G01 X115.9629 Y27.4334
G01 X115.8761 Y27.4025
G01 X115.8692 Y27.3998
G01 X115.7837 Y27.3592
G01 X115.7046 Y27.3120
G01 X115.6985 Y27.3080
G01 X115.6264 Y27.2545
G01 X115.6207 Y27.2499
G01 X115.5524 Y27.1881
G01 X115.5341 Y27.1683
G01 X98.9212 Y27.1683
G01 X98.9091 Y27.1810
G01 X98.8499 Y27.2344
G01 X98.7820 Y27.2848
G01 X98.7094 Y27.3283
G01 X98.6330 Y27.3644
G01 X98.5533 Y27.3929
G01 X98.4712 Y27.4135
G01 X98.3876 Y27.4259
G01 X98.3080 Y27.4299
G01 X98.2982 Y27.4299
G01 X98.2186 Y27.4259
G01 X98.1349 Y27.4135
G01 X98.0529 Y27.3929
G01 X97.9778 Y27.3662
G01 X97.9687 Y27.3624
G01 X97.8967 Y27.3283
G01 X97.8283 Y27.2874
G01 X97.8202 Y27.2819
G01 X97.7601 Y27.2374
G01 X97.7525 Y27.2312
G01 X97.6936 Y27.1776
G01 X97.6367 Y27.1149
G01 X97.5864 Y27.0469
G01 X97.5429 Y26.9744
G01 X97.5067 Y26.8979
G01 X97.4782 Y26.8183
G01 X97.4576 Y26.7362
G01 X97.4458 Y26.6574
G00 Z2.0000
G00 X97.4458 Y29.1974
G01 F60.00
G01 Z0.0000
G01 F300.00
G01 X97.4449 Y29.1876
G01 X97.4411 Y29.1080
G01 X97.4452 Y29.0235
G01 X97.4576 Y28.9399
G01 X97.4782 Y28.8578
G01 X97.5067 Y28.7782
G01 X97.5429 Y28.7017
G01 X97.5864 Y28.6291
G01 X97.6367 Y28.5612
G01 X97.6936 Y28.4985
G01 X97.7562 Y28.4417
G01 X97.8242 Y28.3913
G01 X97.8967 Y28.3478
G01 X97.9732 Y28.3117
G01 X98.0529 Y28.2832
G01 X98.1349 Y28.2626
G01 X98.2137 Y28.2508
G01 X98.2210 Y28.2500
G01 X98.3031 Y28.2460
G01 X98.3827 Y28.2498
G01 X98.3924 Y28.2508
G01 X98.4712 Y28.2626
G01 X98.5486 Y28.2818
G01 X98.5580 Y28.2847
G01 X98.6284 Y28.3099
G01 X98.6374 Y28.3136
G01 X98.7094 Y28.3478
G01 X98.7820 Y28.3913
G01 X98.8499 Y28.4417
G01 X98.9091 Y28.4951
G01 X98.9212 Y28.5078
G01 X115.4094 Y28.5078
G01 X115.4290 Y28.4755
G01 X115.4839 Y28.4015
G01 X115.4886 Y28.3959
G01 X115.5524 Y28.3260
G01 X115.6188 Y28.2657
G01 X115.6264 Y28.2595
G01 X115.7005 Y28.2047
G01 X115.7816 Y28.1560
G01 X115.7881 Y28.1526
G01 X115.8715 Y28.1133
G01 X115.9582 Y28.0821
G01 X115.9676 Y28.0793
G01 X116.0570 Y28.0570
G01 X116.1481 Y28.0434
G01 X116.1579 Y28.0424
G01 X116.2499 Y28.0380
G01 X116.3469 Y28.0428
G01 X116.4429 Y28.0570
G01 X116.5370 Y28.0806
G01 X116.6284 Y28.1133
G01 X116.7162 Y28.1548
G01 X116.7994 Y28.2047
G01 X116.8774 Y28.2625
G01 X116.9493 Y28.3277
G01 X117.0145 Y28.3996
G01 X117.0723 Y28.4776
G01 X117.1222 Y28.5608
G01 X117.1637 Y28.6485
G01 X117.1964 Y28.7399
G01 X117.2199 Y28.8341
G01 X117.2342 Y28.9301
G01 X117.2389 Y29.0270
G01 X117.2342 Y29.1240
G01 X117.2199 Y29.2200
G01 X117.1964 Y29.3141
G01 X117.1637 Y29.4055
G01 X117.1222 Y29.4932
G01 X117.0723 Y29.5765
G01 X117.0145 Y29.6544
G01 X116.9493 Y29.7263
G01 X116.8774 Y29.7915
G01 X116.7994 Y29.8493
G01 X116.7162 Y29.8992
G01 X116.6284 Y29.9407
G01 X116.5370 Y29.9734
G01 X116.4429 Y29.9970
G01 X116.3469 Y30.0113
G01 X116.2499 Y30.0160
G01 X116.1530 Y30.0113
G01 X116.0570 Y29.9970
G01 X115.9629 Y29.9734
G01 X115.8761 Y29.9425
G01 X115.8692 Y29.9398
G01 X115.7837 Y29.8992
G01 X115.7046 Y29.8520
G01 X115.6985 Y29.8480
G01 X115.6264 Y29.7945
G01 X115.6207 Y29.7899
G01 X115.5524 Y29.7281
G01 X115.5341 Y29.7083
G01 X98.9212 Y29.7083
G01 X98.9091 Y29.7210
G01 X98.8499 Y29.7744
G01 X98.7820 Y29.8248
G01 X98.7094 Y29.8683
G01 X98.6330 Y29.9044
G01 X98.5533 Y29.9329
G01 X98.4712 Y29.9535
G01 X98.3876 Y29.9659
G01 X98.3080 Y29.9699
G01 X98.2982 Y29.9699
G01 X98.2186 Y29.9659
G01 X98.1349 Y29.9535
G01 X98.0529 Y29.9329
G01 X97.9778 Y29.9062
G01 X97.9687 Y29.9024
G01 X97.8967 Y29.8683
G01 X97.8283 Y29.8274
G01 X97.8202 Y29.8219
G01 X97.7601 Y29.7774
G01 X97.7525 Y29.7712
G01 X97.6936 Y29.7176
G01 X97.6367 Y29.6549
G01 X97.5864 Y29.5869
G01 X97.5429 Y29.5144
G01 X97.5067 Y29.4379
G01 X97.4782 Y29.3583
G01 X97.4576 Y29.2762
G01 X97.4458 Y29.1974
G00 Z2.0000
G00 X97.4458 Y31.7374
G01 F60.00
G01 Z0.0000
G01 F300.00
G01 X97.4449 Y31.7276
G01 X97.4411 Y31.6480
G01 X97.4452 Y31.5635
G01 X97.4576 Y31.4799
G01 X97.4782 Y31.3978
G01 X97.5067 Y31.3182
G01 X97.5429 Y31.2417
G01 X97.5864 Y31.1691
G01 X97.6367 Y31.1012
G01 X97.6936 Y31.0385
G01 X97.7562 Y30.9817
G01 X97.8242 Y30.9313
G01 X97.8967 Y30.8878
G01 X97.9732 Y30.8517
G01 X98.0529 Y30.8232
G01 X98.1349 Y30.8026
G01 X98.2137 Y30.7908
G01 X98.2210 Y30.7900
G01 X98.3031 Y30.7860
G01 X98.3827 Y30.7898
G01 X98.3924 Y30.7908
G01 X98.4712 Y30.8026
G01 X98.5486 Y30.8218
G01 X98.5580 Y30.8247
G01 X98.6284 Y30.8499
G01 X98.6374 Y30.8536
G01 X98.7094 Y30.8878
G01 X98.7820 Y30.9313
G01 X98.8499 Y30.9817
G01 X98.9091 Y31.0351
G01 X98.9212 Y31.0478
G01 X115.4094 Y31.0478
G01 X115.4290 Y31.0155
G01 X115.4839 Y30.9415
G01 X115.4886 Y30.9359
G01 X115.5524 Y30.8660
G01 X115.6188 Y30.8057
G01 X115.6264 Y30.7995
G01 X115.7005 Y30.7447
G01 X115.7816 Y30.6960
G01 X115.7881 Y30.6926
G01 X115.8715 Y30.6533
G01 X115.9582 Y30.6221
G01 X115.9676 Y30.6193
G01 X116.0570 Y30.5970
G01 X116.1481 Y30.5834
G01 X116.1579 Y30.5824
G01 X116.2499 Y30.5780
G01 X116.3469 Y30.5828
G01 X116.4429 Y30.5970
G01 X116.5370 Y30.6206
G01 X116.6284 Y30.6533
G01 X116.7162 Y30.6948
G01 X116.7994 Y30.7447
G01 X116.8774 Y30.8025
G01 X116.9493 Y30.8677
G01 X117.0145 Y30.9396
G01 X117.0723 Y31.0176
G01 X117.1222 Y31.1008
G01 X117.1637 Y31.1885
G01 X117.1964 Y31.2799
G01 X117.2199 Y31.3741
G01 X117.2342 Y31.4701
G01 X117.2389 Y31.5670
G01 X117.2342 Y31.6640
G01 X117.2199 Y31.7600
G01 X117.1964 Y31.8541
G01 X117.1637 Y31.9455
G01 X117.1222 Y32.0332
G01 X117.0723 Y32.1165
G01 X117.0145 Y32.1944
G01 X116.9493 Y32.2663
G01 X116.8774 Y32.3315
G01 X116.7994 Y32.3893
G01 X116.7162 Y32.4392
G01 X116.6284 Y32.4807
G01 X116.5370 Y32.5134
G01 X116.4429 Y32.5370
G01 X116.3469 Y32.5513
G01 X116.2500 Y32.5560
G01 X116.1530 Y32.5513
G01 X116.0570 Y32.5370
G01 X115.9629 Y32.5134
G01 X115.8761 Y32.4825
G01 X115.8692 Y32.4798
G01 X115.7837 Y32.4392
G01 X115.7046 Y32.3920
G01 X115.6985 Y32.3880
G01 X115.6264 Y32.3345
G01 X115.6207 Y32.3299
G01 X115.5524 Y32.2681
G01 X115.5341 Y32.2483
G01 X98.9212 Y32.2483
G01 X98.9091 Y32.2610
G01 X98.8499 Y32.3144
G01 X98.7820 Y32.3648
G01 X98.7094 Y32.4083
G01 X98.6330 Y32.4444
G01 X98.5533 Y32.4729
G01 X98.4712 Y32.4935
G01 X98.3876 Y32.5059
G01 X98.3080 Y32.5099
G01 X98.2982 Y32.5099
G01 X98.2186 Y32.5059
G01 X98.1349 Y32.4935
G01 X98.0529 Y32.4729
G01 X97.9778 Y32.4462
G01 X97.9687 Y32.4424
G01 X97.8967 Y32.4083
G01 X97.8283 Y32.3674
G01 X97.8202 Y32.3619
G01 X97.7601 Y32.3174
G01 X97.7525 Y32.3112
G01 X97.6936 Y32.2576
G01 X97.6367 Y32.1949
G01 X97.5864 Y32.1269
G01 X97.5429 Y32.0544
G01 X97.5067 Y31.9779
G01 X97.4782 Y31.8983
G01 X97.4576 Y31.8162
G01 X97.4458 Y31.7374
G00 Z2.0000
G00 X97.4458 Y34.2774
G01 F60.00
G01 Z0.0000
G01 F300.00
G01 X97.4449 Y34.2676
G01 X97.4411 Y34.1880
G01 X97.4452 Y34.1035
G01 X97.4576 Y34.0199
G01 X97.4782 Y33.9378
G01 X97.5067 Y33.8582
G01 X97.5429 Y33.7817
G01 X97.5864 Y33.7091
G01 X97.6367 Y33.6412
G01 X97.6936 Y33.5785
G01 X97.7562 Y33.5217
G01 X97.8242 Y33.4713
G01 X97.8967 Y33.4278
G01 X97.9732 Y33.3917
G01 X98.0529 Y33.3632
G01 X98.1349 Y33.3426
G01 X98.2137 Y33.3308
G01 X98.2210 Y33.3300
G01 X98.3031 Y33.3260
G01 X98.3827 Y33.3298
G01 X98.3924 Y33.3308
G01 X98.4712 Y33.3426
G01 X98.5486 Y33.3618
G01 X98.5580 Y33.3647
G01 X98.6284 Y33.3899
G01 X98.6374 Y33.3936
G01 X98.7094 Y33.4278
G01 X98.7820 Y33.4713
G01 X98.8499 Y33.5217
G01 X98.9091 Y33.5751
G01 X98.9212 Y33.5878
G01 X115.4094 Y33.5878
G01 X115.4290 Y33.5555
G01 X115.4839 Y33.4815
G01 X115.4886 Y33.4759
G01 X115.5524 Y33.4060
G01 X115.6188 Y33.3457
G01 X115.6264 Y33.3395
G01 X115.7005 Y33.2847
G01 X115.7816 Y33.2360
G01 X115.7881 Y33.2326
G01 X115.8715 Y33.1933
G01 X115.9582 Y33.1621
G01 X115.9676 Y33.1593
G01 X116.0570 Y33.1370
G01 X116.1481 Y33.1234
G01 X116.1579 Y33.1224
G01 X116.2499 Y33.1180
G01 X116.3469 Y33.1228
G01 X116.4429 Y33.1370
G01 X116.5370 Y33.1606
G01 X116.6284 Y33.1933
G01 X116.7162 Y33.2348
G01 X116.7994 Y33.2847
G01 X116.8774 Y33.3425
G01 X116.9493 Y33.4077
G01 X117.0145 Y33.4796
G01 X117.0723 Y33.5576
G01 X117.1222 Y33.6408
G01 X117.1637 Y33.7285
G01 X117.1964 Y33.8199
G01 X117.2199 Y33.9141
G01 X117.2342 Y34.0101
G01 X117.2389 Y34.1070
G01 X117.2342 Y34.2040
G01 X117.2199 Y34.3000
G01 X117.1964 Y34.3941
G01 X117.1637 Y34.4855
G01 X117.1222 Y34.5732
G01 X117.0723 Y34.6565
G01 X117.0145 Y34.7344
G01 X116.9493 Y34.8063
G01 X116.8774 Y34.8715
G01 X116.7994 Y34.9293
G01 X116.7162 Y34.9792
G01 X116.6284 Y35.0207
G01 X116.5370 Y35.0534
G01 X116.4429 Y35.0770
G01 X116.3469 Y35.0913
G01 X116.2500 Y35.0960
G01 X116.1530 Y35.0913
G01 X116.0570 Y35.0770
G01 X115.9629 Y35.0534
G01 X115.8761 Y35.0225
G01 X115.8692 Y35.0198
G01 X115.7837 Y34.9792
G01 X115.7046 Y34.9320
G01 X115.6985 Y34.9280
G01 X115.6264 Y34.8745
G01 X115.6207 Y34.8699
G01 X115.5524 Y34.8081
G01 X115.5341 Y34.7883
G01 X98.9212 Y34.7883
G01 X98.9091 Y34.8010
G01 X98.8499 Y34.8544
G01 X98.7820 Y34.9048
G01 X98.7094 Y34.9483
G01 X98.6330 Y34.9844
G01 X98.5533 Y35.0129
G01 X98.4712 Y35.0335
G01 X98.3876 Y35.0459
G01 X98.3080 Y35.0499
G01 X98.2982 Y35.0499
G01 X98.2186 Y35.0459
G01 X98.1349 Y35.0335
G01 X98.0529 Y35.0129
G01 X97.9778 Y34.9862
G01 X97.9687 Y34.9824
G01 X97.8967 Y34.9483
G01 X97.8283 Y34.9074
G01 X97.8202 Y34.9019
G01 X97.7601 Y34.8574
G01 X97.7525 Y34.8512
G01 X97.6936 Y34.7976
G01 X97.6367 Y34.7349
G01 X97.5864 Y34.6669
G01 X97.5429 Y34.5944
G01 X97.5067 Y34.5179
G01 X97.4782 Y34.4383
G01 X97.4576 Y34.3562
G01 X97.4458 Y34.2774
G00 Z2.0000
G00 X97.4458 Y36.8174
G01 F60.00
G01 Z0.0000
G01 F300.00
G01 X97.4449 Y36.8076
G01 X97.4411 Y36.7280
G01 X97.4452 Y36.6435
G01 X97.4576 Y36.5599
G01 X97.4782 Y36.4778
G01 X97.5067 Y36.3982
G01 X97.5429 Y36.3217
G01 X97.5864 Y36.2491
G01 X97.6367 Y36.1812
G01 X97.6936 Y36.1185
G01 X97.7562 Y36.0617
G01 X97.8242 Y36.0113
G01 X97.8967 Y35.9678
G01 X97.9732 Y35.9317
G01 X98.0529 Y35.9032
G01 X98.1349 Y35.8826
G01 X98.2137 Y35.8708
G01 X98.2210 Y35.8700
G01 X98.3031 Y35.8660
G01 X98.3827 Y35.8698
G01 X98.3924 Y35.8708
G01 X98.4712 Y35.8826
G01 X98.5486 Y35.9018
G01 X98.5580 Y35.9047
G01 X98.6284 Y35.9299
G01 X98.6374 Y35.9336
G01 X98.7094 Y35.9678
G01 X98.7820 Y36.0113
G01 X98.8499 Y36.0617
G01 X98.9091 Y36.1151
G01 X98.9212 Y36.1278
G01 X115.4094 Y36.1278
G01 X115.4290 Y36.0955
G01 X115.4839 Y36.0215
G01 X115.4886 Y36.0159
G01 X115.5524 Y35.9460
G01 X115.6188 Y35.8857
G01 X115.6264 Y35.8795
G01 X115.7005 Y35.8247
G01 X115.7816 Y35.7760
G01 X115.7881 Y35.7726
G01 X115.8715 Y35.7333
G01 X115.9582 Y35.7021
G01 X115.9676 Y35.6993
G01 X116.0570 Y35.6770
G01 X116.1481 Y35.6634
G01 X116.1579 Y35.6624
G01 X116.2499 Y35.6580
G01 X116.3469 Y35.6628
G01 X116.4429 Y35.6770
G01 X116.5370 Y35.7006
G01 X116.6284 Y35.7333
G01 X116.7162 Y35.7748
G01 X116.7994 Y35.8247
G01 X116.8774 Y35.8825
G01 X116.9493 Y35.9477
G01 X117.0145 Y36.0196
G01 X117.0723 Y36.0976
G01 X117.1222 Y36.1808
G01 X117.1637 Y36.2685
G01 X117.1964 Y36.3599
G01 X117.2199 Y36.4541
G01 X117.2342 Y36.5501
G01 X117.2389 Y36.6470
G01 X117.2342 Y36.7440
G01 X117.2199 Y36.8400
G01 X117.1964 Y36.9341
G01 X117.1637 Y37.0255
G01 X117.1222 Y37.1132
G01 X117.0723 Y37.1965
G01 X117.0145 Y37.2744
G01 X116.9493 Y37.3463
G01 X116.8774 Y37.4115
G01 X116.7994 Y37.4693
G01 X116.7162 Y37.5192
G01 X116.6284 Y37.5607
G01 X116.5370 Y37.5934
G01 X116.4429 Y37.6170
G01 X116.3469 Y37.6313
G01 X116.2500 Y37.6360
G01 X116.1530 Y37.6313
G01 X116.0570 Y37.6170
G01 X115.9629 Y37.5934
G01 X115.8761 Y37.5625
G01 X115.8692 Y37.5598
G01 X115.7837 Y37.5192
G01 X115.7046 Y37.4720
G01 X115.6985 Y37.4680
G01 X115.6264 Y37.4145
G01 X115.6207 Y37.4099
G01 X115.5524 Y37.3481
G01 X115.5341 Y37.3283
G01 X98.9212 Y37.3283
G01 X98.9091 Y37.3410
G01 X98.8499 Y37.3944
G01 X98.7820 Y37.4448
G01 X98.7094 Y37.4883
G01 X98.6330 Y37.5244
G01 X98.5533 Y37.5529
G01 X98.4712 Y37.5735
G01 X98.3876 Y37.5859
G01 X98.3080 Y37.5899
G01 X98.2982 Y37.5899
G01 X98.2186 Y37.5859
G01 X98.1349 Y37.5735
G01 X98.0529 Y37.5529
G01 X97.9778 Y37.5262
G01 X97.9687 Y37.5224
G01 X97.8967 Y37.4883
G01 X97.8283 Y37.4474
G01 X97.8202 Y37.4419
G01 X97.7601 Y37.3974
G01 X97.7525 Y37.3912
G01 X97.6936 Y37.3376
G01 X97.6367 Y37.2749
G01 X97.5864 Y37.2069
G01 X97.5429 Y37.1344
G01 X97.5067 Y37.0579
G01 X97.4782 Y36.9783
G01 X97.4576 Y36.8962
G01 X97.4458 Y36.8174
G00 Z2.0000
G00 X97.4458 Y39.3574
G01 F60.00
G01 Z0.0000
G01 F300.00
G01 X97.4449 Y39.3476
G01 X97.4411 Y39.2680
G01 X97.4452 Y39.1835
G01 X97.4576 Y39.0999
G01 X97.4782 Y39.0178
G01 X97.5067 Y38.9382
G01 X97.5429 Y38.8617
G01 X97.5864 Y38.7891
G01 X97.6367 Y38.7212
G01 X97.6936 Y38.6585
G01 X97.7562 Y38.6017
G01 X97.8242 Y38.5513
G01 X97.8967 Y38.5078
G01 X97.9732 Y38.4717
G01 X98.0529 Y38.4432
G01 X98.1349 Y38.4226
G01 X98.2137 Y38.4108
G01 X98.2210 Y38.4100
G01 X98.3031 Y38.4060
G01 X98.3827 Y38.4098
G01 X98.3924 Y38.4108
G01 X98.4712 Y38.4226
G01 X98.5486 Y38.4418
G01 X98.5580 Y38.4447
G01 X98.6284 Y38.4699
G01 X98.6374 Y38.4736
G01 X98.7094 Y38.5078
G01 X98.7820 Y38.5513
G01 X98.8499 Y38.6017
G01 X98.9091 Y38.6551
G01 X98.9212 Y38.6678
G01 X115.4094 Y38.6678
G01 X115.4290 Y38.6355
G01 X115.4839 Y38.5615
G01 X115.4886 Y38.5559
G01 X115.5524 Y38.4860
G01 X115.6188 Y38.4257
G01 X115.6264 Y38.4195
G01 X115.7005 Y38.3647
G01 X115.7816 Y38.3160
G01 X115.7881 Y38.3126
G01 X115.8715 Y38.2733
G01 X115.9582 Y38.2421
G01 X115.9676 Y38.2393
G01 X116.0570 Y38.2170
G01 X116.1481 Y38.2034
G01 X116.1579 Y38.2024
G01 X116.2499 Y38.1980
G01 X116.3469 Y38.2028
G01 X116.4429 Y38.2170
G01 X116.5370 Y38.2406
G01 X116.6284 Y38.2733
G01 X116.7162 Y38.3148
G01 X116.7994 Y38.3647
G01 X116.8774 Y38.4225
G01 X116.9493 Y38.4877
G01 X117.0145 Y38.5596
G01 X117.0723 Y38.6376
G01 X117.1222 Y38.7208
G01 X117.1637 Y38.8085
G01 X117.1964 Y38.8999
G01 X117.2199 Y38.9941
G01 X117.2342 Y39.0901
G01 X117.2389 Y39.1870
G01 X117.2342 Y39.2840
G01 X117.2199 Y39.3800
G01 X117.1964 Y39.4741
G01 X117.1637 Y39.5655
G01 X117.1222 Y39.6532
G01 X117.0723 Y39.7365
G01 X117.0145 Y39.8144
G01 X116.9493 Y39.8863
G01 X116.8774 Y39.9515
G01 X116.7994 Y40.0093
G01 X116.7162 Y40.0592
G01 X116.6284 Y40.1007
G01 X116.5370 Y40.1334
G01 X116.4429 Y40.1570
G01 X116.3469 Y40.1713
G01 X116.2499 Y40.1760
G01 X116.1530 Y40.1713
G01 X116.0570 Y40.1570
G01 X115.9629 Y40.1334
G01 X115.8761 Y40.1025
G01 X115.8692 Y40.0998
G01 X115.7837 Y40.0592
G01 X115.7046 Y40.0120
G01 X115.6985 Y40.0080
G01 X115.6264 Y39.9545
G01 X115.6207 Y39.9499
G01 X115.5524 Y39.8881
G01 X115.5341 Y39.8683
G01 X98.9212 Y39.8683
G01 X98.9091 Y39.8810
G01 X98.8499 Y39.9344
G01 X98.7820 Y39.9848
G01 X98.7094 Y40.0283
G01 X98.6330 Y40.0644
G01 X98.5533 Y40.0929
G01 X98.4712 Y40.1135
G01 X98.3876 Y40.1259
G01 X98.3080 Y40.1299
G01 X98.2982 Y40.1299
G01 X98.2186 Y40.1259
G01 X98.1349 Y40.1135
G01 X98.0529 Y40.0929
G01 X97.9778 Y40.0662
G01 X97.9687 Y40.0624
G01 X97.8967 Y40.0283
G01 X97.8283 Y39.9874
G01 X97.8202 Y39.9819
G01 X97.7601 Y39.9374
G01 X97.7525 Y39.9312
G01 X97.6936 Y39.8776
G01 X97.6367 Y39.8149
G01 X97.5864 Y39.7469
G01 X97.5429 Y39.6744
G01 X97.5067 Y39.5979
G01 X97.4782 Y39.5183
G01 X97.4576 Y39.4362
G01 X97.4458 Y39.3574
G00 Z2.0000
G00 X98.2722 Y42.7279
G01 F60.00
G01 Z0.0000
G01 F300.00
G01 X98.1500 Y42.7160
G01 X98.0301 Y42.6872
G01 X97.9155 Y42.6432
G01 X97.8078 Y42.5841
G01 X97.7090 Y42.5117
G01 X97.6863 Y42.4890
G01 X97.6771 Y42.4813
G01 X97.6344 Y42.4538
G01 X97.6278 Y42.4503
G01 X97.6210 Y42.4474
G01 X97.6092 Y42.4436
G01 X97.5638 Y42.4344
G01 X97.5516 Y42.4331
G01 X91.7992 Y42.4325
G01 X91.7190 Y42.4251
G01 X91.7020 Y42.4223
G01 X91.6230 Y42.4027
G01 X91.6067 Y42.3974
G01 X91.5317 Y42.3664
G01 X91.5167 Y42.3587
G01 X91.4491 Y42.3177
G01 X91.3701 Y42.2546
G01 X89.1814 Y40.0659
G01 X89.1183 Y39.9869
G01 X89.0773 Y39.9193
G01 X89.0696 Y39.9043
G01 X89.0386 Y39.8293
G01 X89.0333 Y39.8130
G01 X89.0137 Y39.7340
G01 X89.0109 Y39.7170
G01 X89.0035 Y39.6368
G01 X89.0035 Y-25.0498
G01 X89.0109 Y-25.1300
G01 X89.0137 Y-25.1470
G01 X89.0333 Y-25.2260
G01 X89.0386 Y-25.2423
G01 X89.0696 Y-25.3173
G01 X89.0773 Y-25.3323
G01 X89.1183 Y-25.3999
G01 X89.1814 Y-25.4789
G01 X94.2778 Y-30.5758
G01 X94.2842 Y-30.5828
G01 X94.2885 Y-30.5885
G01 X94.3122 Y-30.6234
G01 X94.3162 Y-30.6299
G01 X94.3197 Y-30.6365
G01 X94.3227 Y-30.6435
G01 X94.3259 Y-30.6530
G01 X94.3356 Y-30.7019
G01 X94.3366 Y-30.7090
G01 X94.3370 Y-30.7162
G01 X94.3370 Y-30.8730
G01 X94.3367 Y-30.8808
G01 X94.3354 Y-30.8910
G01 X94.3257 Y-30.9372
G01 X94.3230 Y-30.9467
G01 X94.3203 Y-30.9537
G01 X94.3159 Y-30.9627
G01 X94.3106 Y-30.9712
G01 X94.2828 Y-31.0092
G01 X94.2782 Y-31.0148
G01 X94.2731 Y-31.0200
G01 X94.2677 Y-31.0249
G01 X94.2620 Y-31.0293
G01 X94.2539 Y-31.0346
G01 X94.2173 Y-31.0559
G01 X94.2083 Y-31.0606
G01 X94.1988 Y-31.0644
G01 X94.1387 Y-31.0845
G01 X94.1101 Y-31.1023
G01 X94.0852 Y-31.1272
G01 X94.0666 Y-31.1569
G01 X94.0547 Y-31.1907
G01 X94.0495 Y-31.2368
G01 X94.0495 Y-32.7892
G01 X94.0547 Y-32.8353
G01 X94.0666 Y-32.8690
G01 X94.0852 Y-32.8988
G01 X94.1102 Y-32.9238
G01 X94.1399 Y-32.9424
G01 X94.1737 Y-32.9543
G01 X94.2198 Y-32.9595
G01 X95.7722 Y-32.9595
G01 X95.8183 Y-32.9543
G01 X95.8520 Y-32.9424
G01 X95.8818 Y-32.9238
G01 X95.9068 Y-32.8988
G01 X95.9254 Y-32.8690
G01 X95.9373 Y-32.8353
G01 X95.9425 Y-32.7892
G01 X95.9425 Y-31.2368
G01 X95.9373 Y-31.1907
G01 X95.9254 Y-31.1569
G01 X95.9068 Y-31.1272
G01 X95.8819 Y-31.1023
G01 X95.8533 Y-31.0845
G01 X95.7932 Y-31.0644
G01 X95.7814 Y-31.0595
G01 X95.7381 Y-31.0346
G01 X95.7300 Y-31.0293
G01 X95.7206 Y-31.0217
G01 X95.7123 Y-31.0130
G01 X95.6829 Y-30.9732
G01 X95.6774 Y-30.9649
G01 X95.6738 Y-30.9583
G01 X95.6708 Y-30.9514
G01 X95.6682 Y-30.9444
G01 X95.6657 Y-30.9347
G01 X95.6566 Y-30.8910
G01 X95.6555 Y-30.8834
G01 X95.6550 Y-30.8757
G01 X95.6544 Y-30.3402
G01 X95.6471 Y-30.2600
G01 X95.6442 Y-30.2430
G01 X95.6247 Y-30.1640
G01 X95.6194 Y-30.1477
G01 X95.5884 Y-30.0727
G01 X95.5807 Y-30.0577
G01 X95.5397 Y-29.9901
G01 X95.4766 Y-29.9111
G01 X90.3785 Y-24.8125
G01 X90.3738 Y-24.8072
G01 X90.3695 Y-24.8015
G01 X90.3458 Y-24.7666
G01 X90.3405 Y-24.7579
G01 X90.3362 Y-24.7489
G01 X90.3336 Y-24.7418
G01 X90.3309 Y-24.7321
G01 X90.3224 Y-24.6881
G01 X90.3211 Y-24.6762
G01 X90.3211 Y39.2632
G01 X90.3224 Y39.2751
G01 X90.3309 Y39.3191
G01 X90.3336 Y39.3288
G01 X90.3362 Y39.3359
G01 X90.3405 Y39.3449
G01 X90.3458 Y39.3536
G01 X90.3695 Y39.3885
G01 X90.3738 Y39.3942
G01 X90.3785 Y39.3995
G01 X92.0348 Y41.0558
G01 X92.0400 Y41.0607
G01 X92.0475 Y41.0665
G01 X92.0889 Y41.0942
G01 X92.0955 Y41.0977
G01 X92.1048 Y41.1016
G01 X92.1120 Y41.1039
G01 X92.1194 Y41.1056
G01 X92.1609 Y41.1136
G01 X92.1704 Y41.1148
G01 X92.1776 Y41.1150
G01 X97.6312 Y41.1150
G01 X97.6426 Y41.1141
G01 X97.6812 Y41.1078
G01 X97.6930 Y41.1045
G01 X97.7043 Y41.0999
G01 X97.7349 Y41.0840
G01 X97.7438 Y41.0788
G01 X97.8078 Y41.0320
G01 X97.9155 Y40.9729
G01 X98.0301 Y40.9289
G01 X98.1500 Y40.9000
G01 X98.2724 Y40.8881
G01 X98.3953 Y40.8918
G01 X98.5164 Y40.9124
G01 X98.6338 Y40.9490
G01 X98.7457 Y41.0009
G01 X98.8492 Y41.0668
G01 X98.9430 Y41.1460
G01 X99.0255 Y41.2376
G01 X99.0952 Y41.3390
G01 X99.1506 Y41.4484
G01 X99.1909 Y41.5647
G01 X99.2152 Y41.6852
G01 X99.2234 Y41.8080
G01 X99.2152 Y41.9309
G01 X99.1909 Y42.0514
G01 X99.1506 Y42.1672
G01 X99.0952 Y42.2772
G01 X99.0256 Y42.3784
G01 X98.9430 Y42.4696
G01 X98.8491 Y42.5493
G01 X98.7457 Y42.6152
G01 X98.6338 Y42.6670
G01 X98.5166 Y42.7037
G01 X98.3953 Y42.7238
G01 X98.2722 Y42.7279
G00 Z2.0000
G00 X98.2722 Y45.2679
G01 F60.00
G01 Z0.0000
G01 F300.00
G01 X98.1500 Y45.2560
G01 X98.0301 Y45.2272
G01 X97.9155 Y45.1832
G01 X97.8078 Y45.1241
G01 X97.7090 Y45.0517
G01 X97.6863 Y45.0290
G01 X97.6771 Y45.0213
G01 X97.6344 Y44.9938
G01 X97.6278 Y44.9903
G01 X97.6210 Y44.9874
G01 X97.6092 Y44.9836
G01 X97.5638 Y44.9744
G01 X97.5565 Y44.9734
G01 X97.5491 Y44.9730
G01 X89.1322 Y44.9725
G01 X89.0520 Y44.9651
G01 X89.0350 Y44.9623
G01 X88.9560 Y44.9427
G01 X88.9397 Y44.9374
G01 X88.8647 Y44.9064
G01 X88.8497 Y44.8987
G01 X88.7821 Y44.8577
G01 X88.7031 Y44.7946
G01 X86.3874 Y42.4789
G01 X86.3243 Y42.3999
G01 X86.2833 Y42.3323
G01 X86.2756 Y42.3173
G01 X86.2446 Y42.2423
G01 X86.2393 Y42.2260
G01 X86.2197 Y42.1470
G01 X86.2169 Y42.1300
G01 X86.2095 Y42.0498
G01 X86.2090 Y-27.0844
G01 X86.2088 Y-27.0916
G01 X86.2076 Y-27.1011
G01 X86.1991 Y-27.1451
G01 X86.1964 Y-27.1548
G01 X86.1928 Y-27.1642
G01 X86.1894 Y-27.1709
G01 X86.1856 Y-27.1775
G01 X86.1619 Y-27.2126
G01 X86.1562 Y-27.2202
G01 X86.1498 Y-27.2272
G01 X82.3692 Y-31.0073
G01 X82.3635 Y-31.0126
G01 X82.3552 Y-31.0189
G01 X82.3207 Y-31.0426
G01 X82.3124 Y-31.0475
G01 X82.3036 Y-31.0516
G01 X82.2968 Y-31.0540
G01 X82.2875 Y-31.0566
G01 X82.2437 Y-31.0651
G01 X82.2341 Y-31.0663
G01 X82.2269 Y-31.0665
G01 X81.5198 Y-31.0665
G01 X81.4737 Y-31.0717
G01 X81.4399 Y-31.0836
G01 X81.4102 Y-31.1022
G01 X81.3852 Y-31.1272
G01 X81.3666 Y-31.1569
G01 X81.3547 Y-31.1907
G01 X81.3495 Y-31.2368
G01 X81.3495 Y-32.7892
G01 X81.3547 Y-32.8353
G01 X81.3666 Y-32.8690
G01 X81.3852 Y-32.8988
G01 X81.4102 Y-32.9238
G01 X81.4399 Y-32.9424
G01 X81.4737 Y-32.9543
G01 X81.5198 Y-32.9595
G01 X83.0722 Y-32.9595
G01 X83.1183 Y-32.9543
G01 X83.1520 Y-32.9424
G01 X83.1818 Y-32.9238
G01 X83.2068 Y-32.8988
G01 X83.2254 Y-32.8690
G01 X83.2373 Y-32.8353
G01 X83.2425 Y-32.7892
G01 X83.2425 Y-32.0797
G01 X83.2429 Y-32.0725
G01 X83.2439 Y-32.0653
G01 X83.2530 Y-32.0192
G01 X83.2549 Y-32.0122
G01 X83.2574 Y-32.0054
G01 X83.2626 Y-31.9945
G01 X83.2677 Y-31.9863
G01 X83.2901 Y-31.9538
G01 X83.2947 Y-31.9475
G01 X83.2999 Y-31.9417
G01 X83.5638 Y-31.6772
G01 X83.5711 Y-31.6706
G01 X83.5790 Y-31.6647
G01 X83.6171 Y-31.6405
G01 X83.6255 Y-31.6357
G01 X83.6365 Y-31.6310
G01 X83.6481 Y-31.6275
G01 X83.6998 Y-31.6192
G01 X83.7099 Y-31.6184
G01 X83.7175 Y-31.6185
G01 X83.7250 Y-31.6191
G01 X83.7349 Y-31.6208
G01 X83.7838 Y-31.6344
G01 X83.7929 Y-31.6377
G01 X83.8017 Y-31.6419
G01 X83.8100 Y-31.6469
G01 X83.8178 Y-31.6526
G01 X83.8558 Y-31.6854
G01 X83.8610 Y-31.6907
G01 X83.8672 Y-31.6983
G01 X83.8727 Y-31.7065
G01 X83.8774 Y-31.7152
G01 X83.8985 Y-31.7604
G01 X83.9008 Y-31.7672
G01 X83.9027 Y-31.7741
G01 X83.9047 Y-31.7859
G01 X83.9053 Y-31.7954
G01 X83.9056 Y-31.8462
G01 X83.9044 Y-31.8563
G01 X83.8980 Y-31.8893
G01 X83.8897 Y-32.0130
G01 X83.8980 Y-32.1364
G01 X83.9224 Y-32.2578
G01 X83.9619 Y-32.3751
G01 X84.0165 Y-32.4861
G01 X84.0854 Y-32.5891
G01 X84.1316 Y-32.6423
G01 X84.1371 Y-32.6505
G01 X84.1559 Y-32.6815
G01 X84.1595 Y-32.6878
G01 X84.1625 Y-32.6943
G01 X84.1665 Y-32.7057
G01 X84.1688 Y-32.7151
G01 X84.1758 Y-32.7532
G01 X84.1767 Y-32.7610
G01 X84.1770 Y-32.7688
G01 X84.1775 Y-33.4318
G01 X84.1849 Y-33.5120
G01 X84.1877 Y-33.5290
G01 X84.2073 Y-33.6080
G01 X84.2125 Y-33.6240
G01 X84.2432 Y-33.6973
G01 X84.2589 Y-33.7269
G01 X84.2636 Y-33.7379
G01 X84.2776 Y-33.7874
G01 X84.2796 Y-33.7970
G01 X84.2806 Y-33.8068
G01 X84.2807 Y-33.8142
G01 X84.2802 Y-33.8216
G01 X84.2748 Y-33.8652
G01 X84.2732 Y-33.8749
G01 X84.2705 Y-33.8844
G01 X84.2670 Y-33.8935
G01 X84.2626 Y-33.9023
G01 X84.2387 Y-33.9421
G01 X84.2315 Y-33.9520
G01 X84.2231 Y-33.9610
G01 X84.2137 Y-33.9690
G01 X84.1756 Y-33.9957
G01 X84.1691 Y-33.9996
G01 X84.1624 Y-34.0031
G01 X84.1507 Y-34.0076
G01 X84.1410 Y-34.0102
G01 X84.0981 Y-34.0193
G01 X84.0889 Y-34.0206
G01 X84.0819 Y-34.0210
G01 X80.8746 Y-34.0210
G01 X80.8650 Y-34.0206
G01 X80.8579 Y-34.0196
G01 X80.8164 Y-34.0116
G01 X80.8066 Y-34.0092
G01 X80.7948 Y-34.0048
G01 X80.7881 Y-34.0014
G01 X80.7815 Y-33.9976
G01 X80.7445 Y-33.9725
G01 X80.7370 Y-33.9666
G01 X80.7318 Y-33.9618
G01 X79.2042 Y-32.4342
G01 X79.1978 Y-32.4272
G01 X79.1935 Y-32.4215
G01 X79.1698 Y-32.3866
G01 X79.1645 Y-32.3779
G01 X79.1602 Y-32.3689
G01 X79.1568 Y-32.3594
G01 X79.1544 Y-32.3496
G01 X79.1464 Y-32.3081
G01 X79.1454 Y-32.3010
G01 X79.1450 Y-32.2938
G01 X79.1444 Y-29.0702
G01 X79.1371 Y-28.9900
G01 X79.1342 Y-28.9730
G01 X79.1147 Y-28.8940
G01 X79.1094 Y-28.8777
G01 X79.0784 Y-28.8027
G01 X79.0707 Y-28.7877
G01 X79.0297 Y-28.7201
G01 X78.9666 Y-28.6411
G01 X72.8542 Y-22.5282
G01 X72.8478 Y-22.5212
G01 X72.8421 Y-22.5136
G01 X72.8184 Y-22.4785
G01 X72.8123 Y-22.4675
G01 X72.8084 Y-22.4582
G01 X72.8055 Y-22.4485
G01 X72.7968 Y-22.4045
G01 X72.7954 Y-22.3950
G01 X72.7950 Y-22.3854
G01 X72.7951 Y13.2323
G01 X72.7964 Y13.2444
G01 X72.8050 Y13.2879
G01 X72.8076 Y13.2975
G01 X72.8103 Y13.3045
G01 X72.8146 Y13.3136
G01 X72.8198 Y13.3221
G01 X72.8435 Y13.3571
G01 X72.8478 Y13.3628
G01 X72.8525 Y13.3681
G01 X72.8594 Y13.3747
G01 X72.8669 Y13.3805
G01 X72.9040 Y13.4056
G01 X72.9149 Y13.4117
G01 X72.9241 Y13.4155
G01 X72.9337 Y13.4184
G01 X72.9820 Y13.4280
G01 X72.9892 Y13.4288
G01 X72.9966 Y13.4290
G01 X74.0853 Y13.4290
G01 X74.0957 Y13.4282
G01 X74.1352 Y13.4218
G01 X74.1471 Y13.4186
G01 X74.1584 Y13.4139
G01 X74.1914 Y13.3968
G01 X74.2004 Y13.3912
G01 X74.3079 Y13.3119
G01 X74.4153 Y13.2529
G01 X74.5305 Y13.2088
G01 X74.6500 Y13.1800
G01 X74.7721 Y13.1681
G01 X74.8952 Y13.1722
G01 X75.0165 Y13.1924
G01 X75.1337 Y13.2290
G01 X75.2456 Y13.2808
G01 X75.3492 Y13.3468
G01 X75.4429 Y13.4259
G01 X75.5254 Y13.5176
G01 X75.5951 Y13.6190
G01 X75.6505 Y13.7283
G01 X75.6909 Y13.8448
G01 X75.7156 Y13.9653
G01 X75.7239 Y14.0880
G01 X75.7156 Y14.2107
G01 X75.6909 Y14.3312
G01 X75.6505 Y14.4477
G01 X75.5951 Y14.5571
G01 X75.5254 Y14.6584
G01 X75.4429 Y14.7501
G01 X75.3491 Y14.8292
G01 X75.2456 Y14.8952
G01 X75.1337 Y14.9470
G01 X75.0165 Y14.9836
G01 X74.8952 Y15.0038
G01 X74.7721 Y15.0079
G01 X74.6500 Y14.9960
G01 X74.5305 Y14.9672
G01 X74.4153 Y14.9231
G01 X74.3079 Y14.8641
G01 X74.2004 Y14.7848
G01 X74.1914 Y14.7792
G01 X74.1584 Y14.7621
G01 X74.1471 Y14.7574
G01 X74.1352 Y14.7542
G01 X74.0957 Y14.7478
G01 X74.0853 Y14.7470
G01 X58.9062 Y14.7465
G01 X58.8260 Y14.7391
G01 X58.8090 Y14.7363
G01 X58.7300 Y14.7167
G01 X58.7137 Y14.7114
G01 X58.6387 Y14.6804
G01 X58.6237 Y14.6727
G01 X58.5561 Y14.6317
G01 X58.4771 Y14.5686
G01 X30.5074 Y-13.4011
G01 X30.4443 Y-13.4801
G01 X30.4033 Y-13.5477
G01 X30.3956 Y-13.5627
G01 X30.3646 Y-13.6377
G01 X30.3593 Y-13.6540
G01 X30.3397 Y-13.7330
G01 X30.3369 Y-13.7500
G01 X30.3295 Y-13.8302
G01 X30.3290 Y-26.6752
G01 X30.3309 Y-26.7283
G01 X30.3366 Y-26.7774
G01 X30.3455 Y-26.8256
G01 X30.3582 Y-26.8730
G01 X30.3745 Y-26.9196
G01 X30.3943 Y-26.9647
G01 X30.4173 Y-27.0084
G01 X30.4438 Y-27.0504
G01 X30.4728 Y-27.0900
G01 X30.5049 Y-27.1269
G01 X30.5401 Y-27.1621
G01 X30.5770 Y-27.1941
G01 X30.6166 Y-27.2232
G01 X30.6585 Y-27.2497
G01 X30.7023 Y-27.2726
G01 X30.7473 Y-27.2925
G01 X30.7940 Y-27.3088
G01 X30.8414 Y-27.3215
G01 X30.8896 Y-27.3304
G01 X30.9387 Y-27.3361
G01 X30.9918 Y-27.3380
G01 X31.2664 Y-27.3380
G01 X31.2736 Y-27.3382
G01 X31.2855 Y-27.3398
G01 X31.3295 Y-27.3485
G01 X31.3368 Y-27.3506
G01 X31.3439 Y-27.3532
G01 X31.3507 Y-27.3564
G01 X31.3573 Y-27.3600
G01 X31.3965 Y-27.3865
G01 X31.4022 Y-27.3908
G01 X31.4092 Y-27.3972
G01 X32.1987 Y-28.1866
G01 X32.2054 Y-28.1941
G01 X32.2114 Y-28.2022
G01 X32.2359 Y-28.2395
G01 X32.2406 Y-28.2484
G01 X32.2435 Y-28.2555
G01 X32.2472 Y-28.2676
G01 X32.2558 Y-28.3091
G01 X32.2571 Y-28.3167
G01 X32.2578 Y-28.3244
G01 X32.2579 Y-29.5848
G01 X32.2632 Y-29.6317
