(G-CODE GENERATED BY FLATCAM v8.994 - www.flatcam.org - Version Date: 2020/11/7)

(Name: Drill_PTH_Through.DRL_cnc)
(Type: G-code from Geometry)
(Units: MM)

(Created on Wednesday, 28 May 2025 at 17:58)


(TOOLS DIAMETER: )
(Tool: 1 -> Dia: 0.889)
(Tool: 2 -> Dia: 0.9)
(Tool: 3 -> Dia: 0.915)

(FEEDRATE Z: )
(Tool: 1 -> Feedrate: 300)
(Tool: 2 -> Feedrate: 300)
(Tool: 3 -> Feedrate: 300)

(FEEDRATE RAPIDS: )
(Tool: 1 -> Feedrate Rapids: 1500)
(Tool: 2 -> Feedrate Rapids: 1500)
(Tool: 3 -> Feedrate Rapids: 1500)

(Z_CUT: )
(Tool: 1 -> Z_Cut: -2.5)
(Tool: 2 -> Z_Cut: -2.5)
(Tool: 3 -> Z_Cut: -2.5)

(Tools Offset: )
(Tool: 3 -> Offset Z: 0.0)
(Tool: 1 -> Offset Z: 0.0)
(Tool: 2 -> Offset Z: 0.0)

(Z_MOVE: )
(Tool: 1 -> Z_Move: 2)
(Tool: 2 -> Z_Move: 2)
(Tool: 3 -> Z_Move: 2)

(Z Toolchange: 15 mm)
(X,Y Toolchange: 0.0000, 0.0000 mm)
(Z Start: None mm)
(Z End: 0.5 mm)
(X,Y End: None mm)
(Steps per circle: 64)
(Preprocessor Excellon: Toolchange_Manual)

(X range:    3.6065 ...   28.1305  mm)
(Y range:  -13.4040 ...   -1.8360  mm)

(Spindle Speed: 24000 RPM)
G21
G90
G17
G94


G01 F300.00

M5
G00 Z15.0000
T1 
G00 X0.0000 Y0.0000 
(MSG, Change to Tool Dia = 0.8890 ||| Total drills for tool T1 = 11)
M0
G01 Z0
(MSG, Adjust the tool T1 to touch the material and then tighten it slightly.)
M0
G00 Z15.0000
(MSG, Now the tool can be tightened more securely.)
M0
(MSG, Drilling with Tool Dia = 0.8890 ||| Total drills for tool T1 = 11)

G01 F300.00
M03 S24000
G00 X27.6860 Y-5.0800
G01 Z-2.5000
G01 Z0
G00 Z2.0000
G00 X27.6860 Y-5.0800
G01 Z-2.5000
G01 Z0
G00 Z2.0000
G00 X27.6860 Y-7.6200
G01 Z-2.5000
G01 Z0
G00 Z2.0000
G00 X27.6860 Y-10.1600
G01 Z-2.5000
G01 Z0
G00 Z2.0000
G00 X21.5900 Y-12.9540
G01 Z-2.5000
G01 Z0
G00 Z2.0000
G00 X11.4300 Y-12.9540
G01 Z-2.5000
G01 Z0
G00 Z2.0000
G00 X6.6040 Y-10.2430
G01 Z-2.5000
G01 Z0
G00 Z2.0000
G00 X4.0640 Y-10.2430
G01 Z-2.5000
G01 Z0
G00 Z2.0000
G00 X4.0640 Y-4.7430
G01 Z-2.5000
G01 Z0
G00 Z2.0000
G00 X6.6040 Y-4.7430
G01 Z-2.5000
G01 Z0
G00 Z2.0000
G00 X11.3030 Y-2.2860
G01 Z-2.5000
G01 Z0
G00 Z2.0000
G00 X21.4630 Y-2.2860
G01 Z-2.5000
G01 Z0
G00 Z2.0000
M05
G00 Z0.50


