(G-CODE GENERATED BY FLATCAM v8.994 - www.flatcam.org - Version Date: 2020/11/7)

(Name: Drill_NPTH_Through.DRL_edit_1_cnc)
(Type: G-code from Geometry)
(Units: MM)

(Created on Wednesday, 28 May 2025 at 18:00)


(TOOLS DIAMETER: )
(Tool: 1 -> Dia: 1.0)

(FEEDRATE Z: )
(Tool: 1 -> Feedrate: 300)

(FEEDRATE RAPIDS: )
(Tool: 1 -> Feedrate Rapids: 1500)

(Z_CUT: )
(Tool: 1 -> Z_Cut: -2.5)

(Tools Offset: )
(Tool: 1 -> Offset Z: 0.0)

(Z_MOVE: )
(Tool: 1 -> Z_Move: 2)

(Z Toolchange: 15 mm)
(X,Y Toolchange: 0.0000, 0.0000 mm)
(Z Start: None mm)
(Z End: 0.5 mm)
(X,Y End: None mm)
(Steps per circle: 64)
(Preprocessor Excellon: Toolchange_Manual)

(X range:    2.3840 ...    3.3840  mm)
(Y range:  -12.6430 ...  -11.6430  mm)

(Spindle Speed: 24000 RPM)
G21
G90
G17
G94


G01 F300.00

M5
G00 Z15.0000
T1 
G00 X0.0000 Y0.0000 
(MSG, Change to Tool Dia = 1.0000 ||| Total drills for tool T1 = 1)
M0
G01 Z0
(MSG, Adjust the tool T1 to touch the material and then tighten it slightly.)
M0
G00 Z15.0000
(MSG, Now the tool can be tightened more securely.)
M0
(MSG, Drilling with Tool Dia = 1.0000 ||| Total drills for tool T1 = 1)

G01 F300.00
M03 S24000
G00 X2.8840 Y-12.1430
G01 Z-2.5000
G01 Z0
G00 Z2.0000
G00 X2.8840 Y-12.1430
G01 Z-2.5000
G01 Z0
G00 Z2.0000
M05
G00 Z0.50


