(G-CODE GENERATED BY FLATCAM v8.994 - www.flatcam.org - Version Date: 2020/11/7)

(Name: Drill_NPTH_Through.DRL_edit_cnc)
(Type: G-code from Geometry)
(Units: MM)

(Created on Wednesday, 28 May 2025 at 17:59)


(TOOLS DIAMETER: )
(Tool: 1 -> Dia: 2.501)
(Tool: 2 -> Dia: 3.0)

(FEEDRATE Z: )
(Tool: 1 -> Feedrate: 200.0)
(Tool: 2 -> Feedrate: 200.0)

(FEEDRATE RAPIDS: )
(Tool: 1 -> Feedrate Rapids: 1500)
(Tool: 2 -> Feedrate Rapids: 1500)

(Z_CUT: )
(Tool: 1 -> Z_Cut: -2.5)
(Tool: 2 -> Z_Cut: -2.5)

(Tools Offset: )
(Tool: 2 -> Offset Z: 0.0)
(Tool: 1 -> Offset Z: 0.0)

(Z_MOVE: )
(Tool: 1 -> Z_Move: 2)
(Tool: 2 -> Z_Move: 2)

(Z Toolchange: 15 mm)
(X,Y Toolchange: 0.0000, 0.0000 mm)
(Z Start: None mm)
(Z End: 0.5 mm)
(X,Y End: None mm)
(Steps per circle: 64)
(Preprocessor Excellon: Toolchange_Manual)

(X range:    2.1835 ...   16.9940  mm)
(Y range:   -9.2470 ...   -6.2425  mm)

(Spindle Speed: 18000 RPM)
G21
G90
G17
G94


G01 F200.00

M5
G00 Z15.0000
T1 
G00 X0.0000 Y0.0000 
(MSG, Change to Tool Dia = 2.5010 ||| Total drills for tool T1 = 3)
M0
G01 Z0
(MSG, Adjust the tool T1 to touch the material and then tighten it slightly.)
M0
G00 Z15.0000
(MSG, Now the tool can be tightened more securely.)
M0
(MSG, Drilling with Tool Dia = 2.5010 ||| Total drills for tool T1 = 3)

G01 F200.00
M03 S18000
G00 X7.2340 Y-7.4930
G01 Z-2.5000
G01 Z0
G00 Z2.0000
G00 X7.2340 Y-7.4930
G01 Z-2.5000
G01 Z0
G00 Z2.0000
G00 X3.4340 Y-7.4930
G01 Z-2.5000
G01 Z0
G00 Z2.0000
G00 X15.4940 Y-7.7470
G01 Z-2.5000
G01 Z0
G00 Z2.0000
M05
G00 Z0.50


