(G-CODE GENERATED BY FLATCAM v8.994 - www.flatcam.org - Version Date: 2020/11/7)

(Name: Gerber_TopLayer.GTL_iso_combined_cnc)
(Type: G-code from Geometry)
(Units: MM)

(Created on Wednesday, 28 May 2025 at 17:56)

(This preprocessor is the default preprocessor used by FlatCAM.)
(It is made to work with MACH3 compatible motion controllers.)

(TOOL DIAMETER: 0.2 mm)
(Feedrate_XY: 250.0 mm/min)
(Feedrate_Z: 60.0 mm/min)
(Feedrate rapids 1500.0 mm/min)

(Z_Cut: 0.0 mm)
(Z_Move: 2.0 mm)
(Z Start: None mm)
(Z End: 15.0 mm)
(X,Y End: None mm)
(Steps per circle: 64)
(Preprocessor Geometry: default)

(X range:    0.6534 ...   30.3351  mm)
(Y range:  -15.0880 ...   -0.4060  mm)

(Spindle Speed: 24000.0 RPM)
G21
G90
G94

G01 F250.00

M5
G00 Z15.0000
G00 X0.0000 Y0.0000
T1
M6    
(MSG, Change to Tool Dia = 0.2000)
M0
G00 Z15.0000

M03 S24000.0
G01 F250.00
G00 X0.8550 Y-0.4060
G01 F60.00
G01 Z0.0000
G01 F250.00
G01 X0.8454 Y-0.4064
G01 X0.8382 Y-0.4074
G01 X0.7967 Y-0.4154
G01 X0.7870 Y-0.4178
G01 X0.7775 Y-0.4212
G01 X0.7684 Y-0.4256
G01 X0.7598 Y-0.4308
G01 X0.7248 Y-0.4545
G01 X0.7171 Y-0.4606
G01 X0.7117 Y-0.4656
G01 X0.7052 Y-0.4729
G01 X0.6994 Y-0.4808
G01 X0.6762 Y-0.5159
G01 X0.6715 Y-0.5243
G01 X0.6685 Y-0.5310
G01 X0.6652 Y-0.5402
G01 X0.6634 Y-0.5472
G01 X0.6553 Y-0.5882
G01 X0.6538 Y-0.5978
G01 X0.6534 Y-0.6076
G01 X0.6534 Y-14.8864
G01 X0.6538 Y-14.8962
G01 X0.6548 Y-14.9034
G01 X0.6639 Y-14.9492
G01 X0.6659 Y-14.9562
G01 X0.6694 Y-14.9653
G01 X0.6726 Y-14.9718
G01 X0.6763 Y-14.9782
G01 X0.7022 Y-15.0172
G01 X0.7068 Y-15.0230
G01 X0.7135 Y-15.0301
G01 X0.7208 Y-15.0365
G01 X0.7268 Y-15.0409
G01 X0.7619 Y-15.0646
G01 X0.7706 Y-15.0696
G01 X0.7822 Y-15.0746
G01 X0.7943 Y-15.0781
G01 X0.8382 Y-15.0866
G01 X0.8454 Y-15.0876
G01 X0.8550 Y-15.0880
G01 X30.1335 Y-15.0880
G01 X30.1408 Y-15.0878
G01 X30.1505 Y-15.0866
G01 X30.1964 Y-15.0774
G01 X30.2060 Y-15.0745
G01 X30.2129 Y-15.0717
G01 X30.2197 Y-15.0684
G01 X30.2261 Y-15.0646
G01 X30.2652 Y-15.0380
G01 X30.2709 Y-15.0334
G01 X30.2780 Y-15.0266
G01 X30.2828 Y-15.0211
G01 X30.2886 Y-15.0132
G01 X30.3118 Y-14.9781
G01 X30.3167 Y-14.9693
G01 X30.3215 Y-14.9577
G01 X30.3249 Y-14.9456
G01 X30.3335 Y-14.9045
G01 X30.3346 Y-14.8968
G01 X30.3351 Y-14.8864
G01 X30.3351 Y-0.6076
G01 X30.3346 Y-0.5972
G01 X30.3335 Y-0.5895
G01 X30.3237 Y-0.5435
G01 X30.3215 Y-0.5363
G01 X30.3188 Y-0.5292
G01 X30.3155 Y-0.5224
G01 X30.3118 Y-0.5159
G01 X30.2858 Y-0.4768
G01 X30.2812 Y-0.4710
G01 X30.2745 Y-0.4639
G01 X30.2690 Y-0.4590
G01 X30.2612 Y-0.4531
G01 X30.2261 Y-0.4294
G01 X30.2174 Y-0.4244
G01 X30.2060 Y-0.4195
G01 X30.1940 Y-0.4160
G01 X30.1505 Y-0.4074
G01 X30.1433 Y-0.4064
G01 X30.1335 Y-0.4060
G01 X0.8550 Y-0.4060
G00 Z2.0000
G00 X3.4341 Y-6.0844
G01 F60.00
G01 Z0.0000
G01 F250.00
G01 X3.2761 Y-6.0929
G01 X3.1206 Y-6.1195
G01 X2.9688 Y-6.1631
G01 X2.8228 Y-6.2238
G01 X2.6847 Y-6.3002
G01 X2.5557 Y-6.3917
G01 X2.4381 Y-6.4970
G01 X2.3328 Y-6.6147
G01 X2.2413 Y-6.7437
G01 X2.1649 Y-6.8817
G01 X2.1042 Y-7.0278
G01 X2.0605 Y-7.1795
G01 X2.0340 Y-7.3350
G01 X2.0255 Y-7.4930
G01 X2.0340 Y-7.6510
G01 X2.0605 Y-7.8065
G01 X2.1042 Y-7.9582
G01 X2.1649 Y-8.1043
G01 X2.2413 Y-8.2423
G01 X2.3328 Y-8.3713
G01 X2.4381 Y-8.4890
G01 X2.5557 Y-8.5943
G01 X2.6847 Y-8.6858
G01 X2.8228 Y-8.7622
G01 X2.9688 Y-8.8229
G01 X3.1206 Y-8.8665
G01 X3.2761 Y-8.8931
G01 X3.4341 Y-8.9016
G01 X3.5921 Y-8.8931
G01 X3.7476 Y-8.8665
G01 X3.8993 Y-8.8229
G01 X4.0454 Y-8.7622
G01 X4.1834 Y-8.6858
G01 X4.3124 Y-8.5943
G01 X4.4301 Y-8.4890
G01 X4.5354 Y-8.3713
G01 X4.6269 Y-8.2423
G01 X4.7033 Y-8.1043
G01 X4.7640 Y-7.9582
G01 X4.8076 Y-7.8065
G01 X4.8341 Y-7.6510
G01 X4.8427 Y-7.4930
G01 X4.8341 Y-7.3350
G01 X4.8076 Y-7.1795
G01 X4.7640 Y-7.0278
G01 X4.7033 Y-6.8817
G01 X4.6269 Y-6.7437
G01 X4.5354 Y-6.6147
G01 X4.4301 Y-6.4970
G01 X4.3124 Y-6.3917
G01 X4.1834 Y-6.3002
G01 X4.0454 Y-6.2238
G01 X3.8993 Y-6.1631
G01 X3.7476 Y-6.1195
G01 X3.5921 Y-6.0929
G01 X3.4341 Y-6.0844
G00 Z2.0000
G00 X6.0037 Y-4.1248
G01 F60.00
G01 Z0.0000
G01 F250.00
G01 X5.9911 Y-4.1370
G01 X5.9409 Y-4.1924
G01 X5.9346 Y-4.2000
G01 X5.8873 Y-4.2640
G01 X5.8438 Y-4.3366
G01 X5.8076 Y-4.4131
G01 X5.7807 Y-4.4881
G01 X5.7778 Y-4.4974
G01 X5.7596 Y-4.5700
G01 X5.7577 Y-4.5796
G01 X5.7462 Y-4.6584
G01 X5.7420 Y-4.7429
G01 X5.7462 Y-4.8274
G01 X5.7577 Y-4.9063
G01 X5.7596 Y-4.9159
G01 X5.7778 Y-4.9884
G01 X5.7807 Y-4.9978
G01 X5.8076 Y-5.0728
G01 X5.8416 Y-5.1449
G01 X5.8462 Y-5.1536
G01 X5.8873 Y-5.2218
G01 X5.9377 Y-5.2898
G01 X5.9945 Y-5.3525
G01 X6.0534 Y-5.4061
G01 X6.0610 Y-5.4123
G01 X6.1211 Y-5.4568
G01 X6.1292 Y-5.4623
G01 X6.1977 Y-5.5032
G01 X6.2741 Y-5.5393
G01 X6.3538 Y-5.5678
G01 X6.4358 Y-5.5884
G01 X6.5195 Y-5.6008
G01 X6.5991 Y-5.6048
G01 X6.6089 Y-5.6048
G01 X6.6836 Y-5.6012
G01 X6.6934 Y-5.6002
G01 X6.7722 Y-5.5884
G01 X6.8495 Y-5.5691
G01 X6.8566 Y-5.5671
G01 X6.9339 Y-5.5393
G01 X7.0060 Y-5.5054
G01 X7.0146 Y-5.5007
G01 X7.0829 Y-5.4597
G01 X7.1470 Y-5.4123
G01 X7.1546 Y-5.4061
G01 X7.2135 Y-5.3525
G01 X7.2671 Y-5.2935
G01 X7.2734 Y-5.2859
G01 X7.3207 Y-5.2218
G01 X7.3618 Y-5.1536
G01 X7.3664 Y-5.1449
G01 X7.4004 Y-5.0728
G01 X7.4273 Y-4.9978
G01 X7.4302 Y-4.9884
G01 X7.4499 Y-4.9087
G01 X7.4612 Y-4.8323
G01 X7.4622 Y-4.8225
G01 X7.4660 Y-4.7429
G01 X7.4622 Y-4.6633
G01 X7.4612 Y-4.6536
G01 X7.4494 Y-4.5748
G01 X7.4289 Y-4.4927
G01 X7.4022 Y-4.4176
G01 X7.3984 Y-4.4086
G01 X7.3642 Y-4.3366
G01 X7.3234 Y-4.2682
G01 X7.3179 Y-4.2600
G01 X7.2703 Y-4.1961
G01 X7.2169 Y-4.1370
G01 X7.2043 Y-4.1248
G01 X7.2043 Y-3.6776
G01 X7.9956 Y-2.8863
G01 X10.4550 Y-2.8863
G01 X10.4992 Y-2.9456
G01 X10.5644 Y-3.0177
G01 X10.5713 Y-3.0246
G01 X10.6396 Y-3.0866
G01 X10.6453 Y-3.0913
G01 X10.7253 Y-3.1506
G01 X10.8086 Y-3.2006
G01 X10.8172 Y-3.2052
G01 X10.9006 Y-3.2447
G01 X10.9074 Y-3.2476
G01 X11.0012 Y-3.2810
G01 X11.0954 Y-3.3047
G01 X11.1050 Y-3.3067
G01 X11.2011 Y-3.3208
G01 X11.3030 Y-3.3258
G01 X11.4000 Y-3.3212
G01 X11.4098 Y-3.3202
G01 X11.5059 Y-3.3058
G01 X11.6048 Y-3.2810
G01 X11.7009 Y-3.2466
G01 X11.7932 Y-3.2030
G01 X11.8765 Y-3.1532
G01 X11.8847 Y-3.1477
G01 X11.9588 Y-3.0928
G01 X11.9664 Y-3.0866
G01 X12.0382 Y-3.0212
G01 X12.1036 Y-2.9494
G01 X12.1098 Y-2.9418
G01 X12.1676 Y-2.8637
G01 X12.2176 Y-2.7804
G01 X12.2222 Y-2.7718
G01 X12.2636 Y-2.6839
G01 X12.2980 Y-2.5878
G01 X12.3228 Y-2.4889
G01 X12.3378 Y-2.3879
G01 X12.3428 Y-2.2860
G01 X12.3378 Y-2.1841
G01 X12.3228 Y-2.0831
G01 X12.2993 Y-1.9889
G01 X12.2973 Y-1.9818
G01 X12.2636 Y-1.8881
G01 X12.2222 Y-1.8002
G01 X12.2176 Y-1.7916
G01 X12.1676 Y-1.7083
G01 X12.1068 Y-1.6264
G01 X12.0416 Y-1.5543
G01 X12.0347 Y-1.5474
G01 X11.9626 Y-1.4822
G01 X11.8847 Y-1.4243
G01 X11.8765 Y-1.4188
G01 X11.7932 Y-1.3690
G01 X11.7009 Y-1.3254
G01 X11.6048 Y-1.2910
G01 X11.5106 Y-1.2673
G01 X11.5010 Y-1.2653
G01 X11.4098 Y-1.2518
G01 X11.4000 Y-1.2508
G01 X11.3030 Y-1.2462
G01 X11.2060 Y-1.2508
G01 X11.1962 Y-1.2518
G01 X11.1050 Y-1.2653
G01 X11.0954 Y-1.2673
G01 X11.0012 Y-1.2910
G01 X10.9097 Y-1.3236
G01 X10.9006 Y-1.3273
G01 X10.8128 Y-1.3690
G01 X10.7295 Y-1.4188
G01 X10.7213 Y-1.4243
G01 X10.6434 Y-1.4822
G01 X10.5713 Y-1.5474
G01 X10.5644 Y-1.5543
G01 X10.4992 Y-1.6264
G01 X10.4550 Y-1.6857
G01 X7.7470 Y-1.6857
G01 X7.6882 Y-1.6886
G01 X7.6347 Y-1.6964
G01 X7.6251 Y-1.6984
G01 X7.5704 Y-1.7123
G01 X7.5219 Y-1.7297
G01 X7.5128 Y-1.7334
G01 X7.4640 Y-1.7566
G01 X7.4177 Y-1.7843
G01 X7.4095 Y-1.7897
G01 X7.3662 Y-1.8220
G01 X7.3243 Y-1.8598
G01 X6.1796 Y-3.0046
G01 X6.1400 Y-3.0482
G01 X6.1077 Y-3.0915
G01 X6.1036 Y-3.0976
G01 X6.0770 Y-3.1418
G01 X6.0724 Y-3.1504
G01 X6.0494 Y-3.1993
G01 X6.0311 Y-3.2501
G01 X6.0283 Y-3.2595
G01 X6.0153 Y-3.3119
G01 X6.0066 Y-3.3702
G01 X6.0037 Y-3.4290
G01 X6.0037 Y-4.1248
G00 Z2.0000
G00 X7.2339 Y-6.0844
G01 F60.00
G01 Z0.0000
G01 F250.00
G01 X7.0759 Y-6.0929
G01 X6.9204 Y-6.1195
G01 X6.7687 Y-6.1631
G01 X6.6226 Y-6.2238
G01 X6.4846 Y-6.3002
G01 X6.3556 Y-6.3917
G01 X6.2379 Y-6.4970
G01 X6.1326 Y-6.6147
G01 X6.0411 Y-6.7437
G01 X5.9647 Y-6.8817
G01 X5.9040 Y-7.0278
G01 X5.8604 Y-7.1795
G01 X5.8338 Y-7.3350
G01 X5.8253 Y-7.4930
G01 X5.8338 Y-7.6510
G01 X5.8604 Y-7.8065
G01 X5.9040 Y-7.9582
G01 X5.9647 Y-8.1043
G01 X6.0411 Y-8.2423
G01 X6.1326 Y-8.3713
G01 X6.2379 Y-8.4890
G01 X6.3556 Y-8.5943
G01 X6.4846 Y-8.6858
G01 X6.6226 Y-8.7622
G01 X6.7687 Y-8.8229
G01 X6.9204 Y-8.8665
G01 X7.0759 Y-8.8931
G01 X7.2339 Y-8.9016
G01 X7.3919 Y-8.8931
G01 X7.5474 Y-8.8665
G01 X7.6991 Y-8.8229
G01 X7.8452 Y-8.7622
G01 X7.9833 Y-8.6858
G01 X8.1122 Y-8.5943
G01 X8.2299 Y-8.4890
G01 X8.3352 Y-8.3713
G01 X8.4267 Y-8.2423
G01 X8.5031 Y-8.1043
G01 X8.5638 Y-7.9582
G01 X8.6074 Y-7.8065
G01 X8.6340 Y-7.6510
G01 X8.6425 Y-7.4930
G01 X8.6340 Y-7.3350
G01 X8.6074 Y-7.1795
G01 X8.5638 Y-7.0278
G01 X8.5031 Y-6.8817
G01 X8.4267 Y-6.7437
G01 X8.3352 Y-6.6147
G01 X8.2299 Y-6.4970
G01 X8.1122 Y-6.3917
G01 X7.9833 Y-6.3002
G01 X7.8452 Y-6.2238
G01 X7.6991 Y-6.1631
G01 X7.5474 Y-6.1195
G01 X7.3919 Y-6.0929
G01 X7.2339 Y-6.0844
G00 Z2.0000
G00 X7.2221 Y-9.6428
G01 F60.00
G01 Z0.0000
G01 F250.00
G01 X7.2100 Y-9.6301
G01 X7.1508 Y-9.5767
G01 X7.0829 Y-9.5263
G01 X7.0103 Y-9.4828
G01 X6.9339 Y-9.4467
G01 X6.8542 Y-9.4182
G01 X6.7722 Y-9.3976
G01 X6.6885 Y-9.3852
G01 X6.6040 Y-9.3811
G01 X6.5195 Y-9.3852
G01 X6.4358 Y-9.3976
G01 X6.3538 Y-9.4182
G01 X6.2741 Y-9.4467
G01 X6.1977 Y-9.4828
G01 X6.1251 Y-9.5263
G01 X6.0572 Y-9.5767
G01 X5.9945 Y-9.6335
G01 X5.9377 Y-9.6962
G01 X5.8873 Y-9.7641
G01 X5.8438 Y-9.8367
G01 X5.8076 Y-9.9132
G01 X5.7791 Y-9.9928
G01 X5.7586 Y-10.0749
G01 X5.7462 Y-10.1586
G01 X5.7420 Y-10.2430
G01 X5.7462 Y-10.3275
G01 X5.7586 Y-10.4112
G01 X5.7791 Y-10.4933
G01 X5.8076 Y-10.5729
G01 X5.8438 Y-10.6494
G01 X5.8873 Y-10.7220
G01 X5.9377 Y-10.7899
G01 X5.9945 Y-10.8526
G01 X6.0572 Y-10.9094
G01 X6.1251 Y-10.9598
G01 X6.1977 Y-11.0033
G01 X6.2741 Y-11.0394
G01 X6.3538 Y-11.0679
G01 X6.4358 Y-11.0885
G01 X6.5195 Y-11.1009
G01 X6.5991 Y-11.1049
G01 X6.6089 Y-11.1049
G01 X6.6885 Y-11.1009
G01 X6.7722 Y-11.0885
G01 X6.8542 Y-11.0679
G01 X6.9339 Y-11.0394
G01 X7.0103 Y-11.0033
G01 X7.0829 Y-10.9598
G01 X7.1508 Y-10.9094
G01 X7.2100 Y-10.8560
G01 X7.2221 Y-10.8433
G01 X9.0609 Y-10.8433
G01 X9.1149 Y-10.8408
G01 X9.1246 Y-10.8398
G01 X9.1732 Y-10.8326
G01 X9.1828 Y-10.8307
G01 X9.2352 Y-10.8175
G01 X9.2906 Y-10.7976
G01 X9.3395 Y-10.7746
G01 X9.3482 Y-10.7700
G01 X9.3944 Y-10.7421
G01 X9.4398 Y-10.7086
G01 X9.4455 Y-10.7038
G01 X9.4854 Y-10.6675
G01 X11.8544 Y-8.2984
G01 X11.8940 Y-8.2548
G01 X11.9291 Y-8.2075
G01 X11.9570 Y-8.1612
G01 X11.9616 Y-8.1526
G01 X11.9846 Y-8.1037
G01 X12.0029 Y-8.0529
G01 X12.0057 Y-8.0435
G01 X12.0187 Y-7.9911
G01 X12.0268 Y-7.9377
G01 X12.0277 Y-7.9279
G01 X12.0303 Y-7.8740
G01 X12.0303 Y-6.2176
G01 X13.4566 Y-4.7913
G01 X19.3094 Y-4.7913
G01 X22.5643 Y-8.0462
G01 X22.6062 Y-8.0840
G01 X22.6495 Y-8.1163
G01 X22.6577 Y-8.1217
G01 X22.7040 Y-8.1494
G01 X22.7573 Y-8.1746
G01 X22.8081 Y-8.1929
G01 X22.8175 Y-8.1957
G01 X22.8723 Y-8.2092
G01 X22.9282 Y-8.2174
G01 X22.9870 Y-8.2203
G01 X27.0337 Y-8.2203
G01 X27.0603 Y-8.2492
G01 X27.1212 Y-8.3044
G01 X27.1269 Y-8.3090
G01 X27.1910 Y-8.3565
G01 X27.1971 Y-8.3605
G01 X27.2677 Y-8.4026
G01 X27.3419 Y-8.4379
G01 X27.3487 Y-8.4408
G01 X27.4237 Y-8.4676
G01 X27.4331 Y-8.4705
G01 X27.5129 Y-8.4903
G01 X27.5941 Y-8.5025
G01 X27.6039 Y-8.5035
G01 X27.6860 Y-8.5074
G01 X27.7681 Y-8.5035
G01 X27.7754 Y-8.5029
G01 X27.8591 Y-8.4903
G01 X27.9436 Y-8.4692
G01 X28.0256 Y-8.4399
G01 X28.1043 Y-8.4026
G01 X28.1790 Y-8.3578
G01 X28.2490 Y-8.3060
G01 X28.3135 Y-8.2475
G01 X28.3720 Y-8.1830
G01 X28.4238 Y-8.1130
G01 X28.4686 Y-8.0383
G01 X28.5059 Y-7.9596
G01 X28.5352 Y-7.8776
G01 X28.5563 Y-7.7931
G01 X28.5691 Y-7.7070
G01 X28.5734 Y-7.6200
G01 X28.5691 Y-7.5330
G01 X28.5563 Y-7.4469
G01 X28.5352 Y-7.3624
G01 X28.5059 Y-7.2804
G01 X28.4708 Y-7.2061
G01 X28.4662 Y-7.1974
G01 X28.4265 Y-7.1311
G01 X28.4210 Y-7.1230
G01 X28.3720 Y-7.0570
G01 X28.3135 Y-6.9925
G01 X28.2490 Y-6.9340
G01 X28.1830 Y-6.8850
G01 X28.1749 Y-6.8795
G01 X28.1086 Y-6.8398
G01 X28.0999 Y-6.8352
G01 X28.0256 Y-6.8001
G01 X27.9436 Y-6.7708
G01 X27.8591 Y-6.7497
G01 X27.7730 Y-6.7369
G01 X27.6860 Y-6.7326
G01 X27.6039 Y-6.7365
G01 X27.5941 Y-6.7375
G01 X27.5129 Y-6.7497
G01 X27.4331 Y-6.7695
G01 X27.4237 Y-6.7724
G01 X27.3487 Y-6.7992
G01 X27.3419 Y-6.8021
G01 X27.2677 Y-6.8374
G01 X27.1971 Y-6.8795
G01 X27.1910 Y-6.8835
G01 X27.1269 Y-6.9310
G01 X27.1212 Y-6.9356
G01 X27.0603 Y-6.9908
G01 X27.0337 Y-7.0197
G01 X23.2356 Y-7.0197
G01 X20.4069 Y-4.1910
G01 X21.2878 Y-3.3100
G01 X21.3611 Y-3.3208
G01 X21.4581 Y-3.3257
G01 X21.4679 Y-3.3257
G01 X21.5600 Y-3.3212
G01 X21.5698 Y-3.3202
G01 X21.6659 Y-3.3058
G01 X21.7601 Y-3.2823
G01 X21.7695 Y-3.2795
G01 X21.8609 Y-3.2466
G01 X21.9532 Y-3.2030
G01 X22.0407 Y-3.1506
G01 X22.1207 Y-3.0913
G01 X22.1264 Y-3.0866
G01 X22.1947 Y-3.0246
G01 X22.2016 Y-3.0177
G01 X22.2668 Y-2.9456
G01 X22.3276 Y-2.8637
G01 X22.3776 Y-2.7804
G01 X22.3822 Y-2.7718
G01 X22.4236 Y-2.6839
G01 X22.4573 Y-2.5902
G01 X22.4593 Y-2.5831
G01 X22.4828 Y-2.4889
G01 X22.4972 Y-2.3928
G01 X22.4982 Y-2.3830
G01 X22.5028 Y-2.2860
G01 X22.4982 Y-2.1890
G01 X22.4972 Y-2.1792
G01 X22.4828 Y-2.0831
G01 X22.4593 Y-1.9889
G01 X22.4565 Y-1.9795
G01 X22.4236 Y-1.8881
G01 X22.3822 Y-1.8002
G01 X22.3776 Y-1.7916
G01 X22.3276 Y-1.7083
G01 X22.2668 Y-1.6264
G01 X22.2016 Y-1.5543
G01 X22.1947 Y-1.5474
G01 X22.1226 Y-1.4822
G01 X22.0447 Y-1.4243
G01 X22.0365 Y-1.4188
G01 X21.9532 Y-1.3690
G01 X21.8609 Y-1.3254
G01 X21.7695 Y-1.2925
G01 X21.7601 Y-1.2897
G01 X21.6659 Y-1.2662
G01 X21.5698 Y-1.2518
G01 X21.5600 Y-1.2508
G01 X21.4630 Y-1.2462
G01 X21.3611 Y-1.2512
G01 X21.2601 Y-1.2662
G01 X21.1612 Y-1.2910
G01 X21.0651 Y-1.3254
G01 X20.9728 Y-1.3690
G01 X20.8853 Y-1.4214
G01 X20.8034 Y-1.4822
G01 X20.7278 Y-1.5508
G01 X20.6608 Y-1.6245
G01 X20.6562 Y-1.6302
G01 X20.5984 Y-1.7083
G01 X20.5460 Y-1.7958
G01 X20.5024 Y-1.8881
G01 X20.4695 Y-1.9795
G01 X20.4673 Y-1.9865
G01 X20.4432 Y-2.0831
G01 X20.4288 Y-2.1792
G01 X20.4278 Y-2.1890
G01 X20.4233 Y-2.2811
G01 X20.4233 Y-2.2909
G01 X20.4282 Y-2.3879
G01 X20.4390 Y-2.4612
G01 X19.3094 Y-3.5907
G01 X13.2080 Y-3.5907
G01 X13.1541 Y-3.5933
G01 X13.1443 Y-3.5942
G01 X13.0909 Y-3.6023
G01 X13.0385 Y-3.6153
G01 X13.0291 Y-3.6181
G01 X12.9783 Y-3.6364
G01 X12.9294 Y-3.6594
G01 X12.9208 Y-3.6640
G01 X12.8745 Y-3.6919
G01 X12.8311 Y-3.7240
G01 X12.8235 Y-3.7302
G01 X12.7836 Y-3.7666
G01 X11.0056 Y-5.5446
G01 X10.9692 Y-5.5845
G01 X10.9630 Y-5.5921
G01 X10.9309 Y-5.6355
G01 X10.9006 Y-5.6860
G01 X10.8754 Y-5.7393
G01 X10.8571 Y-5.7901
G01 X10.8543 Y-5.7995
G01 X10.8413 Y-5.8519
G01 X10.8332 Y-5.9053
G01 X10.8323 Y-5.9151
G01 X10.8298 Y-5.9665
G01 X10.8297 Y-7.6254
G01 X8.8123 Y-9.6428
G01 X7.2221 Y-9.6428
G00 Z2.0000
G00 X3.4637 Y-10.8611
G01 F60.00
G01 Z0.0000
G01 F250.00
G01 X3.4638 Y-11.1785
G01 X3.4666 Y-11.2348
G01 X3.4753 Y-11.2931
G01 X3.4896 Y-11.3502
G01 X3.5077 Y-11.4011
G01 X3.5114 Y-11.4102
G01 X3.5346 Y-11.4590
G01 X3.5623 Y-11.5053
G01 X3.5677 Y-11.5135
G01 X3.6000 Y-11.5568
G01 X3.6396 Y-11.6004
G01 X5.5463 Y-13.5072
G01 X5.5882 Y-13.5450
G01 X5.6355 Y-13.5801
G01 X5.6860 Y-13.6104
G01 X5.7348 Y-13.6336
G01 X5.7416 Y-13.6365
G01 X5.7948 Y-13.6554
G01 X5.8519 Y-13.6697
G01 X5.9102 Y-13.6784
G01 X5.9690 Y-13.6813
G01 X10.6873 Y-13.6813
G01 X10.6983 Y-13.6926
G01 X10.7704 Y-13.7578
G01 X10.8523 Y-13.8186
G01 X10.9398 Y-13.8710
G01 X11.0276 Y-13.9127
G01 X11.0367 Y-13.9164
G01 X11.1235 Y-13.9475
G01 X11.1329 Y-13.9503
G01 X11.2271 Y-13.9738
G01 X11.3232 Y-13.9882
G01 X11.3330 Y-13.9892
G01 X11.4300 Y-13.9938
G01 X11.5270 Y-13.9892
G01 X11.5368 Y-13.9882
G01 X11.6329 Y-13.9738
G01 X11.7318 Y-13.9490
G01 X11.8279 Y-13.9146
G01 X11.9158 Y-13.8732
G01 X11.9223 Y-13.8698
G01 X12.0077 Y-13.8186
G01 X12.0858 Y-13.7608
G01 X12.0934 Y-13.7546
G01 X12.1617 Y-13.6926
G01 X12.1686 Y-13.6857
G01 X12.2338 Y-13.6136
G01 X12.2780 Y-13.5543
G01 X17.2720 Y-13.5543
G01 X17.3308 Y-13.5514
G01 X17.3891 Y-13.5427
G01 X17.4462 Y-13.5284
G01 X17.4971 Y-13.5103
G01 X17.5062 Y-13.5066
G01 X17.5550 Y-13.4834
G01 X17.6055 Y-13.4531
G01 X17.6528 Y-13.4180
G01 X17.6964 Y-13.3784
G01 X20.3146 Y-10.7603
G01 X26.7986 Y-10.7603
G01 X26.7986 Y-10.9499
G01 X26.7991 Y-10.9572
G01 X26.8001 Y-10.9645
G01 X26.8029 Y-10.9764
G01 X26.8072 Y-10.9879
G01 X26.8104 Y-10.9945
G01 X26.8141 Y-11.0009
G01 X26.8183 Y-11.0070
G01 X26.8229 Y-11.0127
G01 X26.8279 Y-11.0181
G01 X26.8333 Y-11.0231
G01 X26.8390 Y-11.0277
G01 X26.8451 Y-11.0319
G01 X26.8558 Y-11.0378
G01 X26.8626 Y-11.0407
G01 X26.8696 Y-11.0431
G01 X26.8815 Y-11.0459
G01 X26.8912 Y-11.0471
G01 X26.8986 Y-11.0474
G01 X28.4734 Y-11.0474
G01 X28.4856 Y-11.0466
G01 X28.4929 Y-11.0455
G01 X28.5001 Y-11.0438
G01 X28.5071 Y-11.0416
G01 X28.5162 Y-11.0378
G01 X28.5227 Y-11.0344
G01 X28.5290 Y-11.0305
G01 X28.5349 Y-11.0262
G01 X28.5406 Y-11.0215
G01 X28.5475 Y-11.0146
G01 X28.5522 Y-11.0089
G01 X28.5565 Y-11.0030
G01 X28.5616 Y-10.9945
G01 X28.5648 Y-10.9879
G01 X28.5676 Y-10.9811
G01 X28.5698 Y-10.9741
G01 X28.5715 Y-10.9669
G01 X28.5726 Y-10.9596
G01 X28.5733 Y-10.9523
G01 X28.5733 Y-9.3677
G01 X28.5723 Y-9.3579
G01 X28.5704 Y-9.3483
G01 X28.5684 Y-9.3412
G01 X28.5648 Y-9.3321
G01 X28.5604 Y-9.3233
G01 X28.5552 Y-9.3150
G01 X28.5491 Y-9.3073
G01 X28.5441 Y-9.3019
G01 X28.5368 Y-9.2953
G01 X28.5290 Y-9.2895
G01 X28.5227 Y-9.2856
G01 X28.5139 Y-9.2812
G01 X28.5071 Y-9.2784
G01 X28.4977 Y-9.2756
G01 X28.4881 Y-9.2737
G01 X28.4783 Y-9.2727
G01 X26.8986 Y-9.2726
G01 X26.8888 Y-9.2731
G01 X26.8815 Y-9.2741
G01 X26.8743 Y-9.2756
G01 X26.8672 Y-9.2776
G01 X26.8603 Y-9.2802
G01 X26.8536 Y-9.2833
G01 X26.8472 Y-9.2868
G01 X26.8410 Y-9.2908
G01 X26.8352 Y-9.2953
G01 X26.8296 Y-9.3002
G01 X26.8245 Y-9.3054
G01 X26.8198 Y-9.3111
G01 X26.8155 Y-9.3170
G01 X26.8116 Y-9.3233
G01 X26.8082 Y-9.3298
G01 X26.8053 Y-9.3366
G01 X26.8029 Y-9.3436
G01 X26.8010 Y-9.3507
G01 X26.7997 Y-9.3579
G01 X26.7986 Y-9.3701
G01 X26.7986 Y-9.5597
G01 X20.0660 Y-9.5597
G01 X20.0121 Y-9.5623
G01 X20.0023 Y-9.5632
G01 X19.9489 Y-9.5713
G01 X19.8965 Y-9.5843
G01 X19.8871 Y-9.5871
G01 X19.8363 Y-9.6054
G01 X19.7874 Y-9.6284
G01 X19.7788 Y-9.6330
G01 X19.7325 Y-9.6609
G01 X19.6891 Y-9.6930
G01 X19.6815 Y-9.6992
G01 X19.6433 Y-9.7338
G01 X17.0234 Y-12.3537
G01 X12.2780 Y-12.3537
G01 X12.2338 Y-12.2944
G01 X12.1686 Y-12.2223
G01 X12.1617 Y-12.2154
G01 X12.0915 Y-12.1518
G01 X12.0858 Y-12.1472
G01 X12.0077 Y-12.0894
G01 X11.9244 Y-12.0394
G01 X11.9180 Y-12.0358
G01 X11.8324 Y-11.9953
G01 X11.8233 Y-11.9916
G01 X11.7318 Y-11.9590
G01 X11.6376 Y-11.9353
G01 X11.6280 Y-11.9333
G01 X11.5319 Y-11.9192
G01 X11.4300 Y-11.9142
G01 X11.3330 Y-11.9188
G01 X11.3232 Y-11.9198
G01 X11.2271 Y-11.9342
G01 X11.1282 Y-11.9590
G01 X11.0367 Y-11.9916
G01 X11.0276 Y-11.9953
G01 X10.9398 Y-12.0370
G01 X10.8565 Y-12.0868
G01 X10.8483 Y-12.0923
G01 X10.7742 Y-12.1472
G01 X10.7666 Y-12.1534
G01 X10.6948 Y-12.2188
G01 X10.6294 Y-12.2906
G01 X10.6232 Y-12.2982
G01 X10.5654 Y-12.3763
G01 X10.5142 Y-12.4617
G01 X10.5048 Y-12.4807
G01 X6.2176 Y-12.4807
G01 X4.6643 Y-10.9274
G01 X4.6643 Y-10.8611
G01 X4.6769 Y-10.8490
G01 X4.7271 Y-10.7936
G01 X4.7334 Y-10.7860
G01 X4.7807 Y-10.7220
G01 X4.8242 Y-10.6494
G01 X4.8584 Y-10.5774
G01 X4.8622 Y-10.5683
G01 X4.8889 Y-10.4933
G01 X4.9084 Y-10.4160
G01 X4.9103 Y-10.4064
G01 X4.9218 Y-10.3275
G01 X4.9259 Y-10.2480
G01 X4.9259 Y-10.2381
G01 X4.9218 Y-10.1586
G01 X4.9103 Y-10.0797
G01 X4.9084 Y-10.0701
G01 X4.8881 Y-9.9905
G01 X4.8604 Y-9.9132
G01 X4.8264 Y-9.8411
G01 X4.8218 Y-9.8324
G01 X4.7807 Y-9.7641
G01 X4.7334 Y-9.7001
G01 X4.7271 Y-9.6925
G01 X4.6735 Y-9.6335
G01 X4.6108 Y-9.5767
G01 X4.5429 Y-9.5263
G01 X4.4746 Y-9.4853
G01 X4.4660 Y-9.4806
G01 X4.3939 Y-9.4467
G01 X4.3142 Y-9.4182
G01 X4.2370 Y-9.3987
G01 X4.2273 Y-9.3968
G01 X4.1485 Y-9.3852
G01 X4.0689 Y-9.3812
G01 X4.0591 Y-9.3812
G01 X3.9795 Y-9.3852
G01 X3.8958 Y-9.3976
G01 X3.8138 Y-9.4182
G01 X3.7387 Y-9.4449
G01 X3.7296 Y-9.4487
G01 X3.6620 Y-9.4806
G01 X3.6534 Y-9.4853
G01 X3.5851 Y-9.5263
G01 X3.5172 Y-9.5767
G01 X3.4545 Y-9.6335
G01 X3.4009 Y-9.6925
G01 X3.3946 Y-9.7001
G01 X3.3501 Y-9.7601
G01 X3.3446 Y-9.7683
G01 X3.3038 Y-9.8367
G01 X3.2696 Y-9.9087
G01 X3.2658 Y-9.9178
G01 X3.2407 Y-9.9882
G01 X3.2378 Y-9.9976
G01 X3.2186 Y-10.0749
G01 X3.2062 Y-10.1586
G01 X3.2020 Y-10.2430
G01 X3.2058 Y-10.3226
G01 X3.2068 Y-10.3324
G01 X3.2186 Y-10.4112
G01 X3.2378 Y-10.4885
G01 X3.2407 Y-10.4979
G01 X3.2676 Y-10.5729
G01 X3.3038 Y-10.6494
G01 X3.3473 Y-10.7220
G01 X3.3946 Y-10.7860
G01 X3.4009 Y-10.7936
G01 X3.4511 Y-10.8490
G01 X3.4637 Y-10.8611
G00 Z2.0000
G00 X11.3370 Y-1.1878
G01 F60.00
G01 Z0.0000
G01 F250.00
G01 X11.2016 Y-1.1920
G01 X11.0681 Y-1.2129
G01 X10.9380 Y-1.2502
G01 X10.8132 Y-1.3028
G01 X10.6964 Y-1.3703
G01 X10.5883 Y-1.4518
G01 X10.4909 Y-1.5459
G01 X10.4830 Y-1.5555
G01 X10.4762 Y-1.5624
G01 X10.4357 Y-1.5951
G01 X10.4297 Y-1.5995
G01 X10.4235 Y-1.6034
G01 X10.4169 Y-1.6069
G01 X10.4101 Y-1.6099
G01 X10.4032 Y-1.6123
G01 X10.3523 Y-1.6244
G01 X10.3423 Y-1.6262
G01 X10.3297 Y-1.6270
G01 X7.7252 Y-1.6275
G01 X7.6450 Y-1.6349
G01 X7.6280 Y-1.6377
G01 X7.5490 Y-1.6573
G01 X7.5327 Y-1.6626
G01 X7.4577 Y-1.6936
G01 X7.4427 Y-1.7013
G01 X7.3751 Y-1.7423
G01 X7.2961 Y-1.8054
G01 X6.1234 Y-2.9781
G01 X6.0603 Y-3.0571
G01 X6.0193 Y-3.1247
G01 X6.0116 Y-3.1397
G01 X5.9806 Y-3.2147
G01 X5.9753 Y-3.2310
G01 X5.9557 Y-3.3100
G01 X5.9529 Y-3.3270
G01 X5.9455 Y-3.4072
G01 X5.9450 Y-4.0260
G01 X5.9448 Y-4.0333
G01 X5.9440 Y-4.0406
G01 X5.9370 Y-4.0805
G01 X5.9353 Y-4.0877
G01 X5.9331 Y-4.0947
G01 X5.9283 Y-4.1060
G01 X5.9050 Y-4.1451
G01 X5.8974 Y-4.1555
G01 X5.8629 Y-4.1968
G01 X5.7968 Y-4.3006
G01 X5.7450 Y-4.4120
G01 X5.7084 Y-4.5297
G01 X5.6882 Y-4.6505
G01 X5.6841 Y-4.7740
G01 X5.6960 Y-4.8962
G01 X5.7248 Y-5.0157
G01 X5.7689 Y-5.1304
G01 X5.8280 Y-5.2385
G01 X5.9007 Y-5.3373
G01 X5.9863 Y-5.4257
G01 X6.0831 Y-5.5018
G01 X6.1890 Y-5.5646
G01 X6.3021 Y-5.6127
G01 X6.4208 Y-5.6452
G01 X6.5427 Y-5.6617
G01 X6.6653 Y-5.6617
G01 X6.7872 Y-5.6452
G01 X6.9058 Y-5.6127
G01 X7.0190 Y-5.5646
G01 X7.1249 Y-5.5018
G01 X7.2217 Y-5.4257
G01 X7.3073 Y-5.3373
G01 X7.3800 Y-5.2385
G01 X7.4391 Y-5.1304
G01 X7.4832 Y-5.0157
G01 X7.5120 Y-4.8962
G01 X7.5239 Y-4.7740
G01 X7.5198 Y-4.6505
G01 X7.4996 Y-4.5296
G01 X7.4630 Y-4.4120
G01 X7.4112 Y-4.3006
G01 X7.3451 Y-4.1968
G01 X7.3106 Y-4.1555
G01 X7.3029 Y-4.1451
G01 X7.2797 Y-4.1060
G01 X7.2749 Y-4.0947
G01 X7.2715 Y-4.0829
G01 X7.2640 Y-4.0406
G01 X7.2630 Y-4.0284
G01 X7.2630 Y-3.7856
G01 X7.2632 Y-3.7784
G01 X7.2644 Y-3.7689
G01 X7.2724 Y-3.7274
G01 X7.2748 Y-3.7176
G01 X7.2792 Y-3.7058
G01 X7.2825 Y-3.6991
G01 X7.2864 Y-3.6925
G01 X7.3115 Y-3.6555
G01 X7.3173 Y-3.6480
G01 X7.3222 Y-3.6428
G01 X7.9625 Y-3.0025
G01 X7.9678 Y-2.9978
G01 X7.9735 Y-2.9935
G01 X8.0105 Y-2.9684
G01 X8.0215 Y-2.9623
G01 X8.0308 Y-2.9584
G01 X8.0429 Y-2.9549
G01 X8.0845 Y-2.9468
G01 X8.0940 Y-2.9454
G01 X8.1036 Y-2.9450
G01 X10.3297 Y-2.9450
G01 X10.3423 Y-2.9458
G01 X10.3523 Y-2.9475
G01 X10.4032 Y-2.9597
G01 X10.4101 Y-2.9621
G01 X10.4169 Y-2.9651
G01 X10.4235 Y-2.9686
G01 X10.4297 Y-2.9725
G01 X10.4357 Y-2.9769
G01 X10.4762 Y-3.0096
G01 X10.4830 Y-3.0165
G01 X10.4909 Y-3.0261
G01 X10.5883 Y-3.1202
G01 X10.6964 Y-3.2017
G01 X10.8132 Y-3.2692
G01 X10.9380 Y-3.3218
G01 X11.0681 Y-3.3591
G01 X11.2014 Y-3.3800
G01 X11.3370 Y-3.3837
G01 X11.4717 Y-3.3716
G01 X11.6037 Y-3.3428
G01 X11.7312 Y-3.2977
G01 X11.8523 Y-3.2371
G01 X11.9651 Y-3.1625
G01 X12.0678 Y-3.0747
G01 X12.1586 Y-2.9746
G01 X12.2369 Y-2.8641
G01 X12.3012 Y-2.7449
G01 X12.3500 Y-2.6189
G01 X12.3826 Y-2.4881
G01 X12.3993 Y-2.3535
G01 X12.3993 Y-2.2185
G01 X12.3826 Y-2.0839
G01 X12.3500 Y-1.9530
G01 X12.3012 Y-1.8271
G01 X12.2369 Y-1.7079
G01 X12.1586 Y-1.5974
G01 X12.0678 Y-1.4973
G01 X11.9651 Y-1.4094
G01 X11.8523 Y-1.3349
G01 X11.7312 Y-1.2743
G01 X11.6037 Y-1.2292
G01 X11.4715 Y-1.2003
G01 X11.3370 Y-1.1878
G00 Z2.0000
G00 X15.5367 Y-6.0889
G01 F60.00
G01 Z0.0000
G01 F250.00
G01 X15.3661 Y-6.0932
G01 X15.1964 Y-6.1153
G01 X15.0303 Y-6.1540
G01 X14.8694 Y-6.2105
G01 X14.7144 Y-6.2830
G01 X14.5679 Y-6.3706
G01 X14.4314 Y-6.4731
G01 X14.3059 Y-6.5890
G01 X14.1933 Y-6.7174
G01 X14.0941 Y-6.8568
G01 X14.0103 Y-7.0053
G01 X13.9418 Y-7.1620
G01 X13.8900 Y-7.3244
G01 X13.8551 Y-7.4917
G01 X13.8373 Y-7.6618
G01 X13.8373 Y-7.8322
G01 X13.8551 Y-8.0023
G01 X13.8900 Y-8.1696
G01 X13.9418 Y-8.3320
G01 X14.0103 Y-8.4887
G01 X14.0941 Y-8.6372
G01 X14.1933 Y-8.7766
G01 X14.3059 Y-8.9049
G01 X14.4314 Y-9.0209
G01 X14.5679 Y-9.1234
G01 X14.7144 Y-9.2110
G01 X14.8694 Y-9.2835
G01 X15.0303 Y-9.3400
G01 X15.1964 Y-9.3787
G01 X15.3661 Y-9.4008
G01 X15.5367 Y-9.4051
G01 X15.7073 Y-9.3922
G01 X15.8748 Y-9.3615
G01 X16.0392 Y-9.3136
G01 X16.1972 Y-9.2494
G01 X16.3476 Y-9.1689
G01 X16.4896 Y-9.0735
G01 X16.6209 Y-8.9643
G01 X16.7401 Y-8.8422
G01 X16.8459 Y-8.7081
G01 X16.9375 Y-8.5638
G01 X17.0141 Y-8.4115
G01 X17.0740 Y-8.2516
G01 X17.1176 Y-8.0861
G01 X17.1439 Y-7.9176
G01 X17.1526 Y-7.7470
G01 X17.1439 Y-7.5764
G01 X17.1176 Y-7.4079
G01 X17.0740 Y-7.2424
G01 X17.0141 Y-7.0825
G01 X16.9375 Y-6.9302
G01 X16.8459 Y-6.7859
G01 X16.7401 Y-6.6518
G01 X16.6209 Y-6.5297
G01 X16.4896 Y-6.4205
G01 X16.3476 Y-6.3250
G01 X16.1972 Y-6.2446
G01 X16.0392 Y-6.1804
G01 X15.8748 Y-6.1325
G01 X15.7072 Y-6.1018
G01 X15.5367 Y-6.0889
G00 Z2.0000
G00 X21.4970 Y-1.1878
G01 F60.00
G01 Z0.0000
G01 F250.00
G01 X21.3616 Y-1.1920
G01 X21.2281 Y-1.2129
G01 X21.0980 Y-1.2502
G01 X20.9732 Y-1.3028
G01 X20.8564 Y-1.3703
G01 X20.7483 Y-1.4518
G01 X20.6511 Y-1.5458
G01 X20.5664 Y-1.6514
G01 X20.4952 Y-1.7664
G01 X20.4388 Y-1.8893
G01 X20.3978 Y-2.0179
G01 X20.3727 Y-2.1511
G01 X20.3643 Y-2.2859
G01 X20.3685 Y-2.3518
G01 X20.3686 Y-2.3621
G01 X20.3677 Y-2.3724
G01 X20.3608 Y-2.4193
G01 X20.3591 Y-2.4263
G01 X20.3570 Y-2.4332
G01 X20.3534 Y-2.4421
G01 X20.3502 Y-2.4485
G01 X20.3205 Y-2.4946
G01 X20.3147 Y-2.5019
G01 X20.3099 Y-2.5071
G01 X19.3425 Y-3.4744
G01 X19.3372 Y-3.4792
G01 X19.3315 Y-3.4835
G01 X19.2923 Y-3.5099
G01 X19.2857 Y-3.5136
G01 X19.2789 Y-3.5168
G01 X19.2670 Y-3.5209
G01 X19.2181 Y-3.5306
G01 X19.2110 Y-3.5316
G01 X19.2014 Y-3.5320
G01 X13.1862 Y-3.5325
G01 X13.1060 Y-3.5399
G01 X13.0890 Y-3.5427
G01 X13.0100 Y-3.5623
G01 X12.9937 Y-3.5676
G01 X12.9187 Y-3.5986
G01 X12.9037 Y-3.6063
G01 X12.8361 Y-3.6473
G01 X12.7571 Y-3.7104
G01 X10.9494 Y-5.5181
G01 X10.8863 Y-5.5971
G01 X10.8453 Y-5.6647
G01 X10.8376 Y-5.6797
G01 X10.8066 Y-5.7547
G01 X10.8013 Y-5.7710
G01 X10.7817 Y-5.8500
G01 X10.7789 Y-5.8670
G01 X10.7715 Y-5.9472
G01 X10.7710 Y-7.5198
G01 X10.7706 Y-7.5270
G01 X10.7696 Y-7.5341
G01 X10.7616 Y-7.5756
G01 X10.7592 Y-7.5854
G01 X10.7558 Y-7.5949
G01 X10.7514 Y-7.6039
G01 X10.7462 Y-7.6126
G01 X10.7225 Y-7.6475
G01 X10.7182 Y-7.6532
G01 X10.7118 Y-7.6602
G01 X8.8469 Y-9.5251
G01 X8.8414 Y-9.5302
G01 X8.8335 Y-9.5364
G01 X8.7984 Y-9.5596
G01 X8.7900 Y-9.5646
G01 X8.7789 Y-9.5696
G01 X8.7720 Y-9.5720
G01 X8.7649 Y-9.5738
G01 X8.7239 Y-9.5820
G01 X8.7143 Y-9.5834
G01 X8.7046 Y-9.5838
G01 X7.3223 Y-9.5838
G01 X7.3121 Y-9.5833
G01 X7.3045 Y-9.5823
G01 X7.2607 Y-9.5741
G01 X7.2489 Y-9.5702
G01 X7.2378 Y-9.5650
G01 X7.1980 Y-9.5406
G01 X7.1885 Y-9.5333
G01 X7.1741 Y-9.5201
G01 X7.0730 Y-9.4507
G01 X6.9637 Y-9.3953
G01 X6.8474 Y-9.3550
G01 X6.7269 Y-9.3307
G01 X6.6040 Y-9.3225
G01 X6.4811 Y-9.3307
G01 X6.3606 Y-9.3550
G01 X6.2443 Y-9.3953
G01 X6.1349 Y-9.4507
G01 X6.0336 Y-9.5204
G01 X5.9419 Y-9.6029
G01 X5.8629 Y-9.6966
G01 X5.7968 Y-9.8006
G01 X5.7450 Y-9.9122
G01 X5.7084 Y-10.0293
G01 X5.6882 Y-10.1506
G01 X5.6841 Y-10.2737
G01 X5.6960 Y-10.3963
G01 X5.7248 Y-10.5158
G01 X5.7689 Y-10.6305
G01 X5.8280 Y-10.7386
G01 X5.9007 Y-10.8375
G01 X5.9863 Y-10.9258
G01 X6.0831 Y-11.0019
G01 X6.1890 Y-11.0647
G01 X6.3021 Y-11.1128
G01 X6.4206 Y-11.1453
G01 X6.5425 Y-11.1613
G01 X6.6655 Y-11.1613
G01 X6.7874 Y-11.1453
G01 X6.9058 Y-11.1128
G01 X7.0190 Y-11.0647
G01 X7.1249 Y-11.0019
G01 X7.2003 Y-10.9426
G01 X7.2085 Y-10.9374
G01 X7.2428 Y-10.9188
G01 X7.2545 Y-10.9137
G01 X7.2641 Y-10.9108
G01 X7.3070 Y-10.9033
G01 X7.3141 Y-10.9025
G01 X7.3213 Y-10.9023
G01 X9.0827 Y-10.9018
G01 X9.1629 Y-10.8939
G01 X9.1801 Y-10.8911
G01 X9.2586 Y-10.8715
G01 X9.2749 Y-10.8662
G01 X9.3499 Y-10.8352
G01 X9.3652 Y-10.8274
G01 X9.4355 Y-10.7852
G01 X9.4496 Y-10.7754
G01 X9.5114 Y-10.7240
G01 X11.9106 Y-8.3249
G01 X11.9737 Y-8.2459
G01 X12.0147 Y-8.1783
G01 X12.0224 Y-8.1633
G01 X12.0534 Y-8.0883
G01 X12.0587 Y-8.0720
G01 X12.0782 Y-7.9930
G01 X12.0811 Y-7.9760
G01 X12.0884 Y-7.8958
G01 X12.0890 Y-6.3256
G01 X12.0894 Y-6.3160
G01 X12.0904 Y-6.3088
G01 X12.0989 Y-6.2649
G01 X12.1024 Y-6.2528
G01 X12.1063 Y-6.2435
G01 X12.1124 Y-6.2325
G01 X12.1361 Y-6.1974
G01 X12.1418 Y-6.1898
G01 X12.1482 Y-6.1828
G01 X13.4235 Y-4.9075
G01 X13.4288 Y-4.9028
G01 X13.4345 Y-4.8985
G01 X13.4694 Y-4.8748
G01 X13.4781 Y-4.8695
G01 X13.4848 Y-4.8662
G01 X13.4942 Y-4.8626
G01 X13.5039 Y-4.8599
G01 X13.5526 Y-4.8507
G01 X13.5646 Y-4.8500
G01 X19.2014 Y-4.8500
G01 X19.2086 Y-4.8502
G01 X19.2181 Y-4.8514
G01 X19.2621 Y-4.8599
G01 X19.2694 Y-4.8618
G01 X19.2789 Y-4.8652
G01 X19.2857 Y-4.8684
G01 X19.2923 Y-4.8720
G01 X19.3315 Y-4.8985
G01 X19.3390 Y-4.9043
G01 X19.3442 Y-4.9092
G01 X22.5361 Y-8.1006
G01 X22.6151 Y-8.1637
G01 X22.6827 Y-8.2047
G01 X22.6977 Y-8.2124
G01 X22.7727 Y-8.2434
G01 X22.7890 Y-8.2487
G01 X22.8680 Y-8.2682
G01 X22.8850 Y-8.2711
G01 X22.9652 Y-8.2784
G01 X26.9353 Y-8.2791
G01 X26.9458 Y-8.2802
G01 X26.9886 Y-8.2882
G01 X27.0002 Y-8.2917
G01 X27.0069 Y-8.2944
G01 X27.0133 Y-8.2977
G01 X27.0485 Y-8.3189
G01 X27.0567 Y-8.3244
G01 X27.1099 Y-8.3705
G01 X27.2129 Y-8.4395
G01 X27.3239 Y-8.4941
G01 X27.4412 Y-8.5336
G01 X27.5626 Y-8.5580
G01 X27.6860 Y-8.5663
G01 X27.8094 Y-8.5580
G01 X27.9308 Y-8.5336
G01 X28.0481 Y-8.4941
G01 X28.1591 Y-8.4395
G01 X28.2619 Y-8.3707
G01 X28.3548 Y-8.2888
G01 X28.4367 Y-8.1959
G01 X28.5055 Y-8.0931
G01 X28.5601 Y-7.9821
G01 X28.5996 Y-7.8648
G01 X28.6240 Y-7.7434
G01 X28.6323 Y-7.6200
G01 X28.6240 Y-7.4966
G01 X28.5996 Y-7.3752
G01 X28.5601 Y-7.2579
G01 X28.5055 Y-7.1469
G01 X28.4367 Y-7.0441
G01 X28.3548 Y-6.9512
G01 X28.2619 Y-6.8693
G01 X28.1591 Y-6.8005
G01 X28.0481 Y-6.7459
G01 X27.9308 Y-6.7064
G01 X27.8094 Y-6.6820
G01 X27.6860 Y-6.6737
G01 X27.5626 Y-6.6820
G01 X27.4412 Y-6.7064
G01 X27.3239 Y-6.7459
G01 X27.2129 Y-6.8005
G01 X27.1099 Y-6.8694
G01 X27.0567 Y-6.9156
G01 X27.0485 Y-6.9211
G01 X27.0133 Y-6.9423
G01 X27.0069 Y-6.9456
G01 X27.0002 Y-6.9483
G01 X26.9886 Y-6.9518
G01 X26.9458 Y-6.9598
G01 X26.9353 Y-6.9609
G01 X23.3436 Y-6.9610
G01 X23.3364 Y-6.9608
G01 X23.3269 Y-6.9596
G01 X23.2829 Y-6.9511
G01 X23.2732 Y-6.9484
G01 X23.2615 Y-6.9437
G01 X23.2505 Y-6.9376
G01 X23.2135 Y-6.9125
G01 X23.2060 Y-6.9066
G01 X23.2008 Y-6.9018
G01 X20.6310 Y-4.3315
G01 X20.6227 Y-4.3214
G01 X20.5988 Y-4.2868
G01 X20.5937 Y-4.2786
G01 X20.5894 Y-4.2699
G01 X20.5860 Y-4.2609
G01 X20.5835 Y-4.2516
G01 X20.5746 Y-4.2054
G01 X20.5738 Y-4.1982
G01 X20.5736 Y-4.1910
G01 X20.5743 Y-4.1790
G01 X20.5835 Y-4.1304
G01 X20.5860 Y-4.1211
G01 X20.5894 Y-4.1121
G01 X20.5937 Y-4.1034
G01 X20.5988 Y-4.0952
G01 X20.6227 Y-4.0606
G01 X20.6275 Y-4.0544
G01 X20.6328 Y-4.0487
G01 X21.2448 Y-3.4364
G01 X21.2558 Y-3.4276
G01 X21.2988 Y-3.4001
G01 X21.3055 Y-3.3968
G01 X21.3125 Y-3.3939
G01 X21.3221 Y-3.3910
G01 X21.3294 Y-3.3894
G01 X21.3725 Y-3.3819
G01 X21.3825 Y-3.3809
G01 X21.3900 Y-3.3808
G01 X21.4969 Y-3.3837
G01 X21.6317 Y-3.3716
G01 X21.7637 Y-3.3428
G01 X21.8912 Y-3.2977
G01 X22.0123 Y-3.2371
G01 X22.1251 Y-3.1625
G01 X22.2278 Y-3.0747
G01 X22.3186 Y-2.9746
G01 X22.3969 Y-2.8641
G01 X22.4612 Y-2.7449
G01 X22.5100 Y-2.6189
G01 X22.5426 Y-2.4881
G01 X22.5593 Y-2.3535
G01 X22.5593 Y-2.2185
G01 X22.5426 Y-2.0839
G01 X22.5100 Y-1.9530
G01 X22.4612 Y-1.8271
G01 X22.3969 Y-1.7079
G01 X22.3186 Y-1.5974
G01 X22.2278 Y-1.4973
G01 X22.1251 Y-1.4094
G01 X22.0123 Y-1.3349
G01 X21.8912 Y-1.2743
G01 X21.7637 Y-1.2292
G01 X21.6315 Y-1.2003
G01 X21.4970 Y-1.1878
G00 Z2.0000
G00 X26.9098 Y-9.2135
G01 F60.00
G01 Z0.0000
G01 F250.00
G01 X26.8637 Y-9.2187
G01 X26.8299 Y-9.2306
G01 X26.8002 Y-9.2492
G01 X26.7753 Y-9.2741
G01 X26.7575 Y-9.3027
G01 X26.7374 Y-9.3628
G01 X26.7325 Y-9.3746
G01 X26.7289 Y-9.3813
G01 X26.7064 Y-9.4200
G01 X26.6994 Y-9.4299
G01 X26.6930 Y-9.4371
G01 X26.6878 Y-9.4422
G01 X26.6822 Y-9.4468
G01 X26.6462 Y-9.4731
G01 X26.6379 Y-9.4786
G01 X26.6290 Y-9.4832
G01 X26.6197 Y-9.4870
G01 X26.6102 Y-9.4897
G01 X26.5640 Y-9.4994
G01 X26.5512 Y-9.5009
G01 X20.0442 Y-9.5015
G01 X19.9640 Y-9.5089
G01 X19.9470 Y-9.5117
G01 X19.8680 Y-9.5313
G01 X19.8517 Y-9.5366
G01 X19.7767 Y-9.5676
G01 X19.7617 Y-9.5753
G01 X19.6941 Y-9.6163
G01 X19.6151 Y-9.6794
G01 X17.0565 Y-12.2374
G01 X17.0512 Y-12.2422
G01 X17.0455 Y-12.2465
G01 X17.0106 Y-12.2702
G01 X17.0019 Y-12.2754
G01 X16.9952 Y-12.2788
G01 X16.9882 Y-12.2816
G01 X16.9785 Y-12.2845
G01 X16.9345 Y-12.2932
G01 X16.9250 Y-12.2946
G01 X16.9154 Y-12.2950
G01 X12.4033 Y-12.2950
G01 X12.3957 Y-12.2947
G01 X12.3831 Y-12.2930
G01 X12.3322 Y-12.2810
G01 X12.3252 Y-12.2787
G01 X12.3183 Y-12.2759
G01 X12.3117 Y-12.2726
G01 X12.3033 Y-12.2675
G01 X12.2973 Y-12.2631
G01 X12.2568 Y-12.2304
G01 X12.2500 Y-12.2235
G01 X12.2421 Y-12.2139
G01 X12.1447 Y-12.1198
G01 X12.0366 Y-12.0383
G01 X11.9198 Y-11.9708
G01 X11.7949 Y-11.9182
G01 X11.6649 Y-11.8809
G01 X11.5314 Y-11.8600
G01 X11.3960 Y-11.8558
G01 X11.2615 Y-11.8683
G01 X11.1293 Y-11.8972
G01 X11.0018 Y-11.9423
G01 X10.8807 Y-12.0029
G01 X10.7679 Y-12.0774
G01 X10.6652 Y-12.1653
G01 X10.5743 Y-12.2655
G01 X10.5205 Y-12.3408
G01 X10.5142 Y-12.3480
G01 X10.4918 Y-12.3714
G01 X10.4830 Y-12.3795
G01 X10.4753 Y-12.3853
G01 X10.4671 Y-12.3902
G01 X10.4338 Y-12.4071
G01 X10.4228 Y-12.4117
G01 X10.4136 Y-12.4143
G01 X10.4066 Y-12.4157
G01 X10.3728 Y-12.4211
G01 X10.3591 Y-12.4220
G01 X6.3256 Y-12.4220
G01 X6.3160 Y-12.4216
G01 X6.3089 Y-12.4206
G01 X6.2649 Y-12.4121
G01 X6.2528 Y-12.4086
G01 X6.2435 Y-12.4047
G01 X6.2325 Y-12.3986
G01 X6.1974 Y-12.3749
G01 X6.1898 Y-12.3692
G01 X6.1828 Y-12.3628
G01 X4.8432 Y-11.0232
G01 X4.8379 Y-11.0175
G01 X4.8331 Y-11.0114
G01 X4.8098 Y-10.9777
G01 X4.8048 Y-10.9691
G01 X4.8007 Y-10.9601
G01 X4.7975 Y-10.9506
G01 X4.7870 Y-10.9107
G01 X4.7850 Y-10.8983
G01 X4.7845 Y-10.8907
G01 X4.7847 Y-10.8805
G01 X4.7887 Y-10.8401
G01 X4.7909 Y-10.8284
G01 X4.7936 Y-10.8192
G01 X4.7972 Y-10.8104
G01 X4.8164 Y-10.7716
G01 X4.8220 Y-10.7627
G01 X4.8402 Y-10.7383
G01 X4.8991 Y-10.6305
G01 X4.9432 Y-10.5158
G01 X4.9720 Y-10.3963
G01 X4.9839 Y-10.2737
G01 X4.9798 Y-10.1506
G01 X4.9596 Y-10.0293
G01 X4.9230 Y-9.9122
G01 X4.8712 Y-9.8007
G01 X4.8051 Y-9.6966
G01 X4.7261 Y-9.6029
G01 X4.6344 Y-9.5204
G01 X4.5330 Y-9.4507
G01 X4.4237 Y-9.3953
G01 X4.3074 Y-9.3550
G01 X4.1869 Y-9.3307
G01 X4.0640 Y-9.3225
G01 X3.9411 Y-9.3307
G01 X3.8206 Y-9.3550
G01 X3.7043 Y-9.3953
G01 X3.5949 Y-9.4507
G01 X3.4936 Y-9.5204
G01 X3.4019 Y-9.6029
G01 X3.3229 Y-9.6966
G01 X3.2568 Y-9.8006
G01 X3.2050 Y-9.9122
G01 X3.1684 Y-10.0293
G01 X3.1482 Y-10.1506
G01 X3.1441 Y-10.2737
G01 X3.1560 Y-10.3963
G01 X3.1848 Y-10.5158
G01 X3.2289 Y-10.6305
G01 X3.2879 Y-10.7385
G01 X3.3672 Y-10.8459
G01 X3.3728 Y-10.8549
G01 X3.3888 Y-10.8857
G01 X3.3937 Y-10.8968
G01 X3.3973 Y-10.9085
G01 X3.4038 Y-10.9472
G01 X3.4047 Y-10.9550
G01 X3.4050 Y-10.9629
G01 X3.4055 Y-11.1986
G01 X3.4128 Y-11.2756
G01 X3.4205 Y-11.3155
G01 X3.4219 Y-11.3255
G01 X3.4223 Y-11.3356
G01 X3.4217 Y-11.3824
G01 X3.4209 Y-11.3924
G01 X3.4196 Y-11.3998
G01 X3.4177 Y-11.4071
G01 X3.4153 Y-11.4142
G01 X3.4113 Y-11.4234
G01 X3.3880 Y-11.4694
G01 X3.3840 Y-11.4755
G01 X3.3796 Y-11.4813
G01 X3.3749 Y-11.4868
G01 X3.3679 Y-11.4935
G01 X3.3277 Y-11.5255
G01 X3.3176 Y-11.5323
G01 X3.3067 Y-11.5377
G01 X3.2953 Y-11.5418
G01 X3.2479 Y-11.5532
G01 X3.2385 Y-11.5549
G01 X3.2266 Y-11.5559
G01 X3.2194 Y-11.5558
G01 X3.2123 Y-11.5551
G01 X3.1572 Y-11.5443
G01 X3.1501 Y-11.5422
G01 X3.1432 Y-11.5396
G01 X3.1067 Y-11.5234
G01 X3.0091 Y-11.4965
G01 X2.9091 Y-11.4850
G01 X2.8085 Y-11.4890
G01 X2.7093 Y-11.5079
G01 X2.6146 Y-11.5423
G01 X2.5258 Y-11.5905
G01 X2.4457 Y-11.6512
G01 X2.3761 Y-11.7239
G01 X2.3179 Y-11.8064
G01 X2.2734 Y-11.8967
G01 X2.2429 Y-11.9929
G01 X2.2275 Y-12.0925
G01 X2.2275 Y-12.1934
G01 X2.2429 Y-12.2931
G01 X2.2734 Y-12.3893
G01 X2.3179 Y-12.4796
G01 X2.3761 Y-12.5621
G01 X2.4457 Y-12.6348
G01 X2.5258 Y-12.6955
G01 X2.6146 Y-12.7437
G01 X2.7093 Y-12.7780
G01 X2.8085 Y-12.7970
G01 X2.9091 Y-12.8009
G01 X3.0091 Y-12.7895
G01 X3.1066 Y-12.7626
G01 X3.1986 Y-12.7216
G01 X3.2827 Y-12.6666
G01 X3.3584 Y-12.5993
G01 X3.4227 Y-12.5218
G01 X3.4742 Y-12.4351
G01 X3.5117 Y-12.3416
G01 X3.5346 Y-12.2436
G01 X3.5426 Y-12.1426
G01 X3.5381 Y-12.0832
G01 X3.5379 Y-12.0707
G01 X3.5386 Y-12.0633
G01 X3.5444 Y-12.0177
G01 X3.5473 Y-12.0055
G01 X3.5498 Y-11.9984
G01 X3.5528 Y-11.9915
G01 X3.5563 Y-11.9849
G01 X3.5792 Y-11.9457
G01 X3.5863 Y-11.9360
G01 X3.5911 Y-11.9306
G01 X3.5963 Y-11.9256
G01 X3.6038 Y-11.9195
G01 X3.6368 Y-11.8951
G01 X3.6449 Y-11.8898
G01 X3.6534 Y-11.8852
G01 X3.6601 Y-11.8823
G01 X3.6693 Y-11.8793
G01 X3.7190 Y-11.8680
G01 X3.7289 Y-11.8667
G01 X3.7389 Y-11.8665
G01 X3.7513 Y-11.8676
G01 X3.7963 Y-11.8756
G01 X3.8058 Y-11.8780
G01 X3.8150 Y-11.8813
G01 X3.8239 Y-11.8855
G01 X3.8322 Y-11.8906
G01 X3.8683 Y-11.9148
G01 X3.8740 Y-11.9192
G01 X3.8812 Y-11.9257
G01 X5.5181 Y-13.5616
G01 X5.5971 Y-13.6247
G01 X5.6647 Y-13.6657
G01 X5.6797 Y-13.6734
G01 X5.7547 Y-13.7044
G01 X5.7710 Y-13.7097
G01 X5.8500 Y-13.7292
G01 X5.8670 Y-13.7321
G01 X5.9472 Y-13.7394
G01 X10.5924 Y-13.7401
G01 X10.6039 Y-13.7413
G01 X10.6460 Y-13.7493
G01 X10.6529 Y-13.7512
G01 X10.6596 Y-13.7536
G01 X10.6705 Y-13.7586
G01 X10.7035 Y-13.7776
G01 X10.7115 Y-13.7827
G01 X10.7189 Y-13.7885
G01 X10.7680 Y-13.8306
G01 X10.8807 Y-13.9051
G01 X11.0018 Y-13.9657
G01 X11.1293 Y-14.0108
G01 X11.2613 Y-14.0396
G01 X11.3960 Y-14.0517
G01 X11.5316 Y-14.0480
G01 X11.6649 Y-14.0271
G01 X11.7949 Y-13.9898
G01 X11.9198 Y-13.9372
G01 X12.0366 Y-13.8697
G01 X12.1447 Y-13.7882
G01 X12.2421 Y-13.6941
G01 X12.2500 Y-13.6845
G01 X12.2567 Y-13.6776
G01 X12.2973 Y-13.6449
G01 X12.3033 Y-13.6405
G01 X12.3095 Y-13.6366
G01 X12.3161 Y-13.6331
G01 X12.3252 Y-13.6292
G01 X12.3322 Y-13.6269
G01 X12.3831 Y-13.6150
G01 X12.3957 Y-13.6132
G01 X12.4033 Y-13.6130
G01 X17.2938 Y-13.6124
G01 X17.3740 Y-13.6051
G01 X17.3910 Y-13.6022
G01 X17.4700 Y-13.5827
G01 X17.4863 Y-13.5774
G01 X17.5613 Y-13.5464
G01 X17.5763 Y-13.5387
G01 X17.6439 Y-13.4977
G01 X17.7229 Y-13.4346
G01 X20.2798 Y-10.8782
G01 X20.2868 Y-10.8718
G01 X20.2925 Y-10.8675
G01 X20.3317 Y-10.8410
G01 X20.3405 Y-10.8363
G01 X20.3475 Y-10.8333
G01 X20.3546 Y-10.8308
G01 X20.3619 Y-10.8289
G01 X20.4059 Y-10.8204
G01 X20.4130 Y-10.8194
G01 X20.4226 Y-10.8190
G01 X26.5486 Y-10.8190
G01 X26.5564 Y-10.8195
G01 X26.5640 Y-10.8206
G01 X26.6077 Y-10.8297
G01 X26.6174 Y-10.8322
G01 X26.6267 Y-10.8357
G01 X26.6357 Y-10.8401
G01 X26.6442 Y-10.8454
G01 X26.6803 Y-10.8718
G01 X26.6878 Y-10.8778
G01 X26.6963 Y-10.8864
G01 X26.7037 Y-10.8960
G01 X26.7314 Y-10.9431
G01 X26.7365 Y-10.9548
G01 X26.7575 Y-11.0173
G01 X26.7753 Y-11.0459
G01 X26.8002 Y-11.0708
G01 X26.8299 Y-11.0894
G01 X26.8637 Y-11.1013
G01 X26.9098 Y-11.1065
G01 X28.4622 Y-11.1065
G01 X28.5083 Y-11.1013
G01 X28.5420 Y-11.0894
G01 X28.5718 Y-11.0708
G01 X28.5968 Y-11.0458
G01 X28.6154 Y-11.0160
G01 X28.6273 Y-10.9823
G01 X28.6325 Y-10.9362
G01 X28.6325 Y-9.3838
G01 X28.6273 Y-9.3377
G01 X28.6154 Y-9.3039
G01 X28.5968 Y-9.2742
G01 X28.5718 Y-9.2492
G01 X28.5420 Y-9.2306
G01 X28.5083 Y-9.2187
G01 X28.4622 Y-9.2135
G01 X26.9098 Y-9.2135
G00 Z2.0000
M05
G00 Z2.0000
G00 Z15.00


