(G-CODE GENERATED BY FLATCAM v8.994 - www.flatcam.org - Version Date: 2020/11/7)

(Name: Gerber_TopLayer.GTL_iso_combined_1_cnc)
(Type: G-code from Geometry)
(Units: MM)

(Created on Wednesday, 28 May 2025 at 17:57)

(This preprocessor is the default preprocessor used by FlatCAM.)
(It is made to work with MACH3 compatible motion controllers.)

(TOOL DIAMETER: 2.0 mm)
(Feedrate_XY: 450.0 mm/min)
(Feedrate_Z: 60.0 mm/min)
(Feedrate rapids 1500.0 mm/min)

(Z_Cut: -0.5 mm)
(Z_Move: 2.0 mm)
(Z Start: None mm)
(Z End: 15.0 mm)
(X,Y End: None mm)
(Steps per circle: 64)
(Preprocessor Geometry: default)

(X range:   -0.2466 ...   31.2351  mm)
(Y range:  -15.9880 ...    0.4940  mm)

(Spindle Speed: 24000.0 RPM)
G21
G90
G94

G01 F450.00

M5
G00 Z15.0000
G00 X0.0000 Y0.0000
T1
M6    
(MSG, Change to Tool Dia = 2.0000)
M0
G00 Z15.0000

M03 S24000.0
G01 F450.00
G00 X0.8550 Y0.4940
G01 F60.00
G01 Z-0.5000
G01 F450.00
G01 X0.8309 Y0.4938
G01 X0.8069 Y0.4929
G01 X0.7829 Y0.4914
G01 X0.7589 Y0.4894
G01 X0.7350 Y0.4868
G01 X0.7112 Y0.4836
G01 X0.6874 Y0.4799
G01 X0.6246 Y0.4680
G01 X0.6000 Y0.4629
G01 X0.5755 Y0.4571
G01 X0.5512 Y0.4508
G01 X0.5270 Y0.4438
G01 X0.5030 Y0.4362
G01 X0.4792 Y0.4280
G01 X0.4556 Y0.4193
G01 X0.4322 Y0.4099
G01 X0.4091 Y0.4000
G01 X0.3863 Y0.3894
G01 X0.3637 Y0.3784
G01 X0.3414 Y0.3667
G01 X0.3194 Y0.3545
G01 X0.2977 Y0.3417
G01 X0.2763 Y0.3284
G01 X0.2223 Y0.2922
G01 X0.2022 Y0.2782
G01 X0.1824 Y0.2638
G01 X0.1631 Y0.2489
G01 X0.1440 Y0.2335
G01 X0.1254 Y0.2176
G01 X0.1072 Y0.2013
G01 X0.0893 Y0.1845
G01 X0.0719 Y0.1673
G01 X0.0549 Y0.1497
G01 X0.0383 Y0.1317
G01 X0.0222 Y0.1133
G01 X0.0066 Y0.0945
G01 X-0.0086 Y0.0753
G01 X-0.0233 Y0.0558
G01 X-0.0376 Y0.0359
G01 X-0.0732 Y-0.0174
G01 X-0.0863 Y-0.0379
G01 X-0.0990 Y-0.0586
G01 X-0.1112 Y-0.0797
G01 X-0.1228 Y-0.1011
G01 X-0.1339 Y-0.1227
G01 X-0.1445 Y-0.1446
G01 X-0.1546 Y-0.1668
G01 X-0.1641 Y-0.1892
G01 X-0.1731 Y-0.2118
G01 X-0.1815 Y-0.2346
G01 X-0.1893 Y-0.2577
G01 X-0.1966 Y-0.2809
G01 X-0.2033 Y-0.3043
G01 X-0.2095 Y-0.3278
G01 X-0.2151 Y-0.3515
G01 X-0.2277 Y-0.4139
G01 X-0.2321 Y-0.4378
G01 X-0.2360 Y-0.4619
G01 X-0.2392 Y-0.4860
G01 X-0.2419 Y-0.5103
G01 X-0.2440 Y-0.5345
G01 X-0.2455 Y-0.5589
G01 X-0.2463 Y-0.5832
G01 X-0.2466 Y-0.6076
G01 X-0.2466 Y-14.8864
G01 X-0.2463 Y-14.9108
G01 X-0.2455 Y-14.9351
G01 X-0.2440 Y-14.9594
G01 X-0.2419 Y-14.9837
G01 X-0.2392 Y-15.0079
G01 X-0.2360 Y-15.0321
G01 X-0.2321 Y-15.0561
G01 X-0.2277 Y-15.0801
G01 X-0.2151 Y-15.1425
G01 X-0.2095 Y-15.1662
G01 X-0.2034 Y-15.1897
G01 X-0.1966 Y-15.2131
G01 X-0.1893 Y-15.2364
G01 X-0.1815 Y-15.2594
G01 X-0.1730 Y-15.2822
G01 X-0.1641 Y-15.3049
G01 X-0.1546 Y-15.3273
G01 X-0.1445 Y-15.3494
G01 X-0.1339 Y-15.3714
G01 X-0.1228 Y-15.3930
G01 X-0.1111 Y-15.4144
G01 X-0.0989 Y-15.4355
G01 X-0.0863 Y-15.4562
G01 X-0.0512 Y-15.5097
G01 X-0.0375 Y-15.5300
G01 X-0.0233 Y-15.5499
G01 X-0.0086 Y-15.5694
G01 X0.0066 Y-15.5886
G01 X0.0223 Y-15.6074
G01 X0.0384 Y-15.6258
G01 X0.0550 Y-15.6438
G01 X0.0720 Y-15.6614
G01 X0.0894 Y-15.6786
G01 X0.1072 Y-15.6953
G01 X0.1254 Y-15.7116
G01 X0.1441 Y-15.7275
G01 X0.1631 Y-15.7429
G01 X0.1825 Y-15.7578
G01 X0.2022 Y-15.7722
G01 X0.2553 Y-15.8085
G01 X0.2763 Y-15.8224
G01 X0.2977 Y-15.8357
G01 X0.3194 Y-15.8485
G01 X0.3414 Y-15.8607
G01 X0.3637 Y-15.8723
G01 X0.3863 Y-15.8834
G01 X0.4091 Y-15.8940
G01 X0.4322 Y-15.9039
G01 X0.4556 Y-15.9133
G01 X0.4792 Y-15.9220
G01 X0.5030 Y-15.9302
G01 X0.5270 Y-15.9378
G01 X0.5512 Y-15.9447
G01 X0.5755 Y-15.9511
G01 X0.6000 Y-15.9568
G01 X0.6638 Y-15.9696
G01 X0.6874 Y-15.9739
G01 X0.7112 Y-15.9776
G01 X0.7350 Y-15.9808
G01 X0.7589 Y-15.9834
G01 X0.7829 Y-15.9854
G01 X0.8069 Y-15.9869
G01 X0.8309 Y-15.9877
G01 X0.8550 Y-15.9880
G01 X30.1335 Y-15.9880
G01 X30.1579 Y-15.9877
G01 X30.1822 Y-15.9868
G01 X30.2065 Y-15.9854
G01 X30.2308 Y-15.9833
G01 X30.2550 Y-15.9806
G01 X30.2792 Y-15.9774
G01 X30.3032 Y-15.9735
G01 X30.3658 Y-15.9615
G01 X30.3902 Y-15.9563
G01 X30.4146 Y-15.9506
G01 X30.4388 Y-15.9442
G01 X30.4628 Y-15.9372
G01 X30.4866 Y-15.9297
G01 X30.5103 Y-15.9215
G01 X30.5337 Y-15.9128
G01 X30.5569 Y-15.9034
G01 X30.5799 Y-15.8935
G01 X30.6026 Y-15.8830
G01 X30.6250 Y-15.8720
G01 X30.6472 Y-15.8604
G01 X30.6690 Y-15.8482
G01 X30.6906 Y-15.8355
G01 X30.7118 Y-15.8223
G01 X30.7327 Y-15.8085
G01 X30.7858 Y-15.7722
G01 X30.8055 Y-15.7578
G01 X30.8249 Y-15.7429
G01 X30.8439 Y-15.7275
G01 X30.8626 Y-15.7116
G01 X30.8808 Y-15.6953
G01 X30.8986 Y-15.6786
G01 X30.9160 Y-15.6614
G01 X30.9330 Y-15.6438
G01 X30.9496 Y-15.6258
G01 X30.9657 Y-15.6074
G01 X30.9813 Y-15.5886
G01 X30.9965 Y-15.5694
G01 X31.0113 Y-15.5499
G01 X31.0255 Y-15.5300
G01 X31.0611 Y-15.4767
G01 X31.0747 Y-15.4556
G01 X31.0877 Y-15.4341
G01 X31.1002 Y-15.4123
G01 X31.1122 Y-15.3903
G01 X31.1236 Y-15.3679
G01 X31.1345 Y-15.3452
G01 X31.1447 Y-15.3223
G01 X31.1544 Y-15.2991
G01 X31.1635 Y-15.2757
G01 X31.1720 Y-15.2521
G01 X31.1799 Y-15.2282
G01 X31.1873 Y-15.2042
G01 X31.1940 Y-15.1800
G01 X31.2001 Y-15.1556
G01 X31.2137 Y-15.0925
G01 X31.2187 Y-15.0670
G01 X31.2231 Y-15.0415
G01 X31.2267 Y-15.0158
G01 X31.2298 Y-14.9900
G01 X31.2321 Y-14.9642
G01 X31.2338 Y-14.9383
G01 X31.2348 Y-14.9124
G01 X31.2351 Y-14.8864
G01 X31.2351 Y-0.6076
G01 X31.2348 Y-0.5816
G01 X31.2338 Y-0.5557
G01 X31.2321 Y-0.5298
G01 X31.2298 Y-0.5040
G01 X31.2267 Y-0.4782
G01 X31.2230 Y-0.4525
G01 X31.2187 Y-0.4269
G01 X31.2055 Y-0.3629
G01 X31.2001 Y-0.3384
G01 X31.1940 Y-0.3140
G01 X31.1873 Y-0.2898
G01 X31.1799 Y-0.2658
G01 X31.1720 Y-0.2420
G01 X31.1635 Y-0.2183
G01 X31.1544 Y-0.1949
G01 X31.1447 Y-0.1718
G01 X31.1345 Y-0.1488
G01 X31.1236 Y-0.1262
G01 X31.1123 Y-0.1038
G01 X31.1003 Y-0.0817
G01 X31.0878 Y-0.0600
G01 X31.0747 Y-0.0385
G01 X31.0612 Y-0.0174
G01 X31.0256 Y0.0359
G01 X31.0113 Y0.0558
G01 X30.9966 Y0.0753
G01 X30.9814 Y0.0945
G01 X30.9658 Y0.1133
G01 X30.9496 Y0.1317
G01 X30.9331 Y0.1497
G01 X30.9161 Y0.1673
G01 X30.8987 Y0.1845
G01 X30.8808 Y0.2013
G01 X30.8626 Y0.2176
G01 X30.8440 Y0.2335
G01 X30.8249 Y0.2489
G01 X30.8055 Y0.2638
G01 X30.7858 Y0.2782
G01 X30.7327 Y0.3146
G01 X30.7118 Y0.3283
G01 X30.6906 Y0.3415
G01 X30.6690 Y0.3542
G01 X30.6472 Y0.3664
G01 X30.6250 Y0.3780
G01 X30.6026 Y0.3890
G01 X30.5799 Y0.3995
G01 X30.5569 Y0.4094
G01 X30.5337 Y0.4188
G01 X30.5103 Y0.4275
G01 X30.4866 Y0.4357
G01 X30.4628 Y0.4433
G01 X30.4388 Y0.4502
G01 X30.4146 Y0.4566
G01 X30.3902 Y0.4623
G01 X30.3272 Y0.4751
G01 X30.3032 Y0.4795
G01 X30.2792 Y0.4834
G01 X30.2550 Y0.4866
G01 X30.2308 Y0.4893
G01 X30.2065 Y0.4914
G01 X30.1822 Y0.4929
G01 X30.1579 Y0.4937
G01 X30.1335 Y0.4940
G01 X0.8550 Y0.4940
G00 Z2.0000
M05
G00 Z2.0000
G00 Z15.00


